%
(VECTRIC POST REVISION)
(14915DE88D57FEB54FDB7F235745EEBE)
T1
G0 G17 G20 G90 G40 G49 G64 P0.0001
G0Z1.0000
G0X0.0000Y0.0000
M3 S16000
M0(MSG, Click 'Continue' when the spindle is up to speed)
G0X4.7072Y-19.3905
G0Z0.1181
G1Z-0.0787F20.0
G1X4.7738Y-19.3918F60.0
G1X4.8434Y-19.3903
G1X4.9130Y-19.3862
G1X4.9522Y-19.3828
G1X4.9243Y-19.3723
G1X4.8970Y-19.3588
G1X4.8745Y-19.3445
G1X4.8543Y-19.3283
G1X4.8367Y-19.3105
G1X4.8219Y-19.2914
G1X4.8165Y-19.2833
G2X4.7482Y-19.2794I-0.0301J0.0728
G1X4.7355Y-19.2720
G1X4.7189Y-19.2831
G1X4.7221Y-19.2989
G1X4.7233Y-19.3161
G1X4.7219Y-19.3371
G1X4.7174Y-19.3597
G1X4.7089Y-19.3861
G1X4.7072Y-19.3905
G0Z0.1181
G0X5.0814Y-19.0869
G1Z-0.0787F20.0
G1X5.1189Y-19.0612F60.0
G1X5.1714Y-19.0436
G1X5.1973Y-19.0325
G1X5.2124Y-19.0235
G1X5.2172Y-19.0191
G1X5.2154Y-19.0081
G1X5.2106Y-18.9957
G1X5.2068Y-18.9911
G1X5.1976Y-18.9880
G1X5.1801Y-18.9860
G1X5.1498Y-18.9865
G1X5.0681Y-18.9917
G1X5.0512Y-18.9920
G1X5.0438Y-18.9907
G2X5.0003Y-18.8592I0.0139J0.0775
G1X5.0462Y-18.8114
G1X5.0717Y-18.7883
G1X5.0813Y-18.7807
G1X5.0559Y-18.7812
G1X5.0355Y-18.7841
G1X5.0195Y-18.7891
G1X5.0071Y-18.7957
G1X4.9978Y-18.8042
G1X4.9901Y-18.8154
G1X4.9837Y-18.8304
G1X4.9787Y-18.8509
G1X4.9761Y-18.8760
G1X4.9761Y-18.9065
G1X4.9770Y-18.9408
G1X4.9752Y-18.9611
G1X4.9715Y-18.9779
G1X4.9648Y-18.9962
G1X4.9555Y-19.0129
G1X4.9447Y-19.0268
G1X4.9346Y-19.0367
G1X5.0814Y-19.0869
G0Z0.1181
G0X5.3367Y-19.1786
G1Z-0.0787F20.0
G1X5.3991Y-19.1624F60.0
G1X5.4359Y-19.1505
G1X5.4461Y-19.1466
G1X5.4405Y-19.1042
G1X5.4439Y-19.0707
G1X5.4443Y-19.0394
G1X5.4416Y-19.0073
G1X5.4357Y-18.9739
G1X5.4264Y-18.9386
G1X5.4117Y-18.8959
G1X5.3818Y-18.8226
G1X5.3656Y-18.8248
G1X5.3819Y-18.8454
G1X5.3960Y-18.8679
G1X5.4068Y-18.8905
G1X5.4149Y-18.9145
G1X5.4202Y-18.9396
G1X5.4223Y-18.9637
G1X5.4215Y-18.9899
G1X5.4176Y-19.0162
G1X5.4107Y-19.0423
G1X5.4002Y-19.0698
G1X5.3701Y-19.1297
G1X5.3541Y-19.1560
G1X5.3380Y-19.1772
G1X5.3367Y-19.1786
G0Z0.1181
G0X5.6611Y-19.2027
G1Z-0.0787F20.0
G1X5.6841Y-19.1940F60.0
G1X5.6938Y-19.1910
G1X5.6960Y-19.1649
G1X5.6958Y-19.1338
G1X5.6927Y-19.1018
G1X5.6861Y-19.0641
G1X5.6753Y-19.0201
G1X5.6695Y-19.0002
G1X5.6577Y-19.0321
G1X5.6426Y-19.0646
G2X5.6793Y-19.1495I-0.0401J-0.0677
G1X5.6723Y-19.1751
G1X5.6624Y-19.1998
G1X5.6611Y-19.2027
G0Z0.1181
G0X4.3728Y-18.2358
G1Z-0.0496F20.0
G1X4.3711Y-18.2516Z-0.0415F60.0
G1X4.3664Y-18.2684Z-0.0342
G1X4.3585Y-18.2880Z-0.0277
G1X4.3510Y-18.3044Z-0.0245
G1X4.3439Y-18.3202Z-0.0243
G1X4.3392Y-18.3360Z-0.0259
G1X4.3363Y-18.3524Z-0.0299
G1X4.3350Y-18.3654Z-0.0350
G1X4.3172Y-18.3762Z-0.0271
G1X4.3019Y-18.3839Z-0.0229
G1X4.2872Y-18.3896Z-0.0215
G1X4.2717Y-18.3938Z-0.0227
G1X4.2532Y-18.3971Z-0.0272
G1X4.2227Y-18.4017Z-0.0379
G1X4.2029Y-18.4072Z-0.0444
G1X4.1912Y-18.4125Z-0.0473
G1X4.1841Y-18.4181Z-0.0475
G1X4.1755Y-18.4285Z-0.0455
G1X4.1634Y-18.4480Z-0.0400
G1X4.1498Y-18.4760Z-0.0318
G1X4.1353Y-18.5104Z-0.0227
G1X4.1224Y-18.5388Z-0.0179
G1X4.1097Y-18.5636Z-0.0160
G1X4.0960Y-18.5868Z-0.0167
G1X4.0816Y-18.6073Z-0.0196
G1X4.0665Y-18.6256Z-0.0245
G1X4.0483Y-18.6441Z-0.0320
G1X4.0115Y-18.6768Z-0.0490
G1X3.9968Y-18.6745Z-0.0407
G1X3.9847Y-18.6744Z-0.0354
G1X3.9734Y-18.6763Z-0.0318
G1X3.9631Y-18.6801Z-0.0300
G1X3.9370Y-18.6958Z-0.0297
G1X3.9080Y-18.7169Z-0.0296
G1X3.8810Y-18.7404Z-0.0297
G1X3.8565Y-18.7653Z-0.0302
G1X3.8303Y-18.7963Z-0.0309
G1X3.8041Y-18.8317Z-0.0318
G1X3.7706Y-18.8819Z-0.0321
G1X3.7336Y-18.9429Z-0.0316
G1X3.6850Y-19.0296Z-0.0306
G1X3.5769Y-19.2317Z-0.0277
G1X3.5557Y-19.2705Z-0.0268
G1X3.5391Y-19.3023Z-0.0248
G1X3.5283Y-19.3190Z-0.0254
G1X3.5176Y-19.3315Z-0.0278
G1X3.5054Y-19.3423Z-0.0324
G1X3.4917Y-19.3514Z-0.0390
G1X3.4763Y-19.3592Z-0.0476
G1X3.4621Y-19.3433Z-0.0359
G1X3.4508Y-19.3287Z-0.0284
G1X3.4422Y-19.3150Z-0.0245
G1X3.4352Y-19.3002Z-0.0230
G1X3.4295Y-19.2826Z-0.0234
G1X3.4245Y-19.2573Z-0.0257
G1X3.4200Y-19.2247Z-0.0287
G1X3.4169Y-19.1936Z-0.0305
G1X3.4158Y-19.1643Z-0.0320
G1X3.4146Y-19.1291Z-0.0313
G1X3.4163Y-19.0952Z-0.0307
G1X3.4211Y-19.0597Z-0.0302
G1X3.4284Y-19.0258Z-0.0298
G1X3.4382Y-18.9932Z-0.0296
G1X3.4520Y-18.9569Z-0.0294
G1X3.4687Y-18.9210Z-0.0293
G1X3.4899Y-18.8823Z-0.0289
G1X3.5284Y-18.8197Z-0.0290
G1X3.6189Y-18.6788Z-0.0310
G1X3.6539Y-18.6208Z-0.0306
G1X3.6735Y-18.5845Z-0.0298
G1X3.6885Y-18.5512Z-0.0297
G1X3.7007Y-18.5173Z-0.0300
G1X3.7099Y-18.4829Z-0.0305
G1X3.7156Y-18.4519Z-0.0310
G1X3.7188Y-18.4202Z-0.0314
G1X3.7194Y-18.3878Z-0.0315
G1X3.7173Y-18.3544Z-0.0313
G1X3.7122Y-18.3196Z-0.0307
G1X3.7035Y-18.2816Z-0.0296
G1X3.6997Y-18.2640Z-0.0302
G1X3.6984Y-18.2480Z-0.0326
G1X3.6998Y-18.2345Z-0.0355
G1X3.7030Y-18.2250Z-0.0375
G1X3.7117Y-18.2191Z-0.0345
G1X3.7252Y-18.2139Z-0.0302
G1X3.7421Y-18.2106Z-0.0263
G1X3.7609Y-18.2086Z-0.0246
G1X3.7899Y-18.2074Z-0.0251
G1X3.8073Y-18.2083Z-0.0254
G1X3.8179Y-18.2107Z-0.0243
G1X3.8458Y-18.2214Z-0.0193
G1X3.8746Y-18.2333Z-0.0168
G1X3.9057Y-18.2466Z-0.0170
G1X3.9437Y-18.2623Z-0.0204
G1X3.9780Y-18.2733Z-0.0235
G1X4.0093Y-18.2805Z-0.0261
G1X4.0413Y-18.2850Z-0.0282
G1X4.0713Y-18.2867Z-0.0294
G1X4.1016Y-18.2857Z-0.0298
G1X4.1328Y-18.2820Z-0.0291
G1X4.1632Y-18.2757Z-0.0274
G1X4.1955Y-18.2663Z-0.0244
G1X4.2294Y-18.2534Z-0.0201
G1X4.2552Y-18.2431Z-0.0172
G1X4.2763Y-18.2364Z-0.0171
G1X4.2954Y-18.2320Z-0.0190
G1X4.3148Y-18.2297Z-0.0233
G1X4.3360Y-18.2295Z-0.0304
G1X4.3517Y-18.2307Z-0.0371
G1X4.3652Y-18.2335Z-0.0446
G1X4.3728Y-18.2358Z-0.0496
G0Z0.1181
G0X4.9994Y-19.0166
G1Z-0.1187F20.0
G1X4.9699Y-19.0275Z-0.0989F60.0
G1X4.9424Y-19.0351Z-0.0828
G1X4.9169Y-19.0397Z-0.0702
G1X4.8912Y-19.0420Z-0.0597
G1X4.8655Y-19.0418Z-0.0516
G1X4.8490Y-19.0409Z-0.0481
G1X4.8361Y-19.0409Z-0.0481
G1X4.8228Y-19.0416Z-0.0511
G1X4.8135Y-19.0421Z-0.0548
G1X4.8046Y-19.0276Z-0.0473
G1X4.7986Y-19.0133Z-0.0423
G1X4.7930Y-18.9939Z-0.0377
G1X4.7899Y-18.9746Z-0.0351
G1X4.7892Y-18.9546Z-0.0345
G1X4.7909Y-18.9310Z-0.0357
G1X4.7967Y-18.8969Z-0.0386
G1X4.8010Y-18.8697Z-0.0413
G1X4.8035Y-18.8470Z-0.0461
G1X4.8038Y-18.8259Z-0.0529
G1X4.8017Y-18.8044Z-0.0619
G1X4.8004Y-18.7975Z-0.0651
G1X4.8093Y-18.7815Z-0.0596
G1X4.8271Y-18.7768Z-0.0415
G1X4.8399Y-18.7707Z-0.0273
G1X4.8236Y-18.7780Z-0.0452
G1X4.8093Y-18.7815Z-0.0596
G1X4.8142Y-18.7494Z-0.0427
G1X4.8185Y-18.7211Z-0.0310
G1X4.8230Y-18.6963Z-0.0237
G1X4.8284Y-18.6745Z-0.0198
G1X4.8358Y-18.6544Z-0.0180
G1X4.8458Y-18.6346Z-0.0179
G1X4.8594Y-18.6141Z-0.0194
G1X4.8776Y-18.5922Z-0.0221
G1X4.8983Y-18.5717Z-0.0248
G1X4.9200Y-18.5536Z-0.0259
G1X4.9406Y-18.5385Z-0.0246
G1X4.9580Y-18.5289Z-0.0231
G1X4.9764Y-18.5222Z-0.0221
G1X4.9971Y-18.5179Z-0.0216
G1X5.0201Y-18.5163Z-0.0214
G1X5.0468Y-18.5177Z-0.0217
G1X5.0779Y-18.5228Z-0.0223
G1X5.1149Y-18.5320Z-0.0230
G1X5.1582Y-18.5461Z-0.0240
G1X5.1964Y-18.5593Z-0.0275
G1X5.2340Y-18.5727Z-0.0341
G1X5.2650Y-18.5840Z-0.0419
G1X5.2687Y-18.5958Z-0.0345
G1X5.2732Y-18.6057Z-0.0295
G1X5.2788Y-18.6141Z-0.0264
G1X5.2878Y-18.6234Z-0.0250
G1X5.3116Y-18.6458Z-0.0248
G1X5.3370Y-18.6687Z-0.0275
G1X5.3667Y-18.6945Z-0.0338
G1X5.4002Y-18.7231Z-0.0438
G1X5.4042Y-18.7270Z-0.0455
G1X5.4027Y-18.7394Z-0.0403
G1X5.4012Y-18.7509Z-0.0386
G1X5.3999Y-18.7613Z-0.0400
G1X5.3986Y-18.7721Z-0.0441
G1X5.3961Y-18.7853Z-0.0513
G1X5.3919Y-18.7992Z-0.0605
G1X5.3860Y-18.8138Z-0.0715
G1X5.3780Y-18.8298Z-0.0850
G1X5.3589Y-18.8219Z-0.0758
G1X5.3313Y-18.8082Z-0.0666
G1X5.2979Y-18.7936Z-0.0581
G1X5.2653Y-18.7815Z-0.0522
G1X5.2386Y-18.7739Z-0.0495
G1X5.2136Y-18.7690Z-0.0491
G1X5.1891Y-18.7665Z-0.0507
G1X5.1642Y-18.7663Z-0.0545
G1X5.1374Y-18.7685Z-0.0606
G1X5.1078Y-18.7737Z-0.0696
G1X5.0789Y-18.7815Z-0.0796
G1X5.0525Y-18.7916Z-0.0888
G1X5.0320Y-18.8021Z-0.0953
G1X5.0192Y-18.8110Z-0.0981
G1X5.0108Y-18.8193Z-0.0984
G1X5.0015Y-18.8324Z-0.0962
G1X4.9903Y-18.8528Z-0.0904
G1X4.9836Y-18.8698Z-0.0858
G1X4.9794Y-18.8876Z-0.0824
G1X4.9777Y-18.9034Z-0.0805
G1X4.9781Y-18.9220Z-0.0800
G1X4.9803Y-18.9404Z-0.0820
G1X4.9836Y-18.9581Z-0.0867
G1X4.9881Y-18.9771Z-0.0945
G1X4.9946Y-19.0006Z-0.1078
G1X4.9994Y-19.0166Z-0.1187
G0Z0.1181
G0X5.0707Y-19.0362
G1Z-0.1233F20.0
G1X5.0931Y-19.0295Z-0.1177F60.0
G1X5.1259Y-19.0227Z-0.1133
G1X5.1685Y-19.0142Z-0.1071
G1X5.1909Y-19.0100Z-0.1016
G1X5.1932Z-0.1005
G1X5.2164Y-19.0188Z-0.0796
G1X5.2209Y-19.0205Z-0.0750
G1X5.1998Y-19.0125Z-0.0950
G1X5.1925Y-19.0097Z-0.1011
G1X5.2028Y-18.9975Z-0.0863
G1X5.1923Y-19.0098Z-0.1012
G1X5.1721Y-19.0135Z-0.1064
G1X5.1326Y-19.0214Z-0.1125
G1X5.0960Y-19.0288Z-0.1172
G1X5.0732Y-19.0353Z-0.1225
G1X5.0707Y-19.0362Z-0.1233
G1X5.0439Y-19.0315Z-0.1191
G1X5.0243Y-19.0261Z-0.1178
G1X5.0147Y-19.0229Z-0.1178
G1X4.9994Y-19.0166Z-0.1187
G1X4.9919Y-18.9913Z-0.1022
G1X4.9866Y-18.9713Z-0.0918
G1X4.9823Y-18.9518Z-0.0847
G1X4.9793Y-18.9337Z-0.0810
G1X4.9778Y-18.9162Z-0.0799
G1X4.9781Y-18.8983Z-0.0810
G1X4.9808Y-18.8804Z-0.0836
G1X4.9861Y-18.8625Z-0.0877
G1X4.9951Y-18.8434Z-0.0933
G1X5.0056Y-18.8262Z-0.0975
G1X5.0140Y-18.8157Z-0.0985
G1X5.0235Y-18.8077Z-0.0974
G1X5.0386Y-18.7984Z-0.0933
G1X5.0610Y-18.7880Z-0.0859
G1X5.0891Y-18.7784Z-0.0760
G1X5.1191Y-18.7714Z-0.0659
G1X5.1475Y-18.7674Z-0.0581
G1X5.1733Y-18.7661Z-0.0529
G1X5.1980Y-18.7671Z-0.0499
G1X5.2223Y-18.7704Z-0.0490
G1X5.2468Y-18.7760Z-0.0501
G1X5.2743Y-18.7846Z-0.0536
G1X5.3081Y-18.7978Z-0.0605
G1X5.3409Y-18.8128Z-0.0695
G1X5.3618Y-18.8232Z-0.0771
G1X5.3780Y-18.8298Z-0.0850
G1X5.3938Y-18.8585Z-0.0815
G1X5.4068Y-18.8869Z-0.0801
G1X5.4170Y-18.9155Z-0.0805
G1X5.4244Y-18.9444Z-0.0823
G1X5.4289Y-18.9734Z-0.0853
G1X5.4305Y-19.0030Z-0.0892
G1X5.4290Y-19.0327Z-0.0936
G1X5.4244Y-19.0633Z-0.0986
G1X5.4165Y-19.0940Z-0.1039
G1X5.4100Y-19.1170Z-0.1084
G1X5.4082Y-19.1262Z-0.1108
G1X5.3737Y-19.1536Z-0.0939
G1X5.3452Y-19.1733Z-0.0818
G1X5.3214Y-19.1875Z-0.0738
G1X5.2982Y-19.1864Z-0.0579
G1X5.2812Y-19.1870Z-0.0487
G1X5.2563Y-19.1885Z-0.0392
G1X5.2334Y-19.1877Z-0.0325
G1X5.2106Y-19.1847Z-0.0280
G1X5.1869Y-19.1793Z-0.0255
G1X5.1601Y-19.1708Z-0.0248
G1X5.1305Y-19.1593Z-0.0261
G1X5.1212Y-19.1541Z-0.0280
G1X5.1127Y-19.1470Z-0.0320
G1X5.1048Y-19.1379Z-0.0380
G1X5.0976Y-19.1269Z-0.0461
G1X5.0911Y-19.1140Z-0.0562
G1X5.0853Y-19.0992Z-0.0684
G1X5.0802Y-19.0826Z-0.0825
G1X5.0757Y-19.0640Z-0.0986
G1X5.0707Y-19.0362Z-0.1233
G0Z0.1181
G0X5.4082Y-19.1262
G1Z-0.1108F20.0
G1X5.4277Y-19.1379Z-0.0934F60.0
G1X5.4492Y-19.1479Z-0.0764
G1X5.4682Y-19.1540Z-0.0633
G1X5.4846Y-19.1570Z-0.0535
G1X5.5005Y-19.1575Z-0.0456
G1X5.5137Y-19.1557Z-0.0404
G1X5.5260Y-19.1517Z-0.0370
G1X5.5372Y-19.1455Z-0.0354
G1X5.5457Y-19.1385Z-0.0356
G1X5.5667Y-19.1143Z-0.0388
G1X5.5787Y-19.0995Z-0.0406
G1X5.5891Y-19.0900Z-0.0444
G1X5.6013Y-19.0817Z-0.0507
G1X5.6154Y-19.0745Z-0.0593
G1X5.6350Y-19.0670Z-0.0730
G1X5.6615Y-19.0598Z-0.0935
G1X5.6661Y-19.0588Z-0.0972
G1X5.6752Y-19.0762Z-0.0919
G1X5.6820Y-19.0940Z-0.0883
G1X5.6864Y-19.1119Z-0.0863
G1X5.6884Y-19.1298Z-0.0859
G1X5.6881Y-19.1473Z-0.0869
G1X5.6840Y-19.1756Z-0.0901
G1X5.6827Y-19.1817Z-0.0908
G1X5.6570Y-19.2064Z-0.0767
G1X5.6302Y-19.2292Z-0.0647
G1X5.5998Y-19.2518Z-0.0538
G1X5.5666Y-19.2734Z-0.0445
G1X5.5305Y-19.2939Z-0.0368
G1X5.4914Y-19.3133Z-0.0306
G1X5.4488Y-19.3316Z-0.0260
G1X5.4050Y-19.3478Z-0.0232
G1X5.3602Y-19.3616Z-0.0221
G1X5.3148Y-19.3731Z-0.0228
G1X5.2713Y-19.3817Z-0.0251
G1X5.2276Y-19.3878Z-0.0291
G1X5.1856Y-19.3911Z-0.0347
G1X5.1456Y-19.3918Z-0.0419
G1X5.1189Y-19.3907Z-0.0478
G1X5.1095Y-19.3894Z-0.0508
G1X5.1000Y-19.3871Z-0.0546
G1X5.0904Y-19.3840Z-0.0593
G1X5.0779Y-19.3786Z-0.0666
G1X5.0887Y-19.3581Z-0.0488
G1X5.0983Y-19.3441Z-0.0378
G1X5.1079Y-19.3338Z-0.0307
G1X5.1165Y-19.3272Z-0.0273
G1X5.1448Y-19.3109Z-0.0228
G1X5.1780Y-19.2931Z-0.0207
G1X5.2156Y-19.2750Z-0.0209
G1X5.2563Y-19.2586Z-0.0224
G1X5.2739Y-19.2523Z-0.0232
G1X5.2814Y-19.2484Z-0.0249
G1X5.2885Y-19.2431Z-0.0282
G1X5.2984Y-19.2325Z-0.0358
G1X5.3077Y-19.2183Z-0.0472
G1X5.3134Y-19.2071Z-0.0567
G1X5.3214Y-19.1875Z-0.0738
G1X5.3466Y-19.1724Z-0.0824
G1X5.3760Y-19.1520Z-0.0950
G1X5.4082Y-19.1262Z-0.1108
G1X5.4134Y-19.1043Z-0.1057
G1X5.4228Y-19.0708Z-0.0999
G1X5.4281Y-19.0410Z-0.0949
G1X5.4304Y-19.0110Z-0.0903
G1X5.4296Y-18.9812Z-0.0863
G1X5.4258Y-18.9518Z-0.0830
G1X5.4193Y-18.9232Z-0.0808
G1X5.4098Y-18.8947Z-0.0800
G1X5.3977Y-18.8665Z-0.0809
G1X5.3830Y-18.8384Z-0.0837
G1X5.3780Y-18.8298Z-0.0850
G1X5.3892Y-18.8062Z-0.0656
G1X5.3942Y-18.7920Z-0.0555
G1X5.3976Y-18.7784Z-0.0473
G1X5.3994Y-18.7656Z-0.0413
G1X5.4003Y-18.7582Z-0.0393
G1X5.4012Y-18.7509Z-0.0386
G1X5.4027Y-18.7394Z-0.0403
G1X5.4042Y-18.7270Z-0.0455
G1X5.4171Y-18.7249Z-0.0381
G1X5.4243Y-18.7245Z-0.0347
G1X5.4311Y-18.7248Z-0.0321
G1X5.4376Y-18.7257Z-0.0302
G1X5.4502Y-18.7293Z-0.0281
G1X5.4882Y-18.7437Z-0.0245
G1X5.5183Y-18.7577Z-0.0222
G1X5.5439Y-18.7726Z-0.0207
G1X5.5654Y-18.7882Z-0.0198
G1X5.5838Y-18.8052Z-0.0195
G1X5.5995Y-18.8235Z-0.0199
G1X5.6125Y-18.8432Z-0.0212
G1X5.6213Y-18.8593Z-0.0233
G1X5.6281Y-18.8681Z-0.0274
G1X5.6380Y-18.8773Z-0.0351
G1X5.6535Y-18.8883Z-0.0488
G1X5.6596Y-18.8920Z-0.0545
G1X5.6648Y-18.9219Z-0.0591
G1X5.6683Y-18.9556Z-0.0665
G1X5.6696Y-18.9920Z-0.0763
G1X5.6682Y-19.0340Z-0.0892
G1X5.6661Y-19.0588Z-0.0972
G1X5.6386Y-19.0658Z-0.0757
G1X5.6182Y-19.0733Z-0.0611
G1X5.6038Y-19.0803Z-0.0521
G1X5.5913Y-19.0884Z-0.0454
G1X5.5805Y-19.0976Z-0.0412
G1X5.5714Y-19.1081Z-0.0393
G1X5.5508Y-19.1330Z-0.0364
G1X5.5416Y-19.1422Z-0.0353
G1X5.5326Y-19.1484Z-0.0358
G1X5.5209Y-19.1537Z-0.0382
G1X5.5081Y-19.1567Z-0.0425
G1X5.4946Y-19.1576Z-0.0484
G1X5.4785Y-19.1562Z-0.0570
G1X5.4598Y-19.1517Z-0.0689
G1X5.4407Y-19.1443Z-0.0829
G1X5.4191Y-19.1330Z-0.1009
G1X5.4082Y-19.1262Z-0.1108
G0Z0.1181
G0X5.6596Y-18.8920
G1Z-0.0545F20.0
G1X5.6420Y-18.8805Z-0.0385F60.0
G1X5.6309Y-18.8710Z-0.0294
G1X5.6233Y-18.8623Z-0.0243
G1X5.6180Y-18.8536Z-0.0222
G1X5.6062Y-18.8331Z-0.0205
G1X5.5922Y-18.8144Z-0.0196
G1X5.5758Y-18.7973Z-0.0195
G1X5.5553Y-18.7805Z-0.0202
G1X5.5319Y-18.7652Z-0.0213
G1X5.5036Y-18.7505Z-0.0232
G1X5.4697Y-18.7363Z-0.0261
G1X5.4438Y-18.7272Z-0.0289
G1X5.4376Y-18.7257Z-0.0302
G1X5.4311Y-18.7248Z-0.0321
G1X5.4242Y-18.7245Z-0.0348
G1X5.4094Y-18.7260Z-0.0424
G1X5.4042Y-18.7270Z-0.0455
G1X5.3846Y-18.7098Z-0.0388
G1X5.3510Y-18.6810Z-0.0301
G1X5.3238Y-18.6569Z-0.0258
G1X5.2994Y-18.6345Z-0.0246
G1X5.2808Y-18.6165Z-0.0258
G1X5.2749Y-18.6085Z-0.0283
G1X5.2700Y-18.5991Z-0.0327
G1X5.2660Y-18.5880Z-0.0392
G1X5.2650Y-18.5840Z-0.0419
G1X5.2718Y-18.5804Z-0.0378
G1X5.2794Y-18.5773Z-0.0342
G1X5.2869Y-18.5750Z-0.0316
G1X5.2983Y-18.5733Z-0.0295
G1X5.3424Y-18.5700Z-0.0272
G1X5.3994Y-18.5676Z-0.0252
G1X5.4437Y-18.5679Z-0.0250
G1X5.4801Y-18.5707Z-0.0259
G1X5.5101Y-18.5758Z-0.0273
G1X5.5347Y-18.5828Z-0.0288
G1X5.5545Y-18.5914Z-0.0298
G1X5.5703Y-18.6013Z-0.0301
G1X5.5845Y-18.6136Z-0.0296
G1X5.5984Y-18.6299Z-0.0282
G1X5.6110Y-18.6495Z-0.0266
G1X5.6233Y-18.6742Z-0.0251
G1X5.6350Y-18.7049Z-0.0242
G1X5.6463Y-18.7431Z-0.0244
G1X5.6578Y-18.7930Z-0.0264
G1X5.6682Y-18.8430Z-0.0310
G1X5.6688Y-18.8547Z-0.0340
G1X5.6675Y-18.8670Z-0.0391
G1X5.6641Y-18.8801Z-0.0464
G1X5.6596Y-18.8920Z-0.0545
G0Z0.1181
G0X5.8102Y-18.3624
G1Z-0.0559F20.0
G1X5.7949Y-18.3660Z-0.0467F60.0
G1X5.7805Y-18.3676Z-0.0401
G1X5.7669Y-18.3672Z-0.0362
G1X5.7332Y-18.3645Z-0.0301
G1X5.7004Y-18.3642Z-0.0256
G1X5.6730Y-18.3660Z-0.0237
G1X5.6502Y-18.3691Z-0.0238
G1X5.6283Y-18.3739Z-0.0260
G1X5.6075Y-18.3803Z-0.0305
G1X5.5865Y-18.3887Z-0.0377
G1X5.5649Y-18.3994Z-0.0481
G1X5.5554Y-18.4045Z-0.0535
G1X5.5232Y-18.3883Z-0.0398
G1X5.4909Y-18.3696Z-0.0272
G1X5.4677Y-18.3566Z-0.0210
G1X5.4495Y-18.3475Z-0.0186
G1X5.4329Y-18.3404Z-0.0188
G1X5.4144Y-18.3342Z-0.0214
G1X5.3929Y-18.3294Z-0.0259
G1X5.3668Y-18.3264Z-0.0294
G1X5.3352Y-18.3255Z-0.0314
G1X5.2966Y-18.3270Z-0.0318
G1X5.2428Y-18.3324Z-0.0307
G1X5.1679Y-18.3433Z-0.0286
G1X5.1026Y-18.3542Z-0.0286
G1X5.0382Y-18.3650Z-0.0320
G1X5.0013Y-18.3712Z-0.0355
G1X4.9737Y-18.3746Z-0.0401
G1X4.9468Y-18.3762Z-0.0468
G1X4.9453Y-18.3762Z-0.0473
G1X4.9326Y-18.3611Z-0.0374
G1X4.9197Y-18.3469Z-0.0310
G1X4.9058Y-18.3315Z-0.0272
G1X4.8896Y-18.3147Z-0.0254
G1X4.8717Y-18.3003Z-0.0243
G1X4.8536Y-18.2894Z-0.0237
G1X4.8355Y-18.2817Z-0.0234
G1X4.8174Y-18.2770Z-0.0236
G1X4.7991Y-18.2750Z-0.0241
G1X4.7808Y-18.2757Z-0.0250
G1X4.7568Y-18.2796Z-0.0264
G1X4.7295Y-18.2873Z-0.0277
G1X4.6951Y-18.3002Z-0.0285
G1X4.6566Y-18.3167Z-0.0277
G1X4.6134Y-18.3375Z-0.0282
G1X4.5615Y-18.3608Z-0.0310
G1X4.5286Y-18.3734Z-0.0320
G1X4.5055Y-18.3804Z-0.0313
G1X4.4877Y-18.3838Z-0.0291
G1X4.4528Y-18.3861Z-0.0201
G1X4.4223Y-18.3879Z-0.0134
G1X4.4033Y-18.3879Z-0.0114
G1X4.3883Y-18.3864Z-0.0120
G1X4.3739Y-18.3831Z-0.0150
G1X4.3590Y-18.3777Z-0.0208
G1X4.3406Y-18.3686Z-0.0312
G1X4.3350Y-18.3654Z-0.0350
G1X4.3368Y-18.3483Z-0.0287
G1X4.3400Y-18.3326Z-0.0254
G1X4.3455Y-18.3163Z-0.0242
G1X4.3526Y-18.3010Z-0.0249
G1X4.3609Y-18.2824Z-0.0293
G1X4.3683Y-18.2628Z-0.0365
G1X4.3720Y-18.2465Z-0.0441
G1X4.3728Y-18.2358Z-0.0496
G1X4.4029Y-18.2135Z-0.0402
G1X4.4332Y-18.1937Z-0.0330
G1X4.4643Y-18.1762Z-0.0274
G1X4.4984Y-18.1599Z-0.0232
G1X4.5327Y-18.1458Z-0.0207
G1X4.5766Y-18.1306Z-0.0192
G1X4.6304Y-18.1151Z-0.0194
G1X4.7846Y-18.0760Z-0.0227
G1X4.8835Y-18.0491Z-0.0235
G1X4.9674Y-18.0237Z-0.0238
G1X5.0353Y-18.0007Z-0.0239
G1X5.1030Y-17.9750Z-0.0242
G1X5.1629Y-17.9494Z-0.0248
G1X5.2217Y-17.9211Z-0.0257
G1X5.2792Y-17.8900Z-0.0270
G1X5.3038Y-17.8775Z-0.0263
G1X5.3219Y-17.8710Z-0.0254
G1X5.3385Y-17.8678Z-0.0247
G1X5.3551Y-17.8676Z-0.0240
G1X5.3715Y-17.8704Z-0.0235
G1X5.3882Y-17.8764Z-0.0233
G1X5.4050Y-17.8856Z-0.0234
G1X5.4252Y-17.9006Z-0.0240
G1X5.4594Y-17.9316Z-0.0246
G1X5.4878Y-17.9601Z-0.0242
G1X5.5164Y-17.9926Z-0.0241
G1X5.5463Y-18.0307Z-0.0240
G1X5.5873Y-18.0884Z-0.0238
G1X5.6437Y-18.1711Z-0.0224
G1X5.6639Y-18.1969Z-0.0229
G1X5.6825Y-18.2171Z-0.0248
G1X5.7029Y-18.2356Z-0.0282
G1X5.7250Y-18.2523Z-0.0330
G1X5.7470Y-18.2659Z-0.0387
G1X5.7743Y-18.2797Z-0.0467
G1X5.7792Y-18.2931Z-0.0394
G1X5.7851Y-18.3038Z-0.0347
G1X5.7912Y-18.3129Z-0.0329
G1X5.7957Y-18.3197Z-0.0339
G1X5.8008Y-18.3286Z-0.0371
G1X5.8049Y-18.3386Z-0.0418
G1X5.8080Y-18.3497Z-0.0479
G1X5.8102Y-18.3624Z-0.0559
G1X5.8435Y-18.3848Z-0.0506
G1X5.9213Y-18.4421Z-0.0421
G1X5.9862Y-18.4929Z-0.0356
G1X6.0392Y-18.5379Z-0.0299
G1X6.0890Y-18.5825Z-0.0254
G1X6.1380Y-18.6261Z-0.0239
G1X6.1888Y-18.6696Z-0.0247
G1X6.2324Y-18.7038Z-0.0260
G1X6.2705Y-18.7306Z-0.0269
G1X6.3056Y-18.7523Z-0.0271
G1X6.3383Y-18.7697Z-0.0262
G1X6.3716Y-18.7842Z-0.0241
G1X6.4081Y-18.7996Z-0.0229
G1X6.4378Y-18.8133Z-0.0243
G1X6.4622Y-18.8263Z-0.0271
G1X6.4819Y-18.8397Z-0.0299
G1X6.4973Y-18.8535Z-0.0321
G1X6.5085Y-18.8672Z-0.0336
G1X6.5161Y-18.8802Z-0.0339
G1X6.5216Y-18.8955Z-0.0332
G1X6.5250Y-18.9134Z-0.0314
G1X6.5258Y-18.9333Z-0.0290
G1X6.5236Y-18.9582Z-0.0261
G1X6.5175Y-18.9899Z-0.0230
G1X6.5085Y-19.0249Z-0.0217
G1X6.4963Y-19.0673Z-0.0228
G1X6.4810Y-19.1213Z-0.0261
G1X6.4712Y-19.1662Z-0.0282
G1X6.4645Y-19.2104Z-0.0296
G1X6.4610Y-19.2527Z-0.0303
G1X6.4606Y-19.2943Z-0.0304
G1X6.4628Y-19.3306Z-0.0299
G1X6.4677Y-19.3674Z-0.0290
G1X6.4754Y-19.4049Z-0.0276
G1X6.4860Y-19.4421Z-0.0258
G1X6.5005Y-19.4830Z-0.0238
G1X6.5077Y-19.5061Z-0.0250
G1X6.5124Y-19.5267Z-0.0277
G1X6.5133Y-19.5436Z-0.0298
G1X6.5113Y-19.5579Z-0.0309
G1X6.5068Y-19.5706Z-0.0309
G1X6.4994Y-19.5830Z-0.0302
G1X6.4877Y-19.5968Z-0.0286
G1X6.4724Y-19.6099Z-0.0269
G1X6.4511Y-19.6239Z-0.0252
G1X6.4019Y-19.6531Z-0.0250
G1X6.3565Y-19.6834Z-0.0249
G1X6.3107Y-19.7178Z-0.0249
G1X6.2648Y-19.7560Z-0.0252
G1X6.2181Y-19.7986Z-0.0261
G1X6.2033Y-19.8145Z-0.0278
G1X6.1899Y-19.8322Z-0.0317
G1X6.1782Y-19.8514Z-0.0376
G1X6.1768Y-19.8541Z-0.0386
G1X6.1637Y-19.8554Z-0.0305
G1X6.1571Y-19.8569Z-0.0270
G1X6.1485Y-19.8600Z-0.0235
G1X6.1429Y-19.8624Z-0.0227
G1X6.1363Y-19.8652Z-0.0238
G1X6.1293Y-19.8681Z-0.0271
G1X6.1154Y-19.8723Z-0.0361
G1X6.1123Y-19.8729Z-0.0383
G1X6.1059Y-19.8653Z-0.0370
G1X6.0995Y-19.8577Z-0.0383
G1X6.0927Y-19.8498Z-0.0422
G1X6.0974Y-19.8370Z-0.0370
G1X6.1088Y-19.8135Z-0.0318
G1X6.1193Y-19.7869Z-0.0282
G1X6.1275Y-19.7590Z-0.0262
G1X6.1337Y-19.7290Z-0.0258
G1X6.1380Y-19.6953Z-0.0268
G1X6.1401Y-19.6574Z-0.0290
G1X6.1409Y-19.6019Z-0.0314
G1X6.1406Y-19.5446Z-0.0314
G1X6.1405Y-19.4803Z-0.0297
G1X6.1433Y-19.4208Z-0.0282
G1X6.1485Y-19.3684Z-0.0271
G1X6.1563Y-19.3167Z-0.0262
G1X6.1666Y-19.2681Z-0.0254
G1X6.1795Y-19.2215Z-0.0247
G1X6.1944Y-19.1779Z-0.0241
G1X6.2122Y-19.1349Z-0.0235
G1X6.2330Y-19.0926Z-0.0229
G1X6.2457Y-19.0681Z-0.0234
G1X6.2528Y-19.0501Z-0.0253
G1X6.2563Y-19.0343Z-0.0279
G1X6.2566Y-19.0202Z-0.0306
G1X6.2543Y-19.0093Z-0.0325
G1X6.2503Y-19.0019Z-0.0329
G1X6.2422Y-18.9934Z-0.0321
G1X6.2306Y-18.9856Z-0.0308
G1X6.2147Y-18.9784Z-0.0295
G1X6.1927Y-18.9718Z-0.0284
G1X6.1367Y-18.9585Z-0.0291
G1X6.0674Y-18.9404Z-0.0313
G1X6.0265Y-18.9278Z-0.0313
G1X5.9940Y-18.9162Z-0.0294
G1X5.9520Y-18.8995Z-0.0259
G1X5.9256Y-18.8894Z-0.0261
G1X5.9034Y-18.8818Z-0.0287
G1X5.8855Y-18.8769Z-0.0333
G1X5.8671Y-18.8734Z-0.0406
G1X5.8474Y-18.8714Z-0.0511
G1X5.8338Y-18.8446Z-0.0412
G1X5.8234Y-18.8190Z-0.0339
G1X5.8162Y-18.7959Z-0.0291
G1X5.8106Y-18.7696Z-0.0255
G1X5.8075Y-18.7420Z-0.0236
G1X5.8068Y-18.7119Z-0.0231
G1X5.8091Y-18.6785Z-0.0238
G1X5.8092Y-18.6626Z-0.0256
G1X5.8067Y-18.6502Z-0.0268
G1X5.8018Y-18.6398Z-0.0272
G1X5.7935Y-18.6296Z-0.0266
G1X5.7815Y-18.6200Z-0.0257
G1X5.7657Y-18.6114Z-0.0252
G1X5.7276Y-18.5967Z-0.0254
G1X5.7004Y-18.5837Z-0.0245
G1X5.6731Y-18.5677Z-0.0230
G1X5.6446Y-18.5475Z-0.0210
G1X5.6202Y-18.5268Z-0.0195
G1X5.6013Y-18.5077Z-0.0193
G1X5.5866Y-18.4896Z-0.0207
G1X5.5761Y-18.4734Z-0.0236
G1X5.5683Y-18.4576Z-0.0282
G1X5.5620Y-18.4397Z-0.0352
G1X5.5576Y-18.4201Z-0.0448
G1X5.5554Y-18.4045Z-0.0535
G1X5.5782Y-18.3926Z-0.0414
G1X5.5996Y-18.3832Z-0.0329
G1X5.6206Y-18.3761Z-0.0274
G1X5.6426Y-18.3706Z-0.0243
G1X5.6659Y-18.3668Z-0.0235
G1X5.6930Y-18.3645Z-0.0249
G1X5.7253Y-18.3642Z-0.0289
G1X5.7590Y-18.3663Z-0.0346
G1X5.7759Y-18.3677Z-0.0385
G1X5.7905Y-18.3667Z-0.0445
G1X5.8059Y-18.3636Z-0.0532
G1X5.8102Y-18.3624Z-0.0559
G0Z0.1181
G0X6.5429Y-18.5953
G1Z-0.0491F20.0
G1X6.5454Y-18.5752Z-0.0381F60.0
G1X6.5470Y-18.5570Z-0.0312
G1X6.5482Y-18.5385Z-0.0273
G1X6.5489Y-18.5156Z-0.0257
G1X6.5486Y-18.4732Z-0.0261
G1X6.5473Y-18.4534Z-0.0241
G1X6.5480Y-18.4352Z-0.0216
G1X6.5516Y-18.4162Z-0.0180
G1X6.5582Y-18.3960Z-0.0122
G1X6.5685Y-18.3719Z-0.0025
G1X6.5710Y-18.3666Z0.0000
G1X6.5598Y-18.3920Z-0.0108
G1X6.5525Y-18.4129Z-0.0172
G1X6.5486Y-18.4305Z-0.0208
G1X6.5472Y-18.4482Z-0.0234
G1X6.5485Y-18.4714Z-0.0260
G1X6.5490Y-18.5132Z-0.0257
G1X6.5483Y-18.5366Z-0.0271
G1X6.5471Y-18.5561Z-0.0310
G1X6.5455Y-18.5746Z-0.0378
G1X6.5430Y-18.5950Z-0.0489
G1X6.5429Y-18.5953Z-0.0491
G1X6.5243Y-18.5998Z-0.0414
G1X6.5062Y-18.6017Z-0.0360
G1X6.4878Y-18.6013Z-0.0327
G1X6.4680Y-18.5985Z-0.0311
G1X6.4384Y-18.5914Z-0.0308
G1X6.4151Y-18.5855Z-0.0302
G1X6.3610Y-18.5686Z-0.0294
G1X6.3068Y-18.5493Z-0.0271
G1X6.2647Y-18.5316Z-0.0247
G1X6.2254Y-18.5121Z-0.0225
G1X6.1942Y-18.4937Z-0.0213
G1X6.1686Y-18.4756Z-0.0214
G1X6.1493Y-18.4590Z-0.0227
G1X6.1337Y-18.4427Z-0.0253
G1X6.1197Y-18.4247Z-0.0296
G1X6.1082Y-18.4057Z-0.0356
G1X6.0986Y-18.3853Z-0.0432
G1X6.0944Y-18.3741Z-0.0479
G1X6.1123Y-18.3583Z-0.0334
G1X6.1283Y-18.3448Z-0.0239
G1X6.1440Y-18.3322Z-0.0179
G1X6.1616Y-18.3191Z-0.0146
G1X6.1852Y-18.3028Z-0.0136
G1X6.2149Y-18.2852Z-0.0144
G1X6.2523Y-18.2668Z-0.0164
G1X6.2902Y-18.2511Z-0.0186
G1X6.3369Y-18.2349Z-0.0210
G1X6.3853Y-18.2212Z-0.0226
G1X6.4365Y-18.2095Z-0.0232
G1X6.4845Y-18.2012Z-0.0231
G1X6.5335Y-18.1959Z-0.0230
G1X6.5861Y-18.1932Z-0.0229
G1X6.6425Y-18.1934Z-0.0228
G1X6.6985Y-18.1964Z-0.0228
G1X6.7621Y-18.2024Z-0.0228
G1X6.8411Y-18.2128Z-0.0227
G1X6.9590Y-18.2319Z-0.0222
G1X6.9823Y-18.2374Z-0.0236
G1X7.0015Y-18.2441Z-0.0267
G1X7.0166Y-18.2515Z-0.0308
G1X7.0236Y-18.2572Z-0.0323
G1X7.0276Y-18.2637Z-0.0318
G1X7.0324Y-18.2780Z-0.0292
G1X7.0358Y-18.2984Z-0.0260
G1X7.0373Y-18.3267Z-0.0233
G1X7.0378Y-18.3764Z-0.0205
G1X7.0361Y-18.4270Z-0.0191
G1X7.0314Y-18.4847Z-0.0188
G1X7.0237Y-18.5432Z-0.0196
G1X7.0134Y-18.5992Z-0.0211
G1X6.9999Y-18.6552Z-0.0229
G1X6.9843Y-18.7073Z-0.0248
G1X6.9675Y-18.7541Z-0.0264
G1X6.9494Y-18.7973Z-0.0277
G1X6.9282Y-18.8409Z-0.0287
G1X6.9045Y-18.8831Z-0.0292
G1X6.8784Y-18.9238Z-0.0292
G1X6.8499Y-18.9626Z-0.0288
G1X6.8192Y-18.9994Z-0.0279
G1X6.7865Y-19.0339Z-0.0269
G1X6.7500Y-19.0684Z-0.0261
G1X6.7310Y-19.0872Z-0.0278
G1X6.7226Y-19.0939Z-0.0305
G1X6.7126Y-19.0997Z-0.0355
G1X6.6995Y-19.1053Z-0.0439
G1X6.6950Y-19.0980Z-0.0394
G1X6.6892Y-19.0855Z-0.0336
G1X6.6869Y-19.0770Z-0.0312
G1X6.6861Y-19.0719Z-0.0303
G1X6.6857Y-19.0632Z-0.0297
G1X6.6892Y-19.0239Z-0.0315
G1X6.6923Y-18.9709Z-0.0304
G1X6.6966Y-18.9148Z-0.0281
G1X6.7013Y-18.8823Z-0.0278
G1X6.7070Y-18.8568Z-0.0290
G1X6.7143Y-18.8336Z-0.0318
G1X6.7235Y-18.8118Z-0.0363
G1X6.7351Y-18.7901Z-0.0430
G1X6.7403Y-18.7814Z-0.0465
G1X6.7690Y-18.7841Z-0.0285
G1X6.7928Y-18.7859Z-0.0167
G1X6.8160Y-18.7870Z-0.0084
G1X6.8402Y-18.7873Z-0.0029
G1X6.8670Y-18.7867Z-0.0001
G1X6.8693Y-18.7866Z0.0000
G1X6.8426Y-18.7873Z-0.0025
G1X6.8183Y-18.7871Z-0.0077
G1X6.7965Y-18.7862Z-0.0152
G1X6.7728Y-18.7845Z-0.0264
G1X6.7459Y-18.7820Z-0.0427
G1X6.7403Y-18.7814Z-0.0465
G1X6.7341Y-18.7564Z-0.0368
G1X6.7293Y-18.7336Z-0.0310
G1X6.7253Y-18.7137Z-0.0287
G1X6.7213Y-18.6953Z-0.0293
G1X6.7163Y-18.6764Z-0.0328
G1X6.7099Y-18.6567Z-0.0396
G1X6.7034Y-18.6394Z-0.0479
G1X6.7201Y-18.6181Z-0.0359
G1X6.7346Y-18.6008Z-0.0288
G1X6.7469Y-18.5882Z-0.0255
G1X6.7593Y-18.5778Z-0.0246
G1X6.7730Y-18.5688Z-0.0259
G1X6.7896Y-18.5607Z-0.0296
G1X6.8118Y-18.5525Z-0.0370
G1X6.8192Y-18.5502Z-0.0398
G1X6.8331Y-18.5615Z-0.0304
G1X6.8467Y-18.5700Z-0.0244
G1X6.8620Y-18.5768Z-0.0204
G1X6.8819Y-18.5825Z-0.0172
G1X6.9012Y-18.5852Z-0.0142
G1X6.9166Y-18.5850Z-0.0105
G1X6.9308Y-18.5824Z-0.0054
G1X6.9423Y-18.5788Z0.0000
G1X6.9257Y-18.5836Z-0.0074
G1X6.9108Y-18.5854Z-0.0121
G1X6.8951Y-18.5847Z-0.0153
G1X6.8757Y-18.5811Z-0.0181
G1X6.8576Y-18.5751Z-0.0213
G1X6.8428Y-18.5678Z-0.0258
G1X6.8296Y-18.5589Z-0.0324
G1X6.8192Y-18.5502Z-0.0398
G1X6.8260Y-18.5346Z-0.0321
G1X6.8341Y-18.5215Z-0.0270
G1X6.8450Y-18.5080Z-0.0235
G1X6.8627Y-18.4901Z-0.0212
G1X6.9025Y-18.4535Z-0.0188
G1X6.9133Y-18.4415Z-0.0166
G1X6.9173Y-18.4347Z-0.0140
G1X6.9190Y-18.4253Z-0.0078
G1X6.9192Y-18.4151Z0.0000
G1X6.9184Y-18.4305Z-0.0114
G1X6.9163Y-18.4369Z-0.0150
G1X6.9105Y-18.4449Z-0.0174
G1X6.8961Y-18.4596Z-0.0194
G1X6.8541Y-18.4984Z-0.0221
G1X6.8401Y-18.5136Z-0.0248
G1X6.8304Y-18.5270Z-0.0289
G1X6.8227Y-18.5414Z-0.0352
G1X6.8192Y-18.5502Z-0.0398
G1X6.7960Y-18.5580Z-0.0315
G1X6.7778Y-18.5662Z-0.0268
G1X6.7631Y-18.5750Z-0.0248
G1X6.7499Y-18.5854Z-0.0251
G1X6.7370Y-18.5981Z-0.0279
G1X6.7228Y-18.6147Z-0.0343
G1X6.7063Y-18.6356Z-0.0456
G1X6.7034Y-18.6394Z-0.0479
G1X6.6805Y-18.6364Z-0.0378
G1X6.6592Y-18.6338Z-0.0315
G1X6.6387Y-18.6308Z-0.0285
G1X6.6182Y-18.6268Z-0.0284
G1X6.5961Y-18.6211Z-0.0312
G1X6.5766Y-18.6139Z-0.0358
G1X6.5580Y-18.6047Z-0.0422
G1X6.5429Y-18.5953Z-0.0491
G0Z0.1181
G0X6.2262Y-19.9815
G1Z-0.0581F20.0
G1X6.2450Y-19.9751Z-0.0471F60.0
G1X6.2610Y-19.9675Z-0.0392
G1X6.2741Y-19.9590Z-0.0343
G1X6.2859Y-19.9489Z-0.0315
G1X6.2974Y-19.9364Z-0.0306
G1X6.3209Y-19.9066Z-0.0321
G1X6.3716Y-19.8584Z-0.0276
G1X6.4248Y-19.8100Z-0.0251
G1X6.4973Y-19.7474Z-0.0247
G1X6.5183Y-19.7315Z-0.0262
G1X6.5343Y-19.7216Z-0.0290
G1X6.5504Y-19.7141Z-0.0337
G1X6.5663Y-19.7089Z-0.0400
G1X6.5799Y-19.7060Z-0.0465
G1X6.5896Y-19.7220Z-0.0366
G1X6.5982Y-19.7380Z-0.0300
G1X6.6061Y-19.7542Z-0.0263
G1X6.6145Y-19.7727Z-0.0251
G1X6.6235Y-19.7914Z-0.0268
G1X6.6324Y-19.8072Z-0.0308
G1X6.6346Y-19.8107Z-0.0320
G1X6.6293Y-19.8121Z-0.0266
G1X6.6346Y-19.8107Z-0.0320
G1X6.6437Y-19.8220Z-0.0364
G1X6.6568Y-19.8332Z-0.0416
G1X6.6724Y-19.8427Z-0.0474
G1X6.6746Y-19.8438Z-0.0483
G1X6.6797Y-19.8585Z-0.0407
G1X6.6873Y-19.8718Z-0.0343
G1X6.6976Y-19.8840Z-0.0290
G1X6.7103Y-19.8957Z-0.0258
G1X6.7287Y-19.9099Z-0.0247
G1X6.7497Y-19.9279Z-0.0245
G1X6.7691Y-19.9470Z-0.0259
G1X6.7852Y-19.9645Z-0.0298
G1X6.8000Y-19.9817Z-0.0366
G1X6.8151Y-20.0004Z-0.0472
G1X6.8207Y-20.0076Z-0.0520
G1X6.8121Y-20.0312Z-0.0435
G1X6.8015Y-20.0536Z-0.0373
G1X6.7878Y-20.0774Z-0.0325
G1X6.7699Y-20.1038Z-0.0294
G1X6.7560Y-20.1224Z-0.0283
G1X6.7503Y-20.1328Z-0.0299
G1X6.7462Y-20.1454Z-0.0344
G1X6.7440Y-20.1604Z-0.0422
G1X6.7253Y-20.1737Z-0.0367
G1X6.7101Y-20.1869Z-0.0340
G1X6.6974Y-20.2005Z-0.0336
G1X6.6868Y-20.2150Z-0.0352
G1X6.6775Y-20.2314Z-0.0388
G1X6.6691Y-20.2510Z-0.0449
G1X6.6679Y-20.2542Z-0.0461
G1X6.6512Y-20.2624Z-0.0384
G1X6.6371Y-20.2719Z-0.0333
G1X6.6250Y-20.2825Z-0.0303
G1X6.6132Y-20.2961Z-0.0292
G1X6.6009Y-20.3142Z-0.0302
G1X6.5771Y-20.3483Z-0.0305
G1X6.5682Y-20.3646Z-0.0321
G1X6.5623Y-20.3797Z-0.0354
G1X6.5586Y-20.3958Z-0.0408
G1X6.5575Y-20.4055Z-0.0449
G1X6.5426Y-20.4177Z-0.0383
G1X6.5296Y-20.4313Z-0.0336
G1X6.5168Y-20.4485Z-0.0305
G1X6.5036Y-20.4707Z-0.0287
G1X6.4890Y-20.5010Z-0.0282
G1X6.4803Y-20.5245Z-0.0292
G1X6.4754Y-20.5441Z-0.0317
G1X6.4732Y-20.5616Z-0.0355
G1X6.4733Y-20.5795Z-0.0413
G1X6.4757Y-20.5984Z-0.0492
G1X6.4760Y-20.5997Z-0.0498
G1X6.4508Y-20.6361Z-0.0353
G1X6.4353Y-20.6563Z-0.0294
G1X6.4200Y-20.6734Z-0.0262
G1X6.4036Y-20.6887Z-0.0250
G1X6.3845Y-20.7035Z-0.0253
G1X6.3605Y-20.7185Z-0.0268
G1X6.3356Y-20.7307Z-0.0285
G1X6.3105Y-20.7402Z-0.0292
G1X6.2851Y-20.7474Z-0.0283
G1X6.2564Y-20.7534Z-0.0249
G1X6.2444Y-20.7554Z-0.0230
G1X6.2387Y-20.7569Z-0.0226
G1X6.2304Y-20.7608Z-0.0236
G1X6.2271Y-20.7629Z-0.0245
G1X6.2209Y-20.7680Z-0.0273
G1X6.2130Y-20.7771Z-0.0333
G1X6.2100Y-20.7815Z-0.0364
G1X6.1687Y-20.7905Z-0.0307
G1X6.1273Y-20.8020Z-0.0263
G1X6.0858Y-20.8162Z-0.0233
G1X6.0461Y-20.8326Z-0.0218
G1X6.0084Y-20.8509Z-0.0214
G1X5.9698Y-20.8726Z-0.0220
G1X5.9322Y-20.8970Z-0.0234
G1X5.8969Y-20.9230Z-0.0254
G1X5.8594Y-20.9544Z-0.0280
G1X5.8228Y-20.9892Z-0.0309
G1X5.7871Y-21.0274Z-0.0339
G1X5.7716Y-21.0452Z-0.0368
G1X5.7572Y-21.0625Z-0.0427
G1X5.7434Y-21.0804Z-0.0516
G1X5.7371Y-21.0885Z-0.0563
G1X5.7291Y-21.0923Z-0.0569
G1X5.7064Y-21.0858Z-0.0440
G1X5.6869Y-21.0813Z-0.0360
G1X5.6675Y-21.0780Z-0.0311
G1X5.6391Y-21.0726Z-0.0275
G1X5.6076Y-21.0641Z-0.0256
G1X5.5696Y-21.0515Z-0.0258
G1X5.4943Y-21.0234Z-0.0299
G1X5.4460Y-21.0068Z-0.0326
G1X5.4225Y-21.0011Z-0.0344
G1X5.4111Y-20.9977Z-0.0374
G1X5.3980Y-20.9923Z-0.0437
G1X5.3833Y-20.9847Z-0.0542
G1X5.3899Y-20.9693Z-0.0453
G1X5.3938Y-20.9626Z-0.0419
G1X5.3981Y-20.9564Z-0.0391
G1X5.4028Y-20.9509Z-0.0371
G1X5.4123Y-20.9424Z-0.0351
G1X5.4492Y-20.9168Z-0.0322
G1X5.4858Y-20.8946Z-0.0301
G1X5.5253Y-20.8738Z-0.0288
G1X5.5710Y-20.8530Z-0.0281
G1X5.6226Y-20.8329Z-0.0278
G1X5.6809Y-20.8134Z-0.0274
G1X5.7275Y-20.7985Z-0.0269
G1X5.7513Y-20.7883Z-0.0272
G1X5.7689Y-20.7778Z-0.0279
G1X5.7826Y-20.7664Z-0.0288
G1X5.7928Y-20.7545Z-0.0298
G1X5.8006Y-20.7413Z-0.0306
G1X5.8063Y-20.7255Z-0.0315
G1X5.8108Y-20.7039Z-0.0313
G1X5.8166Y-20.6707Z-0.0283
G1X5.8240Y-20.6428Z-0.0269
G1X5.8332Y-20.6182Z-0.0268
G1X5.8439Y-20.5957Z-0.0282
G1X5.8705Y-20.5524Z-0.0334
G1X5.8992Y-20.5080Z-0.0366
G1X5.9349Y-20.4549Z-0.0378
G1X5.9725Y-20.4008Z-0.0366
G1X6.0452Y-20.2987Z-0.0308
G1X6.1188Y-20.1950Z-0.0246
G1X6.1530Y-20.1450Z-0.0233
G1X6.1697Y-20.1177Z-0.0248
G1X6.1851Y-20.0886Z-0.0285
G1X6.1989Y-20.0582Z-0.0347
G1X6.2119Y-20.0247Z-0.0437
G1X6.2248Y-19.9861Z-0.0565
G1X6.2262Y-19.9815Z-0.0581
G1X6.2144Y-19.9637Z-0.0478
G1X6.2040Y-19.9445Z-0.0398
G1X6.1955Y-19.9253Z-0.0344
G1X6.1893Y-19.9071Z-0.0317
G1X6.1844Y-19.8869Z-0.0311
G1X6.1816Y-19.8704Z-0.0326
G1X6.1784Y-19.8586Z-0.0365
G1X6.1768Y-19.8541Z-0.0386
G1X6.1882Y-19.8348Z-0.0323
G1X6.2010Y-19.8172Z-0.0283
G1X6.2151Y-19.8016Z-0.0263
G1X6.2592Y-19.7609Z-0.0252
G1X6.3031Y-19.7239Z-0.0249
G1X6.3489Y-19.6889Z-0.0249
G1X6.3952Y-19.6573Z-0.0250
G1X6.4415Y-19.6295Z-0.0250
G1X6.4660Y-19.6145Z-0.0263
G1X6.4833Y-19.6009Z-0.0281
G1X6.4963Y-19.5872Z-0.0297
G1X6.5052Y-19.5737Z-0.0308
G1X6.5106Y-19.5605Z-0.0310
G1X6.5131Y-19.5466Z-0.0301
G1X6.5129Y-19.5313Z-0.0283
G1X6.5097Y-19.5132Z-0.0258
G1X6.5030Y-19.4904Z-0.0240
G1X6.4936Y-19.4641Z-0.0245
G1X6.4813Y-19.4269Z-0.0266
G1X6.4716Y-19.3881Z-0.0283
G1X6.4653Y-19.3515Z-0.0295
G1X6.4616Y-19.3145Z-0.0302
G1X6.4604Y-19.2735Z-0.0304
G1X6.4624Y-19.2318Z-0.0300
G1X6.4675Y-19.1882Z-0.0290
G1X6.4760Y-19.1425Z-0.0272
G1X6.4882Y-19.0946Z-0.0245
G1X6.5043Y-19.0402Z-0.0218
G1X6.5151Y-18.9999Z-0.0224
G1X6.5224Y-18.9663Z-0.0252
G1X6.5254Y-18.9417Z-0.0280
G1X6.5255Y-18.9198Z-0.0307
G1X6.5229Y-18.9008Z-0.0328
G1X6.5181Y-18.8848Z-0.0338
G1X6.5110Y-18.8709Z-0.0338
G1X6.5005Y-18.8570Z-0.0326
G1X6.4859Y-18.8430Z-0.0305
G1X6.4665Y-18.8289Z-0.0277
G1X6.4426Y-18.8157Z-0.0248
G1X6.4121Y-18.8014Z-0.0230
G1X6.3751Y-18.7856Z-0.0238
G1X6.3407Y-18.7708Z-0.0261
G1X6.3086Y-18.7540Z-0.0270
G1X6.2744Y-18.7332Z-0.0270
G1X6.2360Y-18.7065Z-0.0261
G1X6.1939Y-18.6737Z-0.0249
G1X6.1429Y-18.6304Z-0.0239
G1X6.0963Y-18.5890Z-0.0250
G1X6.0446Y-18.5428Z-0.0293
G1X5.9929Y-18.4984Z-0.0349
G1X5.9291Y-18.4480Z-0.0413
G1X5.8465Y-18.3869Z-0.0502
G1X5.8110Y-18.3629Z-0.0558
G1X5.8102Y-18.3624Z-0.0559
G1X5.8079Y-18.3495Z-0.0478
G1X5.8031Y-18.3338Z-0.0394
G1X5.7986Y-18.3245Z-0.0355
G1X5.7944Y-18.3177Z-0.0334
G1X5.7912Y-18.3129Z-0.0329
G1X5.7851Y-18.3038Z-0.0347
G1X5.7792Y-18.2931Z-0.0394
G1X5.7743Y-18.2797Z-0.0467
G1X5.7870Y-18.2728Z-0.0383
G1X5.7974Y-18.2687Z-0.0334
G1X5.8026Y-18.2673Z-0.0316
G1X5.8102Y-18.2660Z-0.0298
G1X5.8249Y-18.2659Z-0.0286
G1X5.8665Y-18.2683Z-0.0269
G1X5.9032Y-18.2730Z-0.0259
G1X5.9323Y-18.2792Z-0.0255
G1X5.9605Y-18.2881Z-0.0257
G1X5.9853Y-18.2989Z-0.0264
G1X6.0078Y-18.3120Z-0.0276
G1X6.0272Y-18.3264Z-0.0292
G1X6.0476Y-18.3444Z-0.0321
G1X6.0640Y-18.3572Z-0.0366
G1X6.0828Y-18.3685Z-0.0432
G1X6.0944Y-18.3741Z-0.0479
G1X6.1030Y-18.3954Z-0.0393
G1X6.1139Y-18.4157Z-0.0323
G1X6.1267Y-18.4343Z-0.0272
G1X6.1416Y-18.4515Z-0.0238
G1X6.1599Y-18.4685Z-0.0218
G1X6.1824Y-18.4857Z-0.0212
G1X6.2110Y-18.5040Z-0.0219
G1X6.2450Y-18.5222Z-0.0236
G1X6.2884Y-18.5418Z-0.0261
G1X6.3372Y-18.5605Z-0.0285
G1X6.3939Y-18.5791Z-0.0301
G1X6.4297Y-18.5894Z-0.0304
G1X6.4529Y-18.5951Z-0.0309
G1X6.4763Y-18.6000Z-0.0316
G1X6.4948Y-18.6018Z-0.0338
G1X6.5122Y-18.6014Z-0.0376
G1X6.5301Y-18.5986Z-0.0435
G1X6.5429Y-18.5953Z-0.0491
G1X6.5618Y-18.6068Z-0.0406
G1X6.5811Y-18.6158Z-0.0345
G1X6.6020Y-18.6228Z-0.0302
G1X6.6233Y-18.6279Z-0.0281
G1X6.6432Y-18.6315Z-0.0289
G1X6.6634Y-18.6343Z-0.0325
G1X6.6849Y-18.6369Z-0.0395
G1X6.7034Y-18.6394Z-0.0479
G1X6.7113Y-18.6608Z-0.0379
G1X6.7172Y-18.6797Z-0.0320
G1X6.7220Y-18.6984Z-0.0290
G1X6.7262Y-18.7179Z-0.0289
G1X6.7304Y-18.7391Z-0.0321
G1X6.7355Y-18.7626Z-0.0389
G1X6.7403Y-18.7814Z-0.0465
G1X6.7273Y-18.8041Z-0.0384
G1X6.7174Y-18.8254Z-0.0333
G1X6.7092Y-18.8487Z-0.0298
G1X6.7028Y-18.8742Z-0.0280
G1X6.6977Y-18.9060Z-0.0279
G1X6.6936Y-18.9498Z-0.0295
G1X6.6901Y-19.0110Z-0.0315
G1X6.6872Y-19.0479Z-0.0307
G1X6.6857Y-19.0636Z-0.0297
G1X6.6861Y-19.0719Z-0.0303
G1X6.6878Y-19.0806Z-0.0321
G1X6.6907Y-19.0894Z-0.0352
G1X6.6950Y-19.0980Z-0.0394
G1X6.6995Y-19.1053Z-0.0439
G1X6.6931Y-19.1350Z-0.0370
G1X6.6893Y-19.1637Z-0.0321
G1X6.6880Y-19.1938Z-0.0288
G1X6.6888Y-19.2220Z-0.0272
G1X6.6923Y-19.2563Z-0.0268
G1X6.6994Y-19.2982Z-0.0278
G1X6.7133Y-19.3584Z-0.0302
G1X6.7276Y-19.4145Z-0.0312
G1X6.7363Y-19.4525Z-0.0303
G1X6.7394Y-19.4777Z-0.0303
G1X6.7394Y-19.4995Z-0.0308
G1X6.7369Y-19.5191Z-0.0315
G1X6.7316Y-19.5379Z-0.0321
G1X6.7236Y-19.5551Z-0.0323
G1X6.7125Y-19.5713Z-0.0319
G1X6.6984Y-19.5868Z-0.0310
G1X6.6796Y-19.6027Z-0.0293
G1X6.6481Y-19.6248Z-0.0267
G1X6.6316Y-19.6383Z-0.0269
G1X6.6165Y-19.6530Z-0.0289
G1X6.6025Y-19.6697Z-0.0329
G1X6.5902Y-19.6877Z-0.0389
G1X6.5799Y-19.7060Z-0.0465
G1X6.5613Y-19.7103Z-0.0378
G1X6.5451Y-19.7163Z-0.0319
G1X6.5293Y-19.7244Z-0.0280
G1X6.5125Y-19.7356Z-0.0256
G1X6.4903Y-19.7532Z-0.0246
G1X6.4209Y-19.8134Z-0.0252
G1X6.3699Y-19.8600Z-0.0277
G1X6.3213Y-19.9062Z-0.0321
G1X6.3130Y-19.8964Z-0.0192
G1X6.3213Y-19.9062Z-0.0321
G1X6.2972Y-19.9367Z-0.0306
G1X6.2851Y-19.9497Z-0.0316
G1X6.2733Y-19.9596Z-0.0346
G1X6.2601Y-19.9680Z-0.0397
G1X6.2438Y-19.9756Z-0.0478
G1X6.2262Y-19.9815Z-0.0581
G0Z0.1181
G0X6.8207Y-20.0076
G1Z-0.0520F20.0
G1X6.8491Y-19.9983Z-0.0362F60.0
G1X6.8740Y-19.9878Z-0.0238
G1X6.8987Y-19.9748Z-0.0131
G1X6.9231Y-19.9596Z-0.0042
G1X6.9362Y-19.9504Z0.0000
G1X6.9107Y-19.9676Z-0.0085
G1X6.8862Y-19.9817Z-0.0183
G1X6.8610Y-19.9936Z-0.0301
G1X6.8347Y-20.0033Z-0.0440
G1X6.8207Y-20.0076Z-0.0520
G1X6.8050Y-19.9878Z-0.0397
G1X6.7904Y-19.9704Z-0.0318
G1X6.7751Y-19.9533Z-0.0270
G1X6.7575Y-19.9352Z-0.0248
G1X6.7346Y-19.9147Z-0.0246
G1X6.7115Y-19.8967Z-0.0257
G1X6.6987Y-19.8852Z-0.0286
G1X6.6882Y-19.8731Z-0.0337
G1X6.6806Y-19.8604Z-0.0398
G1X6.6751Y-19.8456Z-0.0473
G1X6.6746Y-19.8438Z-0.0483
G1X6.6904Y-19.8339Z-0.0377
G1X6.7050Y-19.8264Z-0.0312
G1X6.7208Y-19.8201Z-0.0271
G1X6.7409Y-19.8144Z-0.0245
G1X6.7653Y-19.8106Z-0.0225
G1X6.7913Y-19.8094Z-0.0219
G1X6.8211Y-19.8110Z-0.0225
G1X6.8550Y-19.8158Z-0.0237
G1X6.8908Y-19.8240Z-0.0251
G1X6.9249Y-19.8348Z-0.0260
G1X6.9567Y-19.8474Z-0.0262
G1X6.9893Y-19.8633Z-0.0254
G1X7.0210Y-19.8818Z-0.0235
G1X7.0510Y-19.9024Z-0.0208
G1X7.0823Y-19.9274Z-0.0169
G1X7.1144Y-19.9556Z-0.0136
G1X7.1413Y-19.9796Z-0.0134
G1X7.1650Y-20.0012Z-0.0157
G1X7.1858Y-20.0209Z-0.0204
G1X7.2047Y-20.0399Z-0.0276
G1X7.2213Y-20.0584Z-0.0369
G1X7.2231Y-20.0604Z-0.0381
G1X7.2245Y-20.0776Z-0.0364
G1X7.2154Y-20.1017Z-0.0267
G1X7.2052Y-20.1241Z-0.0197
G1X7.1952Y-20.1445Z-0.0162
G1X7.1859Y-20.1646Z-0.0158
G1X7.1693Y-20.1965Z-0.0177
G1X7.1457Y-20.2347Z-0.0208
G1X7.1201Y-20.2727Z-0.0228
G1X7.0943Y-20.3082Z-0.0231
G1X7.0683Y-20.3393Z-0.0230
G1X7.0424Y-20.3661Z-0.0227
G1X7.0147Y-20.3908Z-0.0221
G1X6.9846Y-20.4138Z-0.0214
G1X6.9541Y-20.4332Z-0.0207
G1X6.9230Y-20.4497Z-0.0201
G1X6.8890Y-20.4642Z-0.0196
G1X6.8558Y-20.4753Z-0.0193
G1X6.8206Y-20.4840Z-0.0195
G1X6.7964Y-20.4890Z-0.0203
G1X6.7776Y-20.4943Z-0.0233
G1X6.7604Y-20.5009Z-0.0287
G1X6.7431Y-20.5093Z-0.0372
G1X6.7394Y-20.5113Z-0.0395
G1X6.7145Y-20.4983Z-0.0302
G1X6.6916Y-20.4855Z-0.0246
G1X6.6691Y-20.4722Z-0.0219
G1X6.6414Y-20.4547Z-0.0220
G1X6.6141Y-20.4357Z-0.0237
G1X6.5968Y-20.4253Z-0.0265
G1X6.5814Y-20.4177Z-0.0310
G1X6.5665Y-20.4102Z-0.0387
G1X6.5575Y-20.4055Z-0.0449
G1X6.5600Y-20.3885Z-0.0381
G1X6.5644Y-20.3735Z-0.0338
G1X6.5715Y-20.3580Z-0.0312
G1X6.5827Y-20.3399Z-0.0303
G1X6.6016Y-20.3131Z-0.0301
G1X6.6136Y-20.2956Z-0.0292
G1X6.6250Y-20.2825Z-0.0303
G1X6.6371Y-20.2719Z-0.0333
G1X6.6512Y-20.2624Z-0.0384
G1X6.6679Y-20.2542Z-0.0461
G1X6.6836Y-20.2714Z-0.0321
G1X6.6993Y-20.2892Z-0.0214
G1X6.7169Y-20.3070Z-0.0127
G1X6.7285Y-20.3157Z-0.0070
G1X6.7396Y-20.3209Z-0.0006
G1X6.7406Y-20.3213Z0.0000
G1X6.7292Y-20.3161Z-0.0066
G1X6.7176Y-20.3077Z-0.0123
G1X6.7005Y-20.2905Z-0.0208
G1X6.6847Y-20.2727Z-0.0312
G1X6.6699Y-20.2563Z-0.0442
G1X6.6679Y-20.2542Z-0.0461
G1X6.6760Y-20.2344Z-0.0396
G1X6.6857Y-20.2168Z-0.0355
G1X6.6967Y-20.2014Z-0.0337
G1X6.7095Y-20.1874Z-0.0340
G1X6.7247Y-20.1742Z-0.0365
G1X6.7427Y-20.1613Z-0.0418
G1X6.7440Y-20.1604Z-0.0422
G1X6.7581Y-20.1649Z-0.0346
G1X6.7693Y-20.1670Z-0.0309
G1X6.7797Y-20.1675Z-0.0296
G1X6.8015Y-20.1658Z-0.0317
G1X6.8340Y-20.1647Z-0.0374
G1X6.8458Y-20.1648Z-0.0399
G1X6.8525Y-20.1760Z-0.0309
G1X6.8618Y-20.1871Z-0.0229
G1X6.8724Y-20.1966Z-0.0172
G1X6.8831Y-20.2035Z-0.0144
G1X6.8989Y-20.2104Z-0.0133
G1X6.9128Y-20.2164Z-0.0125
G1X6.9187Y-20.2209Z-0.0103
G1X6.9271Y-20.2315Z-0.0029
G1X6.9296Y-20.2354Z0.0000
G1X6.9204Y-20.2226Z-0.0092
G1X6.9144Y-20.2173Z-0.0122
G1X6.9039Y-20.2124Z-0.0132
G1X6.8854Y-20.2047Z-0.0140
G1X6.8740Y-20.1978Z-0.0166
G1X6.8636Y-20.1890Z-0.0217
G1X6.8551Y-20.1796Z-0.0282
G1X6.8467Y-20.1664Z-0.0386
G1X6.8458Y-20.1648Z-0.0399
G1X6.8556Y-20.1576Z-0.0348
G1X6.8641Y-20.1529Z-0.0320
G1X6.8984Y-20.1401Z-0.0266
G1X6.9368Y-20.1282Z-0.0225
G1X6.9824Y-20.1167Z-0.0196
G1X7.0442Y-20.1036Z-0.0180
G1X7.0822Y-20.0977Z-0.0163
G1X7.1184Y-20.0942Z-0.0126
G1X7.1548Y-20.0928Z-0.0065
G1X7.1845Y-20.0928Z0.0000
G1X7.1456Y-20.0930Z-0.0083
G1X7.1089Y-20.0949Z-0.0138
G1X7.0738Y-20.0988Z-0.0168
G1X7.0313Y-20.1061Z-0.0183
G1X6.9749Y-20.1184Z-0.0200
G1X6.9293Y-20.1303Z-0.0232
G1X6.8894Y-20.1433Z-0.0278
G1X6.8619Y-20.1540Z-0.0326
G1X6.8528Y-20.1594Z-0.0361
G1X6.8458Y-20.1648Z-0.0399
G1X6.8128Y-20.1652Z-0.0334
G1X6.7835Y-20.1673Z-0.0297
G1X6.7730Y-20.1673Z-0.0302
G1X6.7624Y-20.1659Z-0.0329
G1X6.7489Y-20.1622Z-0.0392
G1X6.7440Y-20.1604Z-0.0422
G1X6.7462Y-20.1454Z-0.0344
G1X6.7503Y-20.1328Z-0.0299
G1X6.7560Y-20.1224Z-0.0283
G1X6.7767Y-20.0942Z-0.0303
G1X6.7928Y-20.0692Z-0.0340
G1X6.8054Y-20.0458Z-0.0392
G1X6.8152Y-20.0234Z-0.0461
G1X6.8207Y-20.0076Z-0.0520
G0Z0.1181
G0X5.4968Y-20.1326
G1Z-0.0521F20.0
G1X5.4519Y-20.1490Z-0.0444F60.0
G1X5.4062Y-20.1680Z-0.0377
G1X5.3612Y-20.1894Z-0.0321
G1X5.3163Y-20.2137Z-0.0277
G1X5.2727Y-20.2405Z-0.0246
G1X5.2300Y-20.2701Z-0.0227
G1X5.1897Y-20.3013Z-0.0221
G1X5.1509Y-20.3347Z-0.0225
G1X5.1301Y-20.3525Z-0.0242
G1X5.1106Y-20.3671Z-0.0281
G1X5.1024Y-20.3712Z-0.0290
G1X5.0897Y-20.3741Z-0.0283
G1X5.0683Y-20.3751Z-0.0266
G1X5.0468Y-20.3743Z-0.0271
G1X5.0240Y-20.3722Z-0.0306
G1X4.9975Y-20.3674Z-0.0370
G1X4.9605Y-20.3587Z-0.0480
G1X4.9533Y-20.3459Z-0.0401
G1X4.9483Y-20.3392Z-0.0365
G1X4.9429Y-20.3334Z-0.0337
G1X4.9370Y-20.3284Z-0.0318
G1X4.9254Y-20.3215Z-0.0303
G1X4.8897Y-20.3042Z-0.0281
G1X4.8551Y-20.2904Z-0.0264
G1X4.8196Y-20.2790Z-0.0253
G1X4.7831Y-20.2698Z-0.0250
G1X4.7419Y-20.2622Z-0.0255
G1X4.6925Y-20.2563Z-0.0270
G1X4.6436Y-20.2519Z-0.0281
G1X4.6035Y-20.2468Z-0.0264
G1X4.5767Y-20.2415Z-0.0247
G1X4.5510Y-20.2334Z-0.0237
G1X4.5265Y-20.2227Z-0.0233
G1X4.5035Y-20.2095Z-0.0236
G1X4.4807Y-20.1934Z-0.0243
G1X4.4535Y-20.1701Z-0.0252
G1X4.4231Y-20.1397Z-0.0256
G1X4.3928Y-20.1054Z-0.0248
G1X4.3484Y-20.0501Z-0.0231
G1X4.3015Y-19.9869Z-0.0217
G1X4.2432Y-19.9031Z-0.0205
G1X4.1509Y-19.7670Z-0.0205
G1X4.0956Y-19.6891Z-0.0215
G1X4.0530Y-19.6330Z-0.0227
G1X4.0147Y-19.5862Z-0.0241
G1X3.9704Y-19.5360Z-0.0255
G1X3.9498Y-19.5112Z-0.0241
G1X3.9375Y-19.4942Z-0.0222
G1X3.9308Y-19.4814Z-0.0213
G1X3.9265Y-19.4678Z-0.0209
G1X3.9250Y-19.4551Z-0.0209
G1X3.9263Y-19.4415Z-0.0212
G1X3.9306Y-19.4273Z-0.0218
G1X3.9390Y-19.4109Z-0.0229
G1X3.9541Y-19.3883Z-0.0235
G1X3.9853Y-19.3458Z-0.0213
G1X4.0110Y-19.3125Z-0.0212
G1X4.0287Y-19.2933Z-0.0215
G1X4.0499Y-19.2753Z-0.0217
G1X4.0660Y-19.2621Z-0.0242
G1X4.0819Y-19.2488Z-0.0292
G1X4.0986Y-19.2344Z-0.0375
G1X4.1084Y-19.2266Z-0.0440
G1X4.1222Y-19.2364Z-0.0352
G1X4.1340Y-19.2475Z-0.0288
G1X4.1436Y-19.2595Z-0.0249
G1X4.1525Y-19.2744Z-0.0229
G1X4.1629Y-19.2968Z-0.0228
G1X4.1781Y-19.3316Z-0.0241
G1X4.2169Y-19.4087Z-0.0247
G1X4.2514Y-19.4725Z-0.0261
G1X4.2796Y-19.5193Z-0.0269
G1X4.3081Y-19.5616Z-0.0267
G1X4.3357Y-19.5987Z-0.0247
G1X4.3563Y-19.6265Z-0.0218
G1X4.3675Y-19.6459Z-0.0211
G1X4.3762Y-19.6669Z-0.0217
G1X4.3822Y-19.6893Z-0.0230
G1X4.3854Y-19.7117Z-0.0245
G1X4.3862Y-19.7374Z-0.0255
G1X4.3844Y-19.7646Z-0.0253
G1X4.3817Y-19.7880Z-0.0246
G1X4.3790Y-19.8108Z-0.0268
G1X4.3795Y-19.8304Z-0.0287
G1X4.3826Y-19.8460Z-0.0302
G1X4.3880Y-19.8589Z-0.0308
G1X4.3955Y-19.8694Z-0.0306
G1X4.4064Y-19.8794Z-0.0294
G1X4.4199Y-19.8879Z-0.0280
G1X4.4378Y-19.8954Z-0.0266
G1X4.4592Y-19.9010Z-0.0255
G1X4.4854Y-19.9048Z-0.0251
G1X4.5946Y-19.9117Z-0.0266
G1X4.6701Y-19.9184Z-0.0272
G1X4.7392Y-19.9269Z-0.0272
G1X4.8046Y-19.9378Z-0.0266
G1X4.8645Y-19.9507Z-0.0255
G1X4.9192Y-19.9653Z-0.0239
G1X4.9734Y-19.9829Z-0.0219
G1X5.0033Y-19.9917Z-0.0224
G1X5.0239Y-19.9947Z-0.0217
G1X5.0484Y-19.9953Z-0.0202
G1X5.0776Y-19.9932Z-0.0185
G1X5.1067Y-19.9884Z-0.0175
G1X5.1386Y-19.9804Z-0.0175
G1X5.1717Y-19.9693Z-0.0188
G1X5.2100Y-19.9534Z-0.0219
G1X5.2824Y-19.9204Z-0.0271
G1X5.3579Y-19.8838Z-0.0305
G1X5.4435Y-19.8400Z-0.0324
G1X5.5176Y-19.8000Z-0.0322
G1X5.5871Y-19.7602Z-0.0304
G1X5.6423Y-19.7266Z-0.0274
G1X5.6844Y-19.6988Z-0.0240
G1X5.7075Y-19.6803Z-0.0231
G1X5.7266Y-19.6617Z-0.0233
G1X5.7431Y-19.6419Z-0.0240
G1X5.7552Y-19.6231Z-0.0245
G1X5.7618Y-19.6087Z-0.0238
G1X5.7736Y-19.5749Z-0.0223
G1X5.7848Y-19.5350Z-0.0226
G1X5.7954Y-19.4878Z-0.0246
G1X5.7967Y-19.4812Z-0.0250
G1X5.7974Y-19.4701Z-0.0270
G1X5.7958Y-19.4584Z-0.0314
G1X5.7918Y-19.4462Z-0.0381
G1X5.7851Y-19.4328Z-0.0477
G1X5.7924Y-19.4157Z-0.0444
G1X5.8071Y-19.3683Z-0.0396
G1X5.8232Y-19.3083Z-0.0338
G1X5.8341Y-19.2574Z-0.0295
G1X5.8408Y-19.2140Z-0.0268
G1X5.8449Y-19.1687Z-0.0251
G1X5.8463Y-19.1210Z-0.0242
G1X5.8447Y-19.0706Z-0.0239
G1X5.8396Y-19.0128Z-0.0238
G1X5.8348Y-18.9641Z-0.0252
G1X5.8336Y-18.9369Z-0.0279
G1X5.8346Y-18.9174Z-0.0318
G1X5.8375Y-18.9000Z-0.0372
G1X5.8429Y-18.8821Z-0.0451
G1X5.8474Y-18.8714Z-0.0511
G1X5.8671Y-18.8734Z-0.0406
G1X5.8855Y-18.8769Z-0.0333
G1X5.9034Y-18.8818Z-0.0287
G1X5.9256Y-18.8894Z-0.0261
G1X5.9546Y-18.9005Z-0.0260
G1X6.0005Y-18.9186Z-0.0299
G1X6.0336Y-18.9301Z-0.0314
G1X6.0820Y-18.9445Z-0.0310
G1X6.1544Y-18.9628Z-0.0286
G1X6.1975Y-18.9731Z-0.0286
G1X6.2181Y-18.9797Z-0.0297
G1X6.2341Y-18.9876Z-0.0312
G1X6.2455Y-18.9964Z-0.0325
G1X6.2521Y-19.0045Z-0.0329
G1X6.2554Y-19.0129Z-0.0320
G1X6.2568Y-19.0249Z-0.0297
G1X6.2555Y-19.0395Z-0.0270
G1X6.2507Y-19.0564Z-0.0246
G1X6.2425Y-19.0747Z-0.0230
G1X6.2207Y-19.1169Z-0.0233
G1X6.2016Y-19.1596Z-0.0239
G1X6.1855Y-19.2029Z-0.0245
G1X6.1720Y-19.2473Z-0.0251
G1X6.1614Y-19.2913Z-0.0258
G1X6.1520Y-19.3427Z-0.0267
G1X6.1455Y-19.3950Z-0.0277
G1X6.1414Y-19.4539Z-0.0290
G1X6.1402Y-19.5140Z-0.0306
G1X6.1409Y-19.5821Z-0.0317
G1X6.1406Y-19.6353Z-0.0302
G1X6.1388Y-19.6859Z-0.0272
G1X6.1350Y-19.7204Z-0.0259
G1X6.1295Y-19.7507Z-0.0259
G1X6.1224Y-19.7772Z-0.0273
G1X6.1127Y-19.8043Z-0.0304
G1X6.1007Y-19.8304Z-0.0352
G1X6.0954Y-19.8418Z-0.0387
G1X6.0927Y-19.8498Z-0.0422
G1X6.0796Y-19.8535Z-0.0358
G1X6.0680Y-19.8585Z-0.0321
G1X6.0394Y-19.8716Z-0.0262
G1X6.0088Y-19.8840Z-0.0224
G1X5.9696Y-19.8982Z-0.0203
G1X5.8966Y-19.9240Z-0.0205
G1X5.8212Y-19.9536Z-0.0222
G1X5.7353Y-19.9906Z-0.0251
G1X5.6400Y-20.0353Z-0.0284
G1X5.5490Y-20.0806Z-0.0301
G1X5.5323Y-20.0892Z-0.0302
G1X5.5220Y-20.0959Z-0.0314
G1X5.5144Y-20.1032Z-0.0343
G1X5.5065Y-20.1135Z-0.0398
G1X5.4997Y-20.1259Z-0.0475
G1X5.4968Y-20.1326Z-0.0521
G1X5.5039Y-20.1178Z-0.0423
G1X5.5097Y-20.1089Z-0.0372
G1X5.5175Y-20.0999Z-0.0329
G1X5.5249Y-20.0937Z-0.0308
G1X5.5365Y-20.0871Z-0.0302
G1X5.6274Y-20.0414Z-0.0287
G1X5.7222Y-19.9966Z-0.0256
G1X5.8047Y-19.9605Z-0.0227
G1X5.8798Y-19.9304Z-0.0208
G1X5.9523Y-19.9041Z-0.0201
G1X5.9958Y-19.8889Z-0.0214
G1X6.0307Y-19.8753Z-0.0249
G1X6.0616Y-19.8616Z-0.0306
G1X6.0745Y-19.8555Z-0.0339
G1X6.0873Y-19.8511Z-0.0393
G1X6.0927Y-19.8498Z-0.0422
G1X6.0995Y-19.8577Z-0.0383
G1X6.1059Y-19.8653Z-0.0370
G1X6.1123Y-19.8729Z-0.0383
G1X6.1104Y-19.8852Z-0.0329
G1X6.1064Y-19.8966Z-0.0296
G1X6.0951Y-19.9160Z-0.0277
G1X6.0756Y-19.9494Z-0.0271
G1X6.0530Y-19.9844Z-0.0272
G1X6.0300Y-20.0144Z-0.0273
G1X6.0071Y-20.0398Z-0.0275
G1X5.9825Y-20.0627Z-0.0279
G1X5.9580Y-20.0818Z-0.0284
G1X5.9317Y-20.0987Z-0.0290
G1X5.9037Y-20.1133Z-0.0296
G1X5.8727Y-20.1259Z-0.0301
G1X5.8395Y-20.1360Z-0.0305
G1X5.8032Y-20.1437Z-0.0305
G1X5.7642Y-20.1487Z-0.0302
G1X5.7228Y-20.1509Z-0.0292
G1X5.6759Y-20.1503Z-0.0275
G1X5.6218Y-20.1485Z-0.0271
G1X5.5683Y-20.1476Z-0.0295
G1X5.5417Y-20.1474Z-0.0317
G1X5.5317Y-20.1465Z-0.0337
G1X5.5214Y-20.1440Z-0.0374
G1X5.5108Y-20.1400Z-0.0427
G1X5.4968Y-20.1326Z-0.0521
G0Z0.1181
G0X4.6088Y-19.5722
G1Z-0.0638F20.0
G1X4.6272Y-19.5681Z-0.0539F60.0
G1X4.6410Y-19.5666Z-0.0484
G1X4.6538Y-19.5667Z-0.0451
G1X4.7010Y-19.5690Z-0.0374
G1X4.7550Y-19.5697Z-0.0309
G1X4.8169Y-19.5684Z-0.0258
G1X4.8873Y-19.5646Z-0.0222
G1X4.9611Y-19.5581Z-0.0201
G1X5.0322Y-19.5496Z-0.0194
G1X5.1107Y-19.5374Z-0.0194
G1X5.1805Y-19.5237Z-0.0197
G1X5.2471Y-19.5080Z-0.0201
G1X5.3118Y-19.4900Z-0.0202
G1X5.3737Y-19.4697Z-0.0200
G1X5.4299Y-19.4485Z-0.0194
G1X5.4856Y-19.4244Z-0.0184
G1X5.5381Y-19.3985Z-0.0170
G1X5.5804Y-19.3757Z-0.0162
G1X5.5999Y-19.3667Z-0.0179
G1X5.6173Y-19.3606Z-0.0214
G1X5.6342Y-19.3568Z-0.0270
G1X5.6517Y-19.3552Z-0.0349
G1X5.6670Y-19.3553Z-0.0433
G1X5.6731Y-19.3727Z-0.0354
G1X5.6782Y-19.3890Z-0.0311
G1X5.6838Y-19.4069Z-0.0297
G1X5.6892Y-19.4207Z-0.0309
G1X5.6951Y-19.4323Z-0.0342
G1X5.7042Y-19.4458Z-0.0412
G1X5.7153Y-19.4603Z-0.0513
G1X5.7038Y-19.4841Z-0.0412
G1X5.6914Y-19.5047Z-0.0338
G1X5.6777Y-19.5231Z-0.0284
G1X5.6630Y-19.5398Z-0.0256
G1X5.6465Y-19.5554Z-0.0247
G1X5.6294Y-19.5680Z-0.0248
G1X5.6150Y-19.5757Z-0.0243
G1X5.5546Y-19.6010Z-0.0208
G1X5.4919Y-19.6253Z-0.0194
G1X5.4235Y-19.6492Z-0.0199
G1X5.3545Y-19.6708Z-0.0219
G1X5.2794Y-19.6912Z-0.0248
G1X5.2140Y-19.7062Z-0.0275
G1X5.1475Y-19.7188Z-0.0296
G1X5.0877Y-19.7273Z-0.0309
G1X5.0334Y-19.7324Z-0.0312
G1X4.9796Y-19.7352Z-0.0303
G1X4.9258Y-19.7356Z-0.0276
G1X4.8749Y-19.7340Z-0.0230
G1X4.8438Y-19.7309Z-0.0203
G1X4.8146Y-19.7256Z-0.0186
G1X4.7836Y-19.7172Z-0.0179
G1X4.7550Y-19.7067Z-0.0183
G1X4.7246Y-19.6925Z-0.0199
G1X4.6955Y-19.6758Z-0.0225
G1X4.6652Y-19.6551Z-0.0262
G1X4.6365Y-19.6323Z-0.0306
G1X4.6288Y-19.6246Z-0.0329
G1X4.6247Y-19.6191Z-0.0351
G1X4.6211Y-19.6131Z-0.0380
G1X4.6150Y-19.5993Z-0.0457
G1X4.6106Y-19.5833Z-0.0560
G1X4.6088Y-19.5722Z-0.0638
G1X4.6126Y-19.5916Z-0.0505
G1X4.6178Y-19.6065Z-0.0415
G1X4.6211Y-19.6131Z-0.0380
G1X4.6247Y-19.6191Z-0.0351
G1X4.6288Y-19.6246Z-0.0329
G1X4.6365Y-19.6323Z-0.0306
G1X4.6680Y-19.6572Z-0.0258
G1X4.6986Y-19.6777Z-0.0222
G1X4.7275Y-19.6939Z-0.0197
G1X4.7580Y-19.7079Z-0.0182
G1X4.7872Y-19.7183Z-0.0179
G1X4.8180Y-19.7263Z-0.0188
G1X4.8493Y-19.7317Z-0.0207
G1X4.8823Y-19.7344Z-0.0238
G1X4.9312Y-19.7357Z-0.0279
G1X4.9850Y-19.7350Z-0.0305
G1X5.0388Y-19.7320Z-0.0313
G1X5.0945Y-19.7265Z-0.0308
G1X5.1543Y-19.7177Z-0.0294
G1X5.2142Y-19.7062Z-0.0275
G1X5.2809Y-19.6908Z-0.0248
G1X5.3546Y-19.6708Z-0.0219
G1X5.4272Y-19.6480Z-0.0198
G1X5.4919Y-19.6252Z-0.0194
G1X5.5547Y-19.6010Z-0.0208
G1X5.6164Y-19.5750Z-0.0244
G1X5.6318Y-19.5665Z-0.0248
G1X5.6488Y-19.5535Z-0.0248
G1X5.6651Y-19.5376Z-0.0258
G1X5.6797Y-19.5207Z-0.0291
G1X5.6932Y-19.5020Z-0.0347
G1X5.7054Y-19.4809Z-0.0425
G1X5.7153Y-19.4603Z-0.0513
G1X5.7314Y-19.4553Z-0.0443
G1X5.7457Y-19.4490Z-0.0395
G1X5.7559Y-19.4440Z-0.0381
G1X5.7670Y-19.4392Z-0.0397
G1X5.7791Y-19.4348Z-0.0445
G1X5.7851Y-19.4328Z-0.0477
G1X5.7918Y-19.4462Z-0.0381
G1X5.7958Y-19.4584Z-0.0314
G1X5.7974Y-19.4701Z-0.0270
G1X5.7967Y-19.4812Z-0.0250
G1X5.7853Y-19.5329Z-0.0226
G1X5.7751Y-19.5700Z-0.0222
G1X5.7632Y-19.6051Z-0.0235
G1X5.7561Y-19.6215Z-0.0245
G1X5.7446Y-19.6398Z-0.0241
G1X5.7287Y-19.6594Z-0.0233
G1X5.7100Y-19.6781Z-0.0230
G1X5.6873Y-19.6967Z-0.0238
G1X5.6569Y-19.7173Z-0.0263
G1X5.6035Y-19.7505Z-0.0297
G1X5.5355Y-19.7900Z-0.0319
G1X5.4623Y-19.8301Z-0.0325
G1X5.3770Y-19.8743Z-0.0311
G1X5.2930Y-19.9154Z-0.0277
G1X5.2188Y-19.9495Z-0.0226
G1X5.1755Y-19.9679Z-0.0191
G1X5.1422Y-19.9793Z-0.0176
G1X5.1099Y-19.9877Z-0.0175
G1X5.0811Y-19.9927Z-0.0184
G1X5.0514Y-19.9952Z-0.0200
G1X5.0263Y-19.9948Z-0.0216
G1X5.0050Y-19.9921Z-0.0224
G1X4.9734Y-19.9829Z-0.0219
G1X4.9160Y-19.9644Z-0.0240
G1X4.8604Y-19.9497Z-0.0256
G1X4.8003Y-19.9369Z-0.0267
G1X4.7355Y-19.9264Z-0.0272
G1X4.6640Y-19.9177Z-0.0272
G1X4.5757Y-19.9104Z-0.0264
G1X4.4840Y-19.9047Z-0.0251
G1X4.4585Y-19.9009Z-0.0256
G1X4.4376Y-19.8953Z-0.0266
G1X4.4199Y-19.8879Z-0.0280
G1X4.4060Y-19.8791Z-0.0295
G1X4.3955Y-19.8694Z-0.0306
G1X4.3880Y-19.8589Z-0.0308
G1X4.3826Y-19.8460Z-0.0302
G1X4.3795Y-19.8299Z-0.0287
G1X4.3790Y-19.8103Z-0.0267
G1X4.3818Y-19.7874Z-0.0246
G1X4.3858Y-19.7478Z-0.0256
G1X4.3861Y-19.7231Z-0.0251
G1X4.3839Y-19.6984Z-0.0236
G1X4.3791Y-19.6761Z-0.0222
G1X4.3715Y-19.6545Z-0.0212
G1X4.3613Y-19.6345Z-0.0213
G1X4.3485Y-19.6154Z-0.0228
G1X4.3231Y-19.5821Z-0.0259
G1X4.2956Y-19.5438Z-0.0269
G1X4.2700Y-19.5040Z-0.0267
G1X4.2387Y-19.4498Z-0.0256
G1X4.2026Y-19.3808Z-0.0242
G1X4.1735Y-19.3219Z-0.0239
G1X4.1565Y-19.2824Z-0.0226
G1X4.1474Y-19.2653Z-0.0238
G1X4.1384Y-19.2525Z-0.0268
G1X4.1287Y-19.2421Z-0.0315
G1X4.1156Y-19.2314Z-0.0393
G1X4.1084Y-19.2266Z-0.0440
G1X4.1063Y-19.2019Z-0.0363
G1X4.1024Y-19.1795Z-0.0313
G1X4.0964Y-19.1555Z-0.0279
G1X4.0868Y-19.1262Z-0.0259
G1X4.0735Y-19.0921Z-0.0258
G1X4.0219Y-18.9668Z-0.0302
G1X4.0042Y-18.9191Z-0.0303
G1X3.9922Y-18.8814Z-0.0287
G1X3.9865Y-18.8589Z-0.0273
G1X3.9835Y-18.8371Z-0.0268
G1X3.9828Y-18.8127Z-0.0272
G1X3.9852Y-18.7873Z-0.0284
G1X3.9903Y-18.7626Z-0.0300
G1X3.9988Y-18.7356Z-0.0321
G1X4.0082Y-18.7119Z-0.0346
G1X4.0110Y-18.6998Z-0.0381
G1X4.0120Y-18.6866Z-0.0438
G1X4.0115Y-18.6768Z-0.0490
G1X4.0513Y-18.6413Z-0.0307
G1X4.0689Y-18.6229Z-0.0236
G1X4.0835Y-18.6047Z-0.0191
G1X4.0976Y-18.5842Z-0.0165
G1X4.1113Y-18.5607Z-0.0161
G1X4.1237Y-18.5361Z-0.0182
G1X4.1365Y-18.5075Z-0.0233
G1X4.1525Y-18.4698Z-0.0336
G1X4.1660Y-18.4434Z-0.0414
G1X4.1775Y-18.4257Z-0.0461
G1X4.1860Y-18.4163Z-0.0477
G1X4.1934Y-18.4114Z-0.0469
G1X4.2070Y-18.4058Z-0.0432
G1X4.2289Y-18.4005Z-0.0357
G1X4.2587Y-18.3962Z-0.0256
G1X4.2762Y-18.3927Z-0.0221
G1X4.2907Y-18.3884Z-0.0216
G1X4.3052Y-18.3824Z-0.0235
G1X4.3215Y-18.3737Z-0.0287
G1X4.3350Y-18.3654Z-0.0350
G1X4.3534Y-18.3752Z-0.0236
G1X4.3691Y-18.3816Z-0.0165
G1X4.3834Y-18.3855Z-0.0127
G1X4.3970Y-18.3875Z-0.0114
G1X4.4150Y-18.3881Z-0.0123
G1X4.4406Y-18.3869Z-0.0171
G1X4.4864Y-18.3840Z-0.0288
G1X4.5039Y-18.3808Z-0.0312
G1X4.5248Y-18.3747Z-0.0320
G1X4.5577Y-18.3624Z-0.0312
G1X4.6072Y-18.3404Z-0.0285
G1X4.6525Y-18.3187Z-0.0276
G1X4.6892Y-18.3026Z-0.0284
G1X4.7267Y-18.2883Z-0.0278
G1X4.7542Y-18.2802Z-0.0265
G1X4.7781Y-18.2760Z-0.0252
G1X4.7974Y-18.2750Z-0.0241
G1X4.8158Y-18.2767Z-0.0236
G1X4.8332Y-18.2809Z-0.0234
G1X4.8517Y-18.2884Z-0.0236
G1X4.8696Y-18.2989Z-0.0242
G1X4.8876Y-18.3129Z-0.0253
G1X4.9047Y-18.3302Z-0.0271
G1X4.9181Y-18.3452Z-0.0304
G1X4.9309Y-18.3592Z-0.0364
G1X4.9437Y-18.3742Z-0.0458
G1X4.9453Y-18.3762Z-0.0473
G1X4.9333Y-18.3921Z-0.0362
G1X4.9227Y-18.4030Z-0.0295
G1X4.9105Y-18.4126Z-0.0249
G1X4.8964Y-18.4209Z-0.0223
G1X4.8772Y-18.4295Z-0.0217
G1X4.8428Y-18.4433Z-0.0231
G1X4.7938Y-18.4694Z-0.0220
G1X4.7457Y-18.4983Z-0.0210
G1X4.7030Y-18.5271Z-0.0203
G1X4.6674Y-18.5541Z-0.0199
G1X4.6346Y-18.5826Z-0.0204
G1X4.6022Y-18.6147Z-0.0216
G1X4.5725Y-18.6484Z-0.0232
G1X4.5463Y-18.6821Z-0.0250
G1X4.5223Y-18.7170Z-0.0266
G1X4.4980Y-18.7576Z-0.0283
G1X4.4769Y-18.7989Z-0.0296
G1X4.4586Y-18.8408Z-0.0304
G1X4.4433Y-18.8836Z-0.0307
G1X4.4307Y-18.9271Z-0.0304
G1X4.4210Y-18.9717Z-0.0297
G1X4.4140Y-19.0172Z-0.0284
G1X4.4103Y-19.0586Z-0.0270
G1X4.4091Y-19.1002Z-0.0253
G1X4.4104Y-19.1423Z-0.0236
G1X4.4144Y-19.1857Z-0.0220
G1X4.4215Y-19.2299Z-0.0206
G1X4.4306Y-19.2700Z-0.0200
G1X4.4427Y-19.3103Z-0.0200
G1X4.4521Y-19.3356Z-0.0209
G1X4.4624Y-19.3567Z-0.0233
G1X4.4757Y-19.3780Z-0.0279
G1X4.4920Y-19.3996Z-0.0345
G1X4.5140Y-19.4249Z-0.0440
G1X4.5127Y-19.4375Z-0.0374
G1X4.5128Y-19.4456Z-0.0340
G1X4.5139Y-19.4534Z-0.0315
G1X4.5158Y-19.4607Z-0.0299
G1X4.5194Y-19.4693Z-0.0292
G1X4.5295Y-19.4849Z-0.0308
G1X4.5373Y-19.4958Z-0.0330
G1X4.5426Y-19.5053Z-0.0367
G1X4.5481Y-19.5188Z-0.0440
G1X4.5531Y-19.5374Z-0.0566
G1X4.5366Y-19.5401Z-0.0457
G1X4.5264Y-19.5408Z-0.0402
G1X4.5139Y-19.5402Z-0.0349
G1X4.5019Y-19.5374Z-0.0315
G1X4.4815Y-19.5278Z-0.0285
G1X4.4557Y-19.5125Z-0.0252
G1X4.4315Y-19.4950Z-0.0224
G1X4.4098Y-19.4761Z-0.0203
G1X4.3893Y-19.4550Z-0.0189
G1X4.3704Y-19.4319Z-0.0182
G1X4.3531Y-19.4070Z-0.0181
G1X4.3373Y-19.3804Z-0.0186
G1X4.3203Y-19.3461Z-0.0199
G1X4.3056Y-19.3101Z-0.0217
G1X4.2925Y-19.2704Z-0.0238
G1X4.2815Y-19.2279Z-0.0261
G1X4.2728Y-19.1824Z-0.0281
G1X4.2670Y-19.1370Z-0.0296
G1X4.2639Y-19.0922Z-0.0302
G1X4.2635Y-19.0482Z-0.0298
G1X4.2656Y-19.0051Z-0.0281
G1X4.2702Y-18.9631Z-0.0248
G1X4.2760Y-18.9285Z-0.0208
G1X4.2848Y-18.8870Z-0.0151
G1X4.2879Y-18.8785Z-0.0126
G1X4.2935Y-18.8714Z-0.0077
G1X4.3019Y-18.8637Z0.0000
G1X4.2917Y-18.8733Z-0.0093
G1X4.2871Y-18.8801Z-0.0133
G1X4.2839Y-18.8908Z-0.0157
G1X4.2735Y-18.9424Z-0.0226
G1X4.2677Y-18.9826Z-0.0265
G1X4.2643Y-19.0243Z-0.0290
G1X4.2633Y-19.0644Z-0.0301
G1X4.2646Y-19.1071Z-0.0301
G1X4.2686Y-19.1521Z-0.0292
G1X4.2754Y-19.1976Z-0.0275
G1X4.2851Y-19.2430Z-0.0253
G1X4.2970Y-19.2852Z-0.0230
G1X4.3112Y-19.3246Z-0.0209
G1X4.3269Y-19.3602Z-0.0193
G1X4.3438Y-19.3918Z-0.0183
G1X4.3616Y-19.4197Z-0.0181
G1X4.3819Y-19.4463Z-0.0185
G1X4.4018Y-19.4683Z-0.0197
G1X4.4232Y-19.4881Z-0.0215
G1X4.4463Y-19.5061Z-0.0241
G1X4.4719Y-19.5224Z-0.0273
G1X4.4988Y-19.5362Z-0.0309
G1X4.5103Y-19.5396Z-0.0337
G1X4.5178Y-19.5406Z-0.0364
G1X4.5319Y-19.5405Z-0.0431
G1X4.5492Y-19.5381Z-0.0538
G1X4.5531Y-19.5374Z-0.0566
G1X4.5737Y-19.5510Z-0.0583
G1X4.6054Y-19.5703Z-0.0632
G1X4.6088Y-19.5722Z-0.0638
G0Z0.1181
G0X4.7734Y-19.3402
G1Z-0.1303F20.0
G1X4.7562Y-19.3181Z-0.1117F60.0
G1X4.7417Y-19.2981Z-0.0983
G1X4.7364Y-19.2905Z-0.0942
G1X4.7340Y-19.2529Z-0.0635
G1X4.7305Y-19.2269Z-0.0443
G1X4.7262Y-19.2078Z-0.0325
G1X4.7211Y-19.1930Z-0.0256
G1X4.7151Y-19.1802Z-0.0219
G1X4.7069Y-19.1657Z-0.0207
G1X4.6963Y-19.1460Z-0.0223
G1X4.6932Y-19.1371Z-0.0228
G1X4.6922Y-19.1148Z-0.0203
G1X4.6939Y-19.0997Z-0.0185
G1X4.6979Y-19.0873Z-0.0154
G1X4.7056Y-19.0736Z-0.0101
G1X4.7181Y-19.0575Z-0.0019
G1X4.7211Y-19.0542Z0.0000
G1X4.7073Y-19.0711Z-0.0089
G1X4.6989Y-19.0851Z-0.0147
G1X4.6944Y-19.0976Z-0.0181
G1X4.6923Y-19.1118Z-0.0201
G1X4.6928Y-19.1332Z-0.0222
G1X4.6939Y-19.1401Z-0.0229
G1X4.7012Y-19.1557Z-0.0213
G1X4.7112Y-19.1732Z-0.0210
G1X4.7181Y-19.1863Z-0.0234
G1X4.7236Y-19.1998Z-0.0284
G1X4.7283Y-19.2160Z-0.0373
G1X4.7322Y-19.2371Z-0.0515
G1X4.7351Y-19.2661Z-0.0739
G1X4.7364Y-19.2905Z-0.0942
G1X4.7025Y-19.2763Z-0.0651
G1X4.6779Y-19.2663Z-0.0474
G1X4.6582Y-19.2589Z-0.0366
G1X4.6408Y-19.2529Z-0.0303
G1X4.6240Y-19.2474Z-0.0272
G1X4.6028Y-19.2396Z-0.0261
G1X4.5840Y-19.2296Z-0.0261
G1X4.5675Y-19.2176Z-0.0265
G1X4.5545Y-19.2048Z-0.0268
G1X4.5437Y-19.1900Z-0.0270
G1X4.5356Y-19.1737Z-0.0268
G1X4.5304Y-19.1564Z-0.0264
G1X4.5277Y-19.1366Z-0.0260
G1X4.5279Y-19.1168Z-0.0263
G1X4.5307Y-19.0971Z-0.0277
G1X4.5361Y-19.0777Z-0.0306
G1X4.5462Y-19.0533Z-0.0368
G1X4.5536Y-19.0337Z-0.0409
G1X4.5549Y-19.0267Z-0.0411
G1X4.5531Y-19.0134Z-0.0374
G1X4.5450Y-18.9815Z-0.0258
G1X4.5420Y-18.9648Z-0.0220
G1X4.5409Y-18.9491Z-0.0211
G1X4.5416Y-18.9336Z-0.0225
G1X4.5451Y-18.9197Z-0.0244
G1X4.5520Y-18.9050Z-0.0263
G1X4.5630Y-18.8893Z-0.0282
G1X4.5784Y-18.8727Z-0.0292
G1X4.5985Y-18.8541Z-0.0280
G1X4.6215Y-18.8363Z-0.0254
G1X4.6443Y-18.8222Z-0.0231
G1X4.6659Y-18.8119Z-0.0218
G1X4.6860Y-18.8052Z-0.0218
G1X4.7061Y-18.8011Z-0.0233
G1X4.7265Y-18.7984Z-0.0275
G1X4.7479Y-18.7966Z-0.0347
G1X4.7683Y-18.7960Z-0.0446
G1X4.7924Y-18.7969Z-0.0595
G1X4.8004Y-18.7975Z-0.0651
G1X4.8034Y-18.8184Z-0.0558
G1X4.8039Y-18.8392Z-0.0484
G1X4.8022Y-18.8608Z-0.0429
G1X4.7985Y-18.8859Z-0.0393
G1X4.7913Y-18.9284Z-0.0359
G1X4.7892Y-18.9531Z-0.0345
G1X4.7898Y-18.9733Z-0.0350
G1X4.7927Y-18.9924Z-0.0374
G1X4.7983Y-19.0123Z-0.0420
G1X4.8034Y-19.0252Z-0.0462
G1X4.8106Y-19.0379Z-0.0524
G1X4.8135Y-19.0421Z-0.0548
G1X4.8075Y-19.0571Z-0.0473
G1X4.8042Y-19.0713Z-0.0423
G1X4.8033Y-19.0825Z-0.0400
G1X4.8041Y-19.0943Z-0.0391
G1X4.8128Y-19.1420Z-0.0398
G1X4.8228Y-19.1933Z-0.0393
G1X4.8261Y-19.2083Z-0.0398
G1X4.8274Y-19.2210Z-0.0423
G1X4.8271Y-19.2351Z-0.0475
G1X4.8248Y-19.2513Z-0.0561
G1X4.8197Y-19.2727Z-0.0705
G1X4.8110Y-19.2995Z-0.0923
G1X4.7968Y-19.3354Z-0.1253
G1X4.7947Y-19.3403Z-0.1301
G1X4.7734Y-19.3402Z-0.1303
G1X4.7457Y-19.3632Z-0.1071
G1X4.7127Y-19.3869Z-0.0826
G1X4.6558Y-19.4227Z-0.0439
G1X4.6370Y-19.4319Z-0.0333
G1X4.6210Y-19.4373Z-0.0267
G1X4.6067Y-19.4397Z-0.0229
G1X4.5933Y-19.4398Z-0.0215
G1X4.5794Y-19.4378Z-0.0220
G1X4.5614Y-19.4328Z-0.0248
G1X4.5430Y-19.4265Z-0.0294
G1X4.5300Y-19.4243Z-0.0350
G1X4.5172Y-19.4246Z-0.0420
G1X4.5140Y-19.4249Z-0.0440
G1X4.4886Y-19.3953Z-0.0330
G1X4.4727Y-19.3736Z-0.0267
G1X4.4600Y-19.3522Z-0.0226
G1X4.4500Y-19.3306Z-0.0206
G1X4.4379Y-19.2957Z-0.0199
G1X4.4270Y-19.2554Z-0.0201
G1X4.4184Y-19.2126Z-0.0211
G1X4.4130Y-19.1731Z-0.0224
G1X4.4098Y-19.1300Z-0.0241
G1X4.4093Y-19.0833Z-0.0260
G1X4.4117Y-19.0404Z-0.0276
G1X4.4171Y-18.9943Z-0.0291
G1X4.4255Y-18.9492Z-0.0301
G1X4.4367Y-18.9052Z-0.0306
G1X4.4506Y-18.8621Z-0.0306
G1X4.4677Y-18.8189Z-0.0300
G1X4.4871Y-18.7781Z-0.0290
G1X4.5098Y-18.7372Z-0.0275
G1X4.5331Y-18.7007Z-0.0259
G1X4.5611Y-18.6625Z-0.0240
G1X4.5893Y-18.6288Z-0.0223
G1X4.6211Y-18.5954Z-0.0208
G1X4.6499Y-18.5688Z-0.0201
G1X4.6825Y-18.5422Z-0.0200
G1X4.7260Y-18.5112Z-0.0207
G1X4.7702Y-18.4831Z-0.0215
G1X4.8200Y-18.4550Z-0.0226
G1X4.8486Y-18.4407Z-0.0231
G1X4.8844Y-18.4265Z-0.0217
G1X4.9012Y-18.4183Z-0.0229
G1X4.9144Y-18.4098Z-0.0261
G1X4.9261Y-18.3998Z-0.0314
G1X4.9377Y-18.3867Z-0.0398
G1X4.9453Y-18.3762Z-0.0473
G1X4.9705Y-18.3749Z-0.0407
G1X4.9981Y-18.3717Z-0.0359
G1X5.0339Y-18.3658Z-0.0323
G1X5.0998Y-18.3547Z-0.0287
G1X5.1612Y-18.3444Z-0.0285
G1X5.2369Y-18.3331Z-0.0305
G1X5.2922Y-18.3274Z-0.0318
G1X5.3318Y-18.3255Z-0.0315
G1X5.3638Y-18.3262Z-0.0297
G1X5.3901Y-18.3290Z-0.0264
G1X5.4121Y-18.3335Z-0.0219
G1X5.4305Y-18.3396Z-0.0189
G1X5.4473Y-18.3465Z-0.0185
G1X5.4655Y-18.3554Z-0.0206
G1X5.4882Y-18.3681Z-0.0263
G1X5.5195Y-18.3862Z-0.0382
G1X5.5507Y-18.4023Z-0.0515
G1X5.5554Y-18.4045Z-0.0535
G1X5.5589Y-18.4271Z-0.0412
G1X5.5641Y-18.4464Z-0.0324
G1X5.5710Y-18.4637Z-0.0262
G1X5.5790Y-18.4782Z-0.0226
G1X5.5906Y-18.4950Z-0.0201
G1X5.6064Y-18.5131Z-0.0192
G1X5.6273Y-18.5331Z-0.0199
G1X5.6541Y-18.5546Z-0.0217
G1X5.6824Y-18.5735Z-0.0236
G1X5.7113Y-18.5892Z-0.0250
G1X5.7392Y-18.6014Z-0.0255
G1X5.7685Y-18.6127Z-0.0252
G1X5.7835Y-18.6213Z-0.0258
G1X5.7952Y-18.6313Z-0.0268
G1X5.8028Y-18.6415Z-0.0272
G1X5.8073Y-18.6520Z-0.0267
G1X5.8094Y-18.6652Z-0.0253
G1X5.8088Y-18.6821Z-0.0236
G1X5.8068Y-18.7132Z-0.0231
G1X5.8075Y-18.7431Z-0.0236
G1X5.8106Y-18.7696Z-0.0255
G1X5.8162Y-18.7959Z-0.0291
G1X5.8234Y-18.8190Z-0.0339
G1X5.8338Y-18.8446Z-0.0412
G1X5.8474Y-18.8714Z-0.0511
G1X5.8405Y-18.8891Z-0.0417
G1X5.8363Y-18.9058Z-0.0351
G1X5.8340Y-18.9236Z-0.0303
G1X5.8337Y-18.9458Z-0.0268
G1X5.8359Y-18.9779Z-0.0245
G1X5.8429Y-19.0464Z-0.0239
G1X5.8460Y-19.0997Z-0.0240
G1X5.8459Y-19.1483Z-0.0246
G1X5.8432Y-19.1921Z-0.0258
G1X5.8376Y-19.2367Z-0.0281
G1X5.8287Y-19.2843Z-0.0317
G1X5.8151Y-19.3399Z-0.0368
G1X5.7948Y-19.4086Z-0.0435
G1X5.7870Y-19.4287Z-0.0467
G1X5.7851Y-19.4328Z-0.0477
G1X5.7719Y-19.4373Z-0.0413
G1X5.7611Y-19.4417Z-0.0385
G1X5.7510Y-19.4463Z-0.0384
G1X5.7375Y-19.4529Z-0.0421
G1X5.7216Y-19.4585Z-0.0484
G1X5.7153Y-19.4603Z-0.0513
G1X5.7020Y-19.4428Z-0.0394
G1X5.6947Y-19.4315Z-0.0339
G1X5.6886Y-19.4195Z-0.0307
G1X5.6830Y-19.4046Z-0.0297
G1X5.6778Y-19.3877Z-0.0313
G1X5.6727Y-19.3716Z-0.0358
G1X5.6670Y-19.3553Z-0.0433
G1X5.6775Y-19.3413Z-0.0377
G1X5.7077Y-19.3080Z-0.0286
G1X5.7279Y-19.2822Z-0.0215
G1X5.7315Y-19.2752Z-0.0208
G1X5.7338Y-19.2663Z-0.0217
G1X5.7342Y-19.2606Z-0.0232
G1X5.7339Y-19.2547Z-0.0254
G1X5.7313Y-19.2427Z-0.0314
G1X5.7261Y-19.2305Z-0.0396
G1X5.7187Y-19.2186Z-0.0494
G1X5.7046Y-19.2015Z-0.0665
G1X5.6879Y-19.1859Z-0.0852
G1X5.6827Y-19.1817Z-0.0908
G1X5.6875Y-19.1532Z-0.0875
G1X5.6885Y-19.1342Z-0.0860
G1X5.6871Y-19.1164Z-0.0861
G1X5.6833Y-19.0985Z-0.0876
G1X5.6771Y-19.0806Z-0.0908
G1X5.6685Y-19.0629Z-0.0958
G1X5.6661Y-19.0588Z-0.0972
G1X5.6691Y-19.0166Z-0.0837
G1X5.6693Y-18.9766Z-0.0720
G1X5.6671Y-18.9413Z-0.0632
G1X5.6629Y-18.9090Z-0.0569
G1X5.6596Y-18.8920Z-0.0545
G1X5.6642Y-18.8800Z-0.0463
G1X5.6675Y-18.8669Z-0.0390
G1X5.6688Y-18.8545Z-0.0339
G1X5.6681Y-18.8428Z-0.0309
G1X5.6573Y-18.7907Z-0.0262
G1X5.6459Y-18.7417Z-0.0243
G1X5.6350Y-18.7048Z-0.0242
G1X5.6232Y-18.6740Z-0.0251
G1X5.6107Y-18.6488Z-0.0267
G1X5.5973Y-18.6284Z-0.0284
G1X5.5843Y-18.6134Z-0.0296
G1X5.5703Y-18.6013Z-0.0301
G1X5.5543Y-18.5913Z-0.0298
G1X5.5345Y-18.5827Z-0.0288
G1X5.5099Y-18.5757Z-0.0273
G1X5.4799Y-18.5707Z-0.0259
G1X5.4436Y-18.5679Z-0.0250
G1X5.3985Y-18.5676Z-0.0253
G1X5.3421Y-18.5700Z-0.0272
G1X5.2983Y-18.5733Z-0.0295
G1X5.2865Y-18.5751Z-0.0317
G1X5.2790Y-18.5774Z-0.0344
G1X5.2712Y-18.5807Z-0.0381
G1X5.2650Y-18.5840Z-0.0419
G1X5.2265Y-18.5700Z-0.0326
G1X5.1883Y-18.5565Z-0.0265
G1X5.1503Y-18.5433Z-0.0237
G1X5.1084Y-18.5302Z-0.0229
G1X5.0702Y-18.5212Z-0.0221
G1X5.0415Y-18.5172Z-0.0216
G1X5.0155Y-18.5164Z-0.0214
G1X4.9939Y-18.5183Z-0.0216
G1X4.9736Y-18.5230Z-0.0223
G1X4.9555Y-18.5301Z-0.0233
G1X4.9389Y-18.5396Z-0.0247
G1X4.9198Y-18.5537Z-0.0259
G1X4.8983Y-18.5717Z-0.0248
G1X4.8761Y-18.5938Z-0.0219
G1X4.8581Y-18.6159Z-0.0192
G1X4.8447Y-18.6365Z-0.0179
G1X4.8349Y-18.6565Z-0.0181
G1X4.8277Y-18.6769Z-0.0202
G1X4.8225Y-18.6990Z-0.0244
G1X4.8182Y-18.7232Z-0.0318
G1X4.8139Y-18.7517Z-0.0438
G1X4.8093Y-18.7815Z-0.0596
G1X4.8004Y-18.7975Z-0.0651
G1X4.7757Y-18.7962Z-0.0489
G1X4.7541Y-18.7963Z-0.0374
G1X4.7340Y-18.7977Z-0.0297
G1X4.7128Y-18.8001Z-0.0244
G1X4.6922Y-18.8037Z-0.0221
G1X4.6717Y-18.8097Z-0.0217
G1X4.6511Y-18.8186Z-0.0226
G1X4.6280Y-18.8319Z-0.0247
G1X4.6049Y-18.8487Z-0.0273
G1X4.5838Y-18.8675Z-0.0291
G1X4.5665Y-18.8851Z-0.0285
G1X4.5546Y-18.9007Z-0.0269
G1X4.5467Y-18.9156Z-0.0249
G1X4.5422Y-18.9304Z-0.0229
G1X4.5408Y-18.9446Z-0.0214
G1X4.5415Y-18.9597Z-0.0214
G1X4.5438Y-18.9758Z-0.0242
G1X4.5486Y-18.9955Z-0.0306
G1X4.5541Y-19.0184Z-0.0390
G1X4.5549Y-19.0283Z-0.0413
G1X4.5518Y-19.0392Z-0.0400
G1X4.5388Y-19.0703Z-0.0322
G1X4.5325Y-19.0895Z-0.0286
G1X4.5286Y-19.1096Z-0.0267
G1X4.5274Y-19.1293Z-0.0260
G1X4.5291Y-19.1493Z-0.0262
G1X4.5335Y-19.1677Z-0.0267
G1X4.5404Y-19.1842Z-0.0270
G1X4.5502Y-19.1995Z-0.0269
G1X4.5628Y-19.2134Z-0.0266
G1X4.5786Y-19.2261Z-0.0262
G1X4.5971Y-19.2369Z-0.0261
G1X4.6167Y-19.2450Z-0.0267
G1X4.6346Y-19.2508Z-0.0288
G1X4.6518Y-19.2567Z-0.0339
G1X4.6706Y-19.2635Z-0.0430
G1X4.6925Y-19.2722Z-0.0575
G1X4.7226Y-19.2847Z-0.0819
G1X4.7367Y-19.2909Z-0.0944
G1X4.7480Y-19.3070Z-0.1038
G1X4.7635Y-19.3277Z-0.1194
G1X4.7734Y-19.3402Z-0.1303
G1X4.7947Y-19.3403Z-0.1301
G1X4.8269Y-19.3537Z-0.1160
G1X4.8596Y-19.3646Z-0.1037
G1X4.8942Y-19.3734Z-0.0929
G1X4.9314Y-19.3801Z-0.0833
G1X4.9665Y-19.3840Z-0.0760
G1X5.0003Y-19.3853Z-0.0709
G1X5.0326Y-19.3842Z-0.0678
G1X5.0649Y-19.3807Z-0.0666
G1X5.0779Y-19.3786Z-0.0666
G1X5.0904Y-19.3840Z-0.0593
G1X5.1000Y-19.3871Z-0.0546
G1X5.1095Y-19.3894Z-0.0508
G1X5.1252Y-19.3911Z-0.0463
G1X5.1635Y-19.3918Z-0.0385
G1X5.2031Y-19.3900Z-0.0322
G1X5.2447Y-19.3857Z-0.0273
G1X5.2883Y-19.3786Z-0.0240
G1X5.3340Y-19.3686Z-0.0223
G1X5.3793Y-19.3560Z-0.0223
G1X5.4237Y-19.3412Z-0.0241
G1X5.4670Y-19.3242Z-0.0277
G1X5.5081Y-19.3054Z-0.0330
G1X5.5456Y-19.2857Z-0.0397
G1X5.5791Y-19.2656Z-0.0478
G1X5.6101Y-19.2445Z-0.0572
G1X5.6389Y-19.2221Z-0.0683
G1X5.6661Y-19.1981Z-0.0813
G1X5.6827Y-19.1817Z-0.0908
G1X5.6993Y-19.1962Z-0.0726
G1X5.7144Y-19.2128Z-0.0549
G1X5.7226Y-19.2245Z-0.0443
G1X5.7290Y-19.2366Z-0.0353
G1X5.7329Y-19.2487Z-0.0281
G1X5.7339Y-19.2547Z-0.0254
G1X5.7342Y-19.2606Z-0.0232
G1X5.7338Y-19.2663Z-0.0217
G1X5.7315Y-19.2752Z-0.0208
G1X5.7263Y-19.2845Z-0.0221
G1X5.7038Y-19.3126Z-0.0299
G1X5.6769Y-19.3420Z-0.0379
G1X5.6670Y-19.3553Z-0.0433
G1X5.6469Y-19.3554Z-0.0325
G1X5.6294Y-19.3577Z-0.0252
G1X5.6129Y-19.3619Z-0.0203
G1X5.5948Y-19.3688Z-0.0172
G1X5.5733Y-19.3794Z-0.0161
G1X5.5182Y-19.4087Z-0.0176
G1X5.4654Y-19.4335Z-0.0188
G1X5.4095Y-19.4565Z-0.0197
G1X5.3480Y-19.4785Z-0.0201
G1X5.2858Y-19.4976Z-0.0202
G1X5.2228Y-19.5141Z-0.0200
G1X5.1559Y-19.5288Z-0.0196
G1X5.0842Y-19.5418Z-0.0193
G1X5.0083Y-19.5527Z-0.0195
G1X4.9318Y-19.5610Z-0.0208
G1X4.8616Y-19.5662Z-0.0233
G1X4.7974Y-19.5690Z-0.0272
G1X4.7365Y-19.5697Z-0.0329
G1X4.6833Y-19.5684Z-0.0401
G1X4.6492Y-19.5665Z-0.0461
G1X4.6362Y-19.5670Z-0.0501
G1X4.6226Y-19.5689Z-0.0561
G1X4.6088Y-19.5722Z-0.0638
G1X4.5770Y-19.5531Z-0.0587
G1X4.5554Y-19.5388Z-0.0566
G1X4.5531Y-19.5374Z-0.0566
G1X4.5481Y-19.5188Z-0.0440
G1X4.5423Y-19.5046Z-0.0364
G1X4.5369Y-19.4953Z-0.0329
G1X4.5221Y-19.4740Z-0.0294
G1X4.5186Y-19.4677Z-0.0292
G1X4.5158Y-19.4607Z-0.0299
G1X4.5139Y-19.4534Z-0.0315
G1X4.5128Y-19.4456Z-0.0340
G1X4.5127Y-19.4375Z-0.0374
G1X4.5140Y-19.4249Z-0.0440
G1X4.5284Y-19.4242Z-0.0358
G1X4.5392Y-19.4256Z-0.0308
G1X4.5514Y-19.4293Z-0.0271
G1X4.5731Y-19.4363Z-0.0228
G1X4.5879Y-19.4392Z-0.0215
G1X4.6021Y-19.4400Z-0.0222
G1X4.6154Y-19.4385Z-0.0249
G1X4.6304Y-19.4345Z-0.0302
G1X4.6472Y-19.4273Z-0.0387
G1X4.6686Y-19.4150Z-0.0523
G1X4.7219Y-19.3806Z-0.0891
G1X4.7508Y-19.3592Z-0.1112
G1X4.7734Y-19.3402Z-0.1303
G0Z0.1181
G0X4.7947Y-19.3403
G1Z-0.1301F20.0
G1X4.8102Y-19.3017Z-0.0942F60.0
G1X4.8195Y-19.2736Z-0.0712
G1X4.8245Y-19.2530Z-0.0570
G1X4.8269Y-19.2366Z-0.0482
G1X4.8275Y-19.2224Z-0.0427
G1X4.8266Y-19.2110Z-0.0401
G1X4.8234Y-19.1957Z-0.0393
G1X4.8133Y-19.1449Z-0.0398
G1X4.8047Y-19.0980Z-0.0392
G1X4.8033Y-19.0854Z-0.0396
G1X4.8038Y-19.0741Z-0.0416
G1X4.8066Y-19.0599Z-0.0461
G1X4.8118Y-19.0458Z-0.0528
G1X4.8135Y-19.0421Z-0.0548
G1X4.8283Y-19.0413Z-0.0495
G1X4.8411Y-19.0408Z-0.0477
G1X4.8549Y-19.0411Z-0.0490
G1X4.8801Y-19.0422Z-0.0560
G1X4.9038Y-19.0412Z-0.0646
G1X4.9297Y-19.0377Z-0.0763
G1X4.9561Y-19.0316Z-0.0905
G1X4.9834Y-19.0229Z-0.1076
G1X4.9994Y-19.0166Z-0.1187
G1X5.0196Y-19.0246Z-0.1177
G1X5.0368Y-19.0297Z-0.1184
G1X5.0606Y-19.0346Z-0.1215
G1X5.0707Y-19.0362Z-0.1233
G1X5.0757Y-19.0640Z-0.0986
G1X5.0802Y-19.0826Z-0.0825
G1X5.0853Y-19.0992Z-0.0684
G1X5.0941Y-19.1204Z-0.0512
G1X5.1011Y-19.1327Z-0.0418
G1X5.1086Y-19.1427Z-0.0348
G1X5.1169Y-19.1508Z-0.0297
G1X5.1258Y-19.1570Z-0.0268
G1X5.1443Y-19.1649Z-0.0253
G1X5.1741Y-19.1755Z-0.0249
G1X5.1998Y-19.1825Z-0.0266
G1X5.2231Y-19.1866Z-0.0302
G1X5.2461Y-19.1884Z-0.0359
G1X5.2697Y-19.1880Z-0.0440
G1X5.2885Y-19.1866Z-0.0523
G1X5.3080Y-19.1866Z-0.0642
G1X5.3214Y-19.1875Z-0.0738
G1X5.3133Y-19.2074Z-0.0564
G1X5.3046Y-19.2235Z-0.0429
G1X5.2951Y-19.2364Z-0.0329
G1X5.2884Y-19.2431Z-0.0281
G1X5.2813Y-19.2485Z-0.0249
G1X5.2738Y-19.2524Z-0.0232
G1X5.2309Y-19.2685Z-0.0214
G1X5.1924Y-19.2859Z-0.0205
G1X5.1582Y-19.3035Z-0.0216
G1X5.1269Y-19.3211Z-0.0252
G1X5.1146Y-19.3284Z-0.0278
G1X5.1062Y-19.3354Z-0.0317
G1X5.0967Y-19.3462Z-0.0393
G1X5.0868Y-19.3613Z-0.0515
G1X5.0779Y-19.3786Z-0.0666
G1X5.0446Y-19.3832Z-0.0671
G1X5.0118Y-19.3852Z-0.0696
G1X4.9788Y-19.3848Z-0.0739
G1X4.9458Y-19.3820Z-0.0801
G1X4.9092Y-19.3764Z-0.0888
G1X4.8739Y-19.3686Z-0.0990
G1X4.8406Y-19.3586Z-0.1106
G1X4.8076Y-19.3460Z-0.1242
G1X4.7947Y-19.3403Z-0.1301
G0Z0.1181
G0X3.6441Y-20.0919
G1Z-0.0539F20.0
G1X3.6330Y-20.0424Z-0.0429F60.0
G1X3.6187Y-19.9888Z-0.0329
G1X3.6079Y-19.9538Z-0.0274
G1X3.6001Y-19.9349Z-0.0260
G1X3.5919Y-19.9199Z-0.0268
G1X3.5827Y-19.9077Z-0.0294
G1X3.5720Y-19.8967Z-0.0340
G1X3.5576Y-19.8854Z-0.0416
G1X3.5492Y-19.8801Z-0.0465
G1X3.5459Y-19.8559Z-0.0380
G1X3.5406Y-19.8333Z-0.0317
G1X3.5330Y-19.8108Z-0.0273
G1X3.5228Y-19.7886Z-0.0248
G1X3.5111Y-19.7678Z-0.0241
G1X3.4934Y-19.7417Z-0.0250
G1X3.4691Y-19.7092Z-0.0268
G1X3.4316Y-19.6591Z-0.0269
G1X3.4063Y-19.6294Z-0.0274
G1X3.3901Y-19.6102Z-0.0278
G1X3.3810Y-19.5959Z-0.0283
G1X3.3749Y-19.5819Z-0.0288
G1X3.3715Y-19.5679Z-0.0292
G1X3.3710Y-19.5542Z-0.0292
G1X3.3734Y-19.5399Z-0.0288
G1X3.3792Y-19.5253Z-0.0282
G1X3.3882Y-19.5104Z-0.0277
G1X3.4036Y-19.4919Z-0.0273
G1X3.4226Y-19.4699Z-0.0265
G1X3.4387Y-19.4477Z-0.0273
G1X3.4505Y-19.4278Z-0.0297
G1X3.4605Y-19.4072Z-0.0336
G1X3.4692Y-19.3842Z-0.0396
G1X3.4763Y-19.3592Z-0.0476
G1X3.4935Y-19.3503Z-0.0381
G1X3.5078Y-19.3405Z-0.0314
G1X3.5193Y-19.3297Z-0.0273
G1X3.5294Y-19.3174Z-0.0252
G1X3.5395Y-19.3016Z-0.0248
G1X3.5610Y-19.2602Z-0.0273
G1X3.6189Y-19.1537Z-0.0289
G1X3.6976Y-19.0067Z-0.0308
G1X3.7450Y-18.9237Z-0.0318
G1X3.7799Y-18.8675Z-0.0321
G1X3.8124Y-18.8201Z-0.0315
G1X3.8390Y-18.7855Z-0.0306
G1X3.8637Y-18.7576Z-0.0300
G1X3.8905Y-18.7316Z-0.0296
G1X3.9184Y-18.7089Z-0.0296
G1X3.9478Y-18.6889Z-0.0297
G1X3.9631Y-18.6801Z-0.0300
G1X3.9734Y-18.6763Z-0.0318
G1X3.9847Y-18.6744Z-0.0354
G1X3.9968Y-18.6745Z-0.0407
G1X4.0115Y-18.6768Z-0.0490
G1X4.0120Y-18.6866Z-0.0438
G1X4.0110Y-18.6998Z-0.0381
G1X4.0079Y-18.7125Z-0.0344
G1X3.9974Y-18.7394Z-0.0318
G1X3.9892Y-18.7669Z-0.0297
G1X3.9846Y-18.7914Z-0.0281
G1X3.9827Y-18.8167Z-0.0271
G1X3.9839Y-18.8414Z-0.0268
G1X3.9874Y-18.8632Z-0.0275
G1X3.9967Y-18.8961Z-0.0295
G1X4.0118Y-18.9402Z-0.0305
G1X4.0326Y-18.9936Z-0.0294
G1X4.0777Y-19.1025Z-0.0257
G1X4.0900Y-19.1354Z-0.0263
G1X4.0982Y-19.1619Z-0.0286
G1X4.1039Y-19.1868Z-0.0327
G1X4.1072Y-19.2098Z-0.0385
G1X4.1084Y-19.2266Z-0.0440
G1X4.0939Y-19.2385Z-0.0348
G1X4.0763Y-19.2535Z-0.0271
G1X4.0587Y-19.2681Z-0.0227
G1X4.0412Y-19.2825Z-0.0213
G1X4.0250Y-19.2969Z-0.0215
G1X4.0081Y-19.3160Z-0.0211
G1X3.9813Y-19.3512Z-0.0216
G1X3.9541Y-19.3883Z-0.0235
G1X3.9390Y-19.4109Z-0.0229
G1X3.9306Y-19.4273Z-0.0218
G1X3.9263Y-19.4415Z-0.0212
G1X3.9250Y-19.4553Z-0.0209
G1X3.9265Y-19.4679Z-0.0209
G1X3.9308Y-19.4814Z-0.0213
G1X3.9388Y-19.4964Z-0.0224
G1X3.9524Y-19.5145Z-0.0244
G1X3.9756Y-19.5419Z-0.0255
G1X4.0213Y-19.5941Z-0.0239
G1X4.0655Y-19.6490Z-0.0223
G1X4.1134Y-19.7136Z-0.0211
G1X4.1765Y-19.8046Z-0.0203
G1X4.2687Y-19.9404Z-0.0209
G1X4.3212Y-20.0140Z-0.0222
G1X4.3676Y-20.0746Z-0.0238
G1X4.4086Y-20.1238Z-0.0254
G1X4.4376Y-20.1547Z-0.0256
G1X4.4662Y-20.1815Z-0.0248
G1X4.4922Y-20.2019Z-0.0239
G1X4.5168Y-20.2175Z-0.0234
G1X4.5404Y-20.2292Z-0.0234
G1X4.5657Y-20.2384Z-0.0242
G1X4.5916Y-20.2448Z-0.0256
G1X4.6290Y-20.2502Z-0.0278
G1X4.6699Y-20.2543Z-0.0278
G1X4.7232Y-20.2596Z-0.0260
G1X4.7682Y-20.2668Z-0.0251
G1X4.8070Y-20.2755Z-0.0251
G1X4.8440Y-20.2865Z-0.0260
G1X4.8819Y-20.3009Z-0.0276
G1X4.9176Y-20.3174Z-0.0298
G1X4.9306Y-20.3242Z-0.0307
G1X4.9370Y-20.3284Z-0.0318
G1X4.9429Y-20.3334Z-0.0337
G1X4.9483Y-20.3392Z-0.0365
G1X4.9533Y-20.3459Z-0.0401
G1X4.9605Y-20.3587Z-0.0480
G1X4.9538Y-20.3643Z-0.0429
G1X4.9452Y-20.3701Z-0.0377
G1X4.9348Y-20.3753Z-0.0334
G1X4.9258Y-20.3783Z-0.0312
G1X4.8889Y-20.3842Z-0.0288
G1X4.8325Y-20.3944Z-0.0266
G1X4.7836Y-20.4058Z-0.0257
G1X4.7420Y-20.4182Z-0.0256
G1X4.7066Y-20.4313Z-0.0260
G1X4.6756Y-20.4453Z-0.0268
G1X4.6451Y-20.4620Z-0.0278
G1X4.6164Y-20.4810Z-0.0288
G1X4.5893Y-20.5025Z-0.0298
G1X4.5652Y-20.5254Z-0.0306
G1X4.5422Y-20.5504Z-0.0311
G1X4.5328Y-20.5571Z-0.0318
G1X4.5224Y-20.5613Z-0.0322
G1X4.5118Y-20.5625Z-0.0316
G1X4.4971Y-20.5607Z-0.0295
G1X4.4733Y-20.5551Z-0.0269
G1X4.3991Y-20.5331Z-0.0257
G1X4.2632Y-20.4954Z-0.0267
G1X4.1558Y-20.4649Z-0.0280
G1X4.0853Y-20.4428Z-0.0279
G1X4.0219Y-20.4206Z-0.0267
G1X3.9790Y-20.4029Z-0.0258
G1X3.9388Y-20.3831Z-0.0254
G1X3.9032Y-20.3626Z-0.0252
G1X3.8684Y-20.3392Z-0.0253
G1X3.8373Y-20.3150Z-0.0255
G1X3.8071Y-20.2879Z-0.0258
G1X3.7789Y-20.2585Z-0.0261
G1X3.7520Y-20.2261Z-0.0264
G1X3.7283Y-20.1930Z-0.0268
G1X3.7061Y-20.1570Z-0.0272
G1X3.6890Y-20.1253Z-0.0276
G1X3.6822Y-20.1160Z-0.0297
G1X3.6748Y-20.1088Z-0.0333
G1X3.6637Y-20.1010Z-0.0401
G1X3.6536Y-20.0958Z-0.0470
G1X3.6441Y-20.0919Z-0.0539
G1X3.6369Y-20.1038Z-0.0474
G1X3.6323Y-20.1138Z-0.0435
G1X3.6288Y-20.1238Z-0.0412
G1X3.6247Y-20.1449Z-0.0395
G1X3.6200Y-20.1823Z-0.0373
G1X3.6183Y-20.2191Z-0.0353
G1X3.6197Y-20.2526Z-0.0337
G1X3.6238Y-20.2850Z-0.0325
G1X3.6308Y-20.3164Z-0.0316
G1X3.6408Y-20.3474Z-0.0310
G1X3.6539Y-20.3778Z-0.0308
G1X3.6698Y-20.4070Z-0.0309
G1X3.6877Y-20.4341Z-0.0312
G1X3.7104Y-20.4630Z-0.0316
G1X3.7361Y-20.4909Z-0.0321
G1X3.7676Y-20.5206Z-0.0325
G1X3.8231Y-20.5675Z-0.0317
G1X3.8732Y-20.6131Z-0.0313
G1X3.9275Y-20.6663Z-0.0305
G1X3.9745Y-20.7148Z-0.0278
G1X3.9885Y-20.7302Z-0.0269
G1X3.9943Y-20.7402Z-0.0286
G1X3.9981Y-20.7515Z-0.0326
G1X3.9999Y-20.7642Z-0.0389
G1X4.0001Y-20.7740Z-0.0446
G1X3.9852Y-20.7767Z-0.0370
G1X3.9733Y-20.7773Z-0.0330
G1X3.9619Y-20.7761Z-0.0313
G1X3.9305Y-20.7701Z-0.0324
G1X3.9109Y-20.7671Z-0.0347
G1X3.8972Y-20.7673Z-0.0389
G1X3.8907Y-20.7681Z-0.0417
G1X3.8669Y-20.7511Z-0.0334
G1X3.8485Y-20.7395Z-0.0295
G1X3.8326Y-20.7315Z-0.0285
G1X3.8173Y-20.7258Z-0.0299
G1X3.8008Y-20.7217Z-0.0338
G1X3.7825Y-20.7193Z-0.0406
G1X3.7646Y-20.7184Z-0.0490
G1X3.7523Y-20.7000Z-0.0400
G1X3.7390Y-20.6833Z-0.0339
G1X3.7213Y-20.6639Z-0.0292
G1X3.7028Y-20.6458Z-0.0271
G1X3.6838Y-20.6293Z-0.0277
G1X3.6638Y-20.6139Z-0.0307
G1X3.6401Y-20.5976Z-0.0369
G1X3.6263Y-20.5890Z-0.0416
G1X3.6218Y-20.5724Z-0.0343
G1X3.6153Y-20.5570Z-0.0295
G1X3.6062Y-20.5407Z-0.0267
G1X3.5917Y-20.5197Z-0.0256
G1X3.5661Y-20.4846Z-0.0263
G1X3.5203Y-20.4142Z-0.0279
G1X3.4962Y-20.3807Z-0.0297
G1X3.4779Y-20.3593Z-0.0316
G1X3.4609Y-20.3432Z-0.0340
G1X3.4444Y-20.3313Z-0.0371
G1X3.4273Y-20.3223Z-0.0411
G1X3.4217Y-20.3103Z-0.0345
G1X3.4146Y-20.3004Z-0.0299
G1X3.4076Y-20.2939Z-0.0276
G1X3.3994Y-20.2889Z-0.0266
G1X3.3902Y-20.2856Z-0.0271
G1X3.3624Y-20.2807Z-0.0307
G1X3.3495Y-20.2778Z-0.0320
G1X3.3365Y-20.2722Z-0.0347
G1X3.3252Y-20.2645Z-0.0377
G1X3.3204Y-20.2592Z-0.0385
G1X3.3171Y-20.2509Z-0.0370
G1X3.3143Y-20.2343Z-0.0327
G1X3.3143Y-20.2171Z-0.0289
G1X3.3170Y-20.1998Z-0.0268
G1X3.3235Y-20.1764Z-0.0261
G1X3.3352Y-20.1455Z-0.0267
G1X3.3513Y-20.1114Z-0.0275
G1X3.3714Y-20.0756Z-0.0279
G1X3.3948Y-20.0399Z-0.0274
G1X3.4210Y-20.0051Z-0.0259
G1X3.4489Y-19.9729Z-0.0237
G1X3.4789Y-19.9425Z-0.0216
G1X3.4980Y-19.9236Z-0.0227
G1X3.5126Y-19.9098Z-0.0262
G1X3.5275Y-19.8970Z-0.0327
G1X3.5439Y-19.8841Z-0.0427
G1X3.5492Y-19.8801Z-0.0465
G1X3.5655Y-19.8912Z-0.0373
G1X3.5783Y-19.9028Z-0.0312
G1X3.5881Y-19.9144Z-0.0277
G1X3.5967Y-19.9280Z-0.0261
G1X3.6046Y-19.9451Z-0.0265
G1X3.6128Y-19.9691Z-0.0296
G1X3.6293Y-20.0275Z-0.0399
G1X3.6413Y-20.0781Z-0.0506
G1X3.6441Y-20.0919Z-0.0539
G0Z0.1181
G0X3.1108Y-21.2450
G1Z-0.0599F20.0
G1X3.0815Y-21.2587Z-0.0421F60.0
G1X3.0615Y-21.2673Z-0.0309
G1X3.0306Y-21.2566Z0.0000
G1X3.0615Y-21.2673Z-0.0309
G1X3.0306Y-21.2942Z0.0000
G1X3.0615Y-21.2673Z-0.0309
G1X3.0960Y-21.2521Z-0.0507
G1X3.1108Y-21.2450Z-0.0599
G1X3.1318Y-21.2567Z-0.0515
G1X3.1541Y-21.2664Z-0.0452
G1X3.1801Y-21.2751Z-0.0405
G1X3.2214Y-21.2860Z-0.0359
G1X3.3157Y-21.3074Z-0.0280
G1X3.3745Y-21.3183Z-0.0243
G1X3.4323Y-21.3265Z-0.0218
G1X3.4892Y-21.3318Z-0.0203
G1X3.5453Y-21.3342Z-0.0197
G1X3.5948Y-21.3336Z-0.0198
G1X3.6436Y-21.3303Z-0.0204
G1X3.6923Y-21.3244Z-0.0212
G1X3.7407Y-21.3155Z-0.0223
G1X3.7889Y-21.3035Z-0.0235
G1X3.8307Y-21.2905Z-0.0245
G1X3.8746Y-21.2739Z-0.0254
G1X3.9198Y-21.2537Z-0.0261
G1X3.9601Y-21.2327Z-0.0263
G1X4.0004Y-21.2088Z-0.0263
G1X4.0373Y-21.1850Z-0.0253
G1X4.0714Y-21.1637Z-0.0232
G1X4.0886Y-21.1542Z-0.0243
G1X4.1042Y-21.1467Z-0.0279
G1X4.1191Y-21.1409Z-0.0338
G1X4.1360Y-21.1354Z-0.0434
G1X4.1429Y-21.1334Z-0.0478
G1X4.1534Y-21.1498Z-0.0396
G1X4.1618Y-21.1649Z-0.0351
G1X4.1695Y-21.1793Z-0.0337
G1X4.1777Y-21.1937Z-0.0350
G1X4.1870Y-21.2078Z-0.0392
G1X4.1977Y-21.2205Z-0.0450
G1X4.1921Y-21.2346Z-0.0322
G1X4.1977Y-21.2205Z-0.0450
G1X4.2144Y-21.2193Z-0.0391
G1X4.2326Y-21.2154Z-0.0337
G1X4.2526Y-21.2087Z-0.0301
G1X4.2765Y-21.1985Z-0.0284
G1X4.3437Y-21.1662Z-0.0287
G1X4.4030Y-21.1403Z-0.0290
G1X4.4611Y-21.1182Z-0.0291
G1X4.5148Y-21.1007Z-0.0291
G1X4.5578Y-21.0890Z-0.0291
G1X4.6045Y-21.0787Z-0.0290
G1X4.6553Y-21.0704Z-0.0290
G1X4.7014Y-21.0658Z-0.0288
G1X4.7430Y-21.0640Z-0.0287
G1X4.7874Y-21.0646Z-0.0286
G1X4.8348Y-21.0682Z-0.0284
G1X4.8776Y-21.0741Z-0.0282
G1X4.9251Y-21.0837Z-0.0280
G1X4.9632Y-21.0940Z-0.0280
G1X4.9921Y-21.1042Z-0.0291
G1X5.0150Y-21.1140Z-0.0320
G1X5.0360Y-21.1241Z-0.0376
G1X5.0582Y-21.1359Z-0.0466
G1X5.0822Y-21.1502Z-0.0598
G1X5.0777Y-21.1796Z-0.0444
G1X5.0742Y-21.2027Z-0.0352
G1X5.0727Y-21.2198Z-0.0310
G1X5.0730Y-21.2358Z-0.0297
G1X5.0758Y-21.2769Z-0.0294
G1X5.0814Y-21.3159Z-0.0295
G1X5.0898Y-21.3551Z-0.0298
G1X5.1011Y-21.3943Z-0.0299
G1X5.1153Y-21.4335Z-0.0298
G1X5.1323Y-21.4723Z-0.0293
G1X5.1538Y-21.5136Z-0.0282
G1X5.1779Y-21.5534Z-0.0265
G1X5.2047Y-21.5919Z-0.0245
G1X5.2339Y-21.6291Z-0.0221
G1X5.2667Y-21.6664Z-0.0194
G1X5.3013Y-21.7017Z-0.0170
G1X5.3370Y-21.7346Z-0.0151
G1X5.3760Y-21.7670Z-0.0139
G1X5.4154Y-21.7965Z-0.0138
G1X5.4551Y-21.8230Z-0.0153
G1X5.4923Y-21.8452Z-0.0184
G1X5.5286Y-21.8641Z-0.0232
G1X5.5468Y-21.8718Z-0.0271
G1X5.5635Y-21.8766Z-0.0324
G1X5.5764Y-21.8780Z-0.0369
G1X5.5793Y-21.8864Z-0.0290
G1X5.5764Y-21.8780Z-0.0369
G1X5.5862Y-21.8682Z-0.0324
G1X5.5955Y-21.8549Z-0.0280
G1X5.6034Y-21.8391Z-0.0253
G1X5.6118Y-21.8166Z-0.0244
G1X5.6699Y-21.6446Z-0.0238
G1X5.6940Y-21.5664Z-0.0235
G1X5.7108Y-21.5030Z-0.0236
G1X5.7235Y-21.4440Z-0.0240
G1X5.7322Y-21.3896Z-0.0248
G1X5.7373Y-21.3397Z-0.0260
G1X5.7394Y-21.2944Z-0.0274
G1X5.7387Y-21.2487Z-0.0292
G1X5.7351Y-21.2017Z-0.0315
G1X5.7281Y-21.1523Z-0.0340
G1X5.7257Y-21.1362Z-0.0353
G1X5.7253Y-21.1232Z-0.0390
G1X5.7265Y-21.1085Z-0.0462
G1X5.7291Y-21.0923Z-0.0569
G1X5.7377Y-21.0882Z-0.0563
G1X5.7556Y-21.1021Z-0.0377
G1X5.7670Y-21.1132Z-0.0270
G1X5.7740Y-21.1223Z-0.0217
G1X5.7784Y-21.1311Z-0.0196
G1X5.7881Y-21.1516Z-0.0182
G1X5.8046Y-21.1806Z-0.0185
G1X5.8372Y-21.2344Z-0.0226
G1X5.8506Y-21.2598Z-0.0237
G1X5.8677Y-21.2944Z-0.0217
G1X5.8862Y-21.3253Z-0.0203
G1X5.9067Y-21.3538Z-0.0194
G1X5.9296Y-21.3814Z-0.0189
G1X5.9571Y-21.4100Z-0.0189
G1X5.9869Y-21.4369Z-0.0192
G1X6.0212Y-21.4639Z-0.0198
G1X6.0587Y-21.4896Z-0.0207
G1X6.0946Y-21.5112Z-0.0216
G1X6.1384Y-21.5340Z-0.0228
G1X6.1838Y-21.5542Z-0.0240
G1X6.2311Y-21.5719Z-0.0251
G1X6.2776Y-21.5862Z-0.0260
G1X6.3252Y-21.5977Z-0.0268
G1X6.3727Y-21.6063Z-0.0275
G1X6.4195Y-21.6117Z-0.0280
G1X6.4654Y-21.6140Z-0.0284
G1X6.5096Y-21.6132Z-0.0288
G1X6.5487Y-21.6096Z-0.0292
G1X6.5870Y-21.6032Z-0.0298
G1X6.6207Y-21.5948Z-0.0308
G1X6.6636Y-21.5805Z-0.0320
G1X6.7032Y-21.5670Z-0.0309
G1X6.7286Y-21.5604Z-0.0297
G1X6.7513Y-21.5572Z-0.0286
G1X6.7716Y-21.5571Z-0.0276
G1X6.7886Y-21.5595Z-0.0269
G1X6.8048Y-21.5642Z-0.0264
G1X6.8212Y-21.5718Z-0.0260
G1X6.8394Y-21.5826Z-0.0268
G1X6.8535Y-21.5907Z-0.0300
G1X6.8681Y-21.5975Z-0.0359
G1X6.8733Y-21.5995Z-0.0386
G1X6.8776Y-21.6218Z-0.0285
G1X6.8796Y-21.6368Z-0.0198
G1X6.8804Y-21.6430Z-0.0145
G1X6.8790Y-21.6324Z-0.0227
G1X6.8769Y-21.6167Z-0.0309
G1X6.8733Y-21.5995Z-0.0386
G1X6.8826Y-21.5886Z-0.0312
G1X6.8892Y-21.5782Z-0.0263
G1X6.8941Y-21.5665Z-0.0231
G1X6.8974Y-21.5523Z-0.0218
G1X6.9070Y-21.4823Z-0.0217
G1X6.9157Y-21.4042Z-0.0217
G1X6.9210Y-21.3329Z-0.0221
G1X6.9234Y-21.2619Z-0.0227
G1X6.9230Y-21.1976Z-0.0234
G1X6.9200Y-21.1335Z-0.0240
G1X6.9140Y-21.0697Z-0.0243
G1X6.9061Y-21.0126Z-0.0243
G1X6.8957Y-20.9557Z-0.0240
G1X6.8827Y-20.8993Z-0.0231
G1X6.8669Y-20.8434Z-0.0216
G1X6.8464Y-20.7819Z-0.0195
G1X6.8350Y-20.7445Z-0.0205
G1X6.8145Y-20.6750Z-0.0255
G1X6.8043Y-20.6472Z-0.0266
G1X6.7948Y-20.6262Z-0.0263
G1X6.7829Y-20.6055Z-0.0246
G1X6.7650Y-20.5807Z-0.0205
G1X6.7562Y-20.5667Z-0.0202
G1X6.7499Y-20.5537Z-0.0220
G1X6.7451Y-20.5402Z-0.0259
G1X6.7413Y-20.5240Z-0.0328
G1X6.7394Y-20.5113Z-0.0395
G1X6.7568Y-20.5025Z-0.0302
G1X6.7741Y-20.4954Z-0.0242
G1X6.7912Y-20.4902Z-0.0209
G1X6.8111Y-20.4859Z-0.0196
G1X6.8466Y-20.4778Z-0.0193
G1X6.8804Y-20.4673Z-0.0195
G1X6.9126Y-20.4545Z-0.0199
G1X6.9444Y-20.4387Z-0.0205
G1X6.9752Y-20.4201Z-0.0212
G1X7.0052Y-20.3985Z-0.0219
G1X7.0335Y-20.3745Z-0.0225
G1X7.0599Y-20.3484Z-0.0229
G1X7.0866Y-20.3179Z-0.0231
G1X7.1095Y-20.2880Z-0.0229
G1X7.1369Y-20.2480Z-0.0217
G1X7.1635Y-20.2064Z-0.0184
G1X7.1816Y-20.1734Z-0.0162
G1X7.1938Y-20.1474Z-0.0159
G1X7.2029Y-20.1287Z-0.0187
G1X7.2132Y-20.1069Z-0.0249
G1X7.2225Y-20.0835Z-0.0339
G1X7.2246Y-20.0772Z-0.0366
G1X7.2612Y-20.0908Z0.0000
G1X7.2246Y-20.0772Z-0.0366
G1X7.2231Y-20.0604Z-0.0381
G1X7.2612Y-20.0344Z0.0000
G1X7.2231Y-20.0604Z-0.0381
G1X7.2060Y-20.0413Z-0.0282
G1X7.1870Y-20.0220Z-0.0208
G1X7.1662Y-20.0023Z-0.0159
G1X7.1441Y-19.9821Z-0.0135
G1X7.1174Y-19.9583Z-0.0135
G1X7.0839Y-19.9289Z-0.0167
G1X7.0545Y-19.9050Z-0.0204
G1X7.0247Y-19.8842Z-0.0232
G1X6.9919Y-19.8647Z-0.0253
G1X6.9606Y-19.8492Z-0.0261
G1X6.9276Y-19.8357Z-0.0261
G1X6.8937Y-19.8248Z-0.0252
G1X6.8587Y-19.8165Z-0.0239
G1X6.8246Y-19.8113Z-0.0226
G1X6.7934Y-19.8094Z-0.0219
G1X6.7666Y-19.8104Z-0.0225
G1X6.7423Y-19.8141Z-0.0244
G1X6.7220Y-19.8197Z-0.0269
G1X6.7061Y-19.8259Z-0.0308
G1X6.6915Y-19.8333Z-0.0371
G1X6.6766Y-19.8425Z-0.0468
G1X6.6746Y-19.8438Z-0.0483
G1X6.6591Y-19.8348Z-0.0424
G1X6.6462Y-19.8245Z-0.0374
G1X6.6364Y-19.8134Z-0.0330
G1X6.6270Y-19.7981Z-0.0282
G1X6.6181Y-19.7805Z-0.0255
G1X6.6094Y-19.7614Z-0.0255
G1X6.6016Y-19.7447Z-0.0281
G1X6.5933Y-19.7286Z-0.0335
G1X6.5835Y-19.7118Z-0.0425
G1X6.5799Y-19.7060Z-0.0465
G1X6.5919Y-19.6849Z-0.0379
G1X6.6033Y-19.6687Z-0.0326
G1X6.6172Y-19.6522Z-0.0287
G1X6.6327Y-19.6373Z-0.0269
G1X6.6518Y-19.6221Z-0.0268
G1X6.6821Y-19.6007Z-0.0296
G1X6.6995Y-19.5857Z-0.0311
G1X6.7127Y-19.5711Z-0.0320
G1X6.7236Y-19.5550Z-0.0323
G1X6.7316Y-19.5379Z-0.0321
G1X6.7369Y-19.5191Z-0.0315
G1X6.7395Y-19.4989Z-0.0308
G1X6.7392Y-19.4759Z-0.0303
G1X6.7358Y-19.4495Z-0.0303
G1X6.7259Y-19.4075Z-0.0312
G1X6.7103Y-19.3468Z-0.0298
G1X6.6993Y-19.2978Z-0.0278
G1X6.6921Y-19.2549Z-0.0268
G1X6.6887Y-19.2201Z-0.0273
G1X6.6880Y-19.1938Z-0.0288
G1X6.6893Y-19.1637Z-0.0321
G1X6.6932Y-19.1341Z-0.0372
G1X6.6995Y-19.1053Z-0.0439
G1X6.7135Y-19.0993Z-0.0350
G1X6.7233Y-19.0935Z-0.0302
G1X6.7315Y-19.0868Z-0.0277
G1X6.7524Y-19.0662Z-0.0260
G1X6.7919Y-19.0285Z-0.0270
G1X6.8238Y-18.9941Z-0.0281
G1X6.8542Y-18.9570Z-0.0289
G1X6.8824Y-18.9179Z-0.0292
G1X6.9082Y-18.8770Z-0.0291
G1X6.9315Y-18.8345Z-0.0286
G1X6.9532Y-18.7887Z-0.0275
G1X6.9730Y-18.7398Z-0.0260
G1X6.9893Y-18.6918Z-0.0243
G1X7.0035Y-18.6416Z-0.0225
G1X7.0155Y-18.5890Z-0.0207
G1X7.0247Y-18.5366Z-0.0194
G1X7.0316Y-18.4834Z-0.0188
G1X7.0361Y-18.4268Z-0.0191
G1X7.0378Y-18.3763Z-0.0206
G1X7.0372Y-18.3234Z-0.0236
G1X7.0355Y-18.2957Z-0.0263
G1X7.0321Y-18.2764Z-0.0295
G1X7.0271Y-18.2626Z-0.0319
G1X7.0226Y-18.2562Z-0.0322
G1X7.0145Y-18.2502Z-0.0302
G1X6.9970Y-18.2423Z-0.0258
G1X6.9781Y-18.2362Z-0.0232
G1X6.9547Y-18.2311Z-0.0222
G1X6.8326Y-18.2115Z-0.0227
G1X6.7540Y-18.2015Z-0.0228
G1X6.6904Y-18.1958Z-0.0228
G1X6.6343Y-18.1932Z-0.0228
G1X6.5779Y-18.1934Z-0.0229
G1X6.5252Y-18.1966Z-0.0230
G1X6.4762Y-18.2024Z-0.0231
G1X6.4278Y-18.2113Z-0.0232
G1X6.3789Y-18.2228Z-0.0224
G1X6.3343Y-18.2357Z-0.0209
G1X6.2900Y-18.2512Z-0.0186
G1X6.2480Y-18.2688Z-0.0162
G1X6.2122Y-18.2867Z-0.0143
G1X6.1829Y-18.3043Z-0.0136
G1X6.1612Y-18.3193Z-0.0146
G1X6.1432Y-18.3329Z-0.0182
G1X6.1276Y-18.3454Z-0.0242
G1X6.1123Y-18.3583Z-0.0334
G1X6.0944Y-18.3741Z-0.0479
G1X6.0748Y-18.3640Z-0.0402
G1X6.0590Y-18.3536Z-0.0351
G1X6.0423Y-18.3397Z-0.0310
G1X6.0214Y-18.3217Z-0.0287
G1X6.0007Y-18.3075Z-0.0271
G1X5.9783Y-18.2955Z-0.0261
G1X5.9530Y-18.2854Z-0.0256
G1X5.9249Y-18.2773Z-0.0256
G1X5.8930Y-18.2713Z-0.0261
G1X5.8593Y-18.2676Z-0.0272
G1X5.8179Y-18.2657Z-0.0290
G1X5.8102Y-18.2660Z-0.0298
G1X5.8026Y-18.2673Z-0.0316
G1X5.7917Y-18.2708Z-0.0359
G1X5.7806Y-18.2761Z-0.0422
G1X5.7743Y-18.2797Z-0.0467
G1X5.7470Y-18.2659Z-0.0387
G1X5.7229Y-18.2509Z-0.0325
G1X5.7014Y-18.2344Z-0.0279
G1X5.6816Y-18.2161Z-0.0247
G1X5.6634Y-18.1964Z-0.0229
G1X5.6434Y-18.1707Z-0.0224
G1X5.5774Y-18.0740Z-0.0239
G1X5.5397Y-18.0219Z-0.0240
G1X5.5094Y-17.9842Z-0.0241
G1X5.4802Y-17.9520Z-0.0243
G1X5.4485Y-17.9214Z-0.0246
G1X5.4214Y-17.8975Z-0.0238
G1X5.4019Y-17.8837Z-0.0233
G1X5.3844Y-17.8748Z-0.0233
G1X5.3675Y-17.8695Z-0.0237
G1X5.3514Y-17.8674Z-0.0242
G1X5.3349Y-17.8683Z-0.0248
G1X5.3172Y-17.8724Z-0.0256
G1X5.2981Y-17.8801Z-0.0266
G1X5.2720Y-17.8940Z-0.0269
G1X5.2217Y-17.9211Z-0.0257
G1X5.1624Y-17.9496Z-0.0248
G1X5.1030Y-17.9750Z-0.0242
G1X5.0353Y-18.0007Z-0.0239
G1X4.9667Y-18.0240Z-0.0238
G1X4.8832Y-18.0492Z-0.0235
G1X4.7781Y-18.0777Z-0.0226
G1X4.6337Y-18.1142Z-0.0195
G1X4.5828Y-18.1287Z-0.0191
G1X4.5387Y-18.1436Z-0.0204
G1X4.5013Y-18.1586Z-0.0230
G1X4.4672Y-18.1747Z-0.0270
G1X4.4360Y-18.1920Z-0.0324
G1X4.4043Y-18.2125Z-0.0398
G1X4.3747Y-18.2344Z-0.0489
G1X4.3728Y-18.2358Z-0.0496
G1X4.3559Y-18.2314Z-0.0393
G1X4.3390Y-18.2297Z-0.0316
G1X4.3188Y-18.2295Z-0.0244
G1X4.3002Y-18.2313Z-0.0199
G1X4.2808Y-18.2352Z-0.0173
G1X4.2607Y-18.2412Z-0.0170
G1X4.2349Y-18.2511Z-0.0193
G1X4.1994Y-18.2649Z-0.0240
G1X4.1677Y-18.2745Z-0.0271
G1X4.1365Y-18.2813Z-0.0290
G1X4.1050Y-18.2854Z-0.0298
G1X4.0757Y-18.2867Z-0.0295
G1X4.0451Y-18.2854Z-0.0284
G1X4.0127Y-18.2811Z-0.0264
G1X3.9816Y-18.2743Z-0.0239
G1X3.9485Y-18.2640Z-0.0208
G1X3.9136Y-18.2500Z-0.0175
G1X3.8816Y-18.2362Z-0.0166
G1X3.8528Y-18.2243Z-0.0184
G1X3.8227Y-18.2125Z-0.0233
G1X3.8122Y-18.2091Z-0.0251
G1X3.7974Y-18.2076Z-0.0253
G1X3.7670Y-18.2082Z-0.0245
G1X3.7458Y-18.2102Z-0.0258
G1X3.7281Y-18.2131Z-0.0294
G1X3.7139Y-18.2180Z-0.0338
G1X3.7042Y-18.2238Z-0.0372
G1X3.7025Y-18.2258Z-0.0374
G1X3.6993Y-18.2369Z-0.0350
G1X3.6985Y-18.2517Z-0.0320
G1X3.7003Y-18.2673Z-0.0300
G1X3.7052Y-18.2879Z-0.0298
G1X3.7130Y-18.3240Z-0.0308
G1X3.7177Y-18.3586Z-0.0313
G1X3.7194Y-18.3919Z-0.0315
G1X3.7185Y-18.4242Z-0.0313
G1X3.7149Y-18.4563Z-0.0309
G1X3.7081Y-18.4906Z-0.0304
G1X3.6982Y-18.5249Z-0.0299
G1X3.6854Y-18.5586Z-0.0297
G1X3.6690Y-18.5934Z-0.0299
G1X3.6454Y-18.6353Z-0.0308
G1X3.6051Y-18.7006Z-0.0309
G1X3.5169Y-18.8379Z-0.0288
G1X3.4835Y-18.8934Z-0.0290
G1X3.4632Y-18.9320Z-0.0293
G1X3.4468Y-18.9696Z-0.0295
G1X3.4346Y-19.0043Z-0.0296
G1X3.4254Y-19.0382Z-0.0299
G1X3.4191Y-19.0718Z-0.0303
G1X3.4154Y-19.1076Z-0.0309
G1X3.4147Y-19.1419Z-0.0315
G1X3.4162Y-19.1731Z-0.0318
G1X3.4180Y-19.2079Z-0.0296
G1X3.4222Y-19.2409Z-0.0275
G1X3.4274Y-19.2737Z-0.0240
G1X3.4328Y-19.2939Z-0.0229
G1X3.4394Y-19.3096Z-0.0237
G1X3.4469Y-19.3228Z-0.0264
G1X3.4569Y-19.3369Z-0.0322
G1X3.4702Y-19.3526Z-0.0424
G1X3.4763Y-19.3592Z-0.0476
G1X3.4688Y-19.3854Z-0.0392
G1X3.4600Y-19.4082Z-0.0334
G1X3.4499Y-19.4290Z-0.0295
G1X3.4382Y-19.4483Z-0.0273
G1X3.4222Y-19.4704Z-0.0265
G1X3.3952Y-19.5015Z-0.0276
G1X3.3837Y-19.5171Z-0.0279
G1X3.3764Y-19.5314Z-0.0285
G1X3.3721Y-19.5458Z-0.0291
G1X3.3709Y-19.5602Z-0.0293
G1X3.3727Y-19.5744Z-0.0290
G1X3.3778Y-19.5892Z-0.0285
G1X3.3854Y-19.6033Z-0.0280
G1X3.3966Y-19.6185Z-0.0276
G1X3.4239Y-19.6496Z-0.0270
G1X3.4548Y-19.6896Z-0.0270
G1X3.4842Y-19.7294Z-0.0259
G1X3.5047Y-19.7579Z-0.0242
G1X3.5177Y-19.7790Z-0.0243
G1X3.5285Y-19.8002Z-0.0259
G1X3.5371Y-19.8218Z-0.0293
G1X3.5433Y-19.8435Z-0.0343
G1X3.5473Y-19.8643Z-0.0407
G1X3.5492Y-19.8801Z-0.0465
G1X3.5320Y-19.8933Z-0.0352
G1X3.5162Y-19.9065Z-0.0275
G1X3.5030Y-19.9188Z-0.0236
G1X3.4858Y-19.9358Z-0.0216
G1X3.4618Y-19.9594Z-0.0226
G1X3.4334Y-19.9902Z-0.0250
G1X3.4073Y-20.0227Z-0.0268
G1X3.3826Y-20.0578Z-0.0278
G1X3.3608Y-20.0937Z-0.0278
G1X3.3424Y-20.1293Z-0.0271
G1X3.3287Y-20.1616Z-0.0263
G1X3.3198Y-20.1886Z-0.0262
G1X3.3153Y-20.2090Z-0.0277
G1X3.3140Y-20.2249Z-0.0305
G1X3.3154Y-20.2429Z-0.0350
G1X3.3186Y-20.2556Z-0.0381
G1X3.3216Y-20.2609Z-0.0385
G1X3.3297Y-20.2679Z-0.0365
G1X3.3424Y-20.2751Z-0.0333
G1X3.3559Y-20.2795Z-0.0312
G1X3.3828Y-20.2842Z-0.0283
G1X3.3949Y-20.2870Z-0.0267
G1X3.4036Y-20.2912Z-0.0269
G1X3.4112Y-20.2970Z-0.0286
G1X3.4191Y-20.3061Z-0.0325
G1X3.4251Y-20.3169Z-0.0381
G1X3.4273Y-20.3223Z-0.0411
G1X3.4142Y-20.3301Z-0.0321
G1X3.4045Y-20.3347Z-0.0279
G1X3.3870Y-20.3424Z-0.0241
G1X3.3690Y-20.3529Z-0.0220
G1X3.3470Y-20.3688Z-0.0212
G1X3.3189Y-20.3928Z-0.0219
G1X3.2798Y-20.4306Z-0.0236
G1X3.2471Y-20.4662Z-0.0248
G1X3.2186Y-20.5013Z-0.0258
G1X3.1929Y-20.5373Z-0.0267
G1X3.1702Y-20.5741Z-0.0275
G1X3.1503Y-20.6117Z-0.0282
G1X3.1332Y-20.6501Z-0.0286
G1X3.1189Y-20.6891Z-0.0289
G1X3.1073Y-20.7288Z-0.0290
G1X3.0977Y-20.7721Z-0.0289
G1X3.0911Y-20.8155Z-0.0285
G1X3.0870Y-20.8627Z-0.0280
G1X3.0859Y-20.9103Z-0.0272
G1X3.0876Y-20.9585Z-0.0263
G1X3.0919Y-21.0071Z-0.0252
G1X3.0996Y-21.0623Z-0.0237
G1X3.1057Y-21.0995Z-0.0233
G1X3.1088Y-21.1277Z-0.0252
G1X3.1101Y-21.1572Z-0.0294
G1X3.1101Y-21.1874Z-0.0364
G1X3.1099Y-21.2152Z-0.0459
G1X3.1106Y-21.2418Z-0.0583
G1X3.1108Y-21.2450Z-0.0599
G1X3.1100Y-21.2184Z-0.0473
G1X3.1101Y-21.1919Z-0.0377
G1X3.1102Y-21.1620Z-0.0303
G1X3.1092Y-21.1334Z-0.0258
G1X3.1066Y-21.1056Z-0.0235
G1X3.1017Y-21.0745Z-0.0234
G1X3.0930Y-21.0169Z-0.0250
G1X3.0879Y-20.9644Z-0.0262
G1X3.0859Y-20.9149Z-0.0272
G1X3.0868Y-20.8660Z-0.0280
G1X3.0907Y-20.8184Z-0.0285
G1X3.0973Y-20.7745Z-0.0289
G1X3.1059Y-20.7342Z-0.0290
G1X3.1180Y-20.6917Z-0.0289
G1X3.1311Y-20.6554Z-0.0287
G1X3.1478Y-20.6169Z-0.0282
G1X3.1673Y-20.5792Z-0.0276
G1X3.1896Y-20.5423Z-0.0269
G1X3.2149Y-20.5062Z-0.0259
G1X3.2430Y-20.4710Z-0.0249
G1X3.2741Y-20.4365Z-0.0238
G1X3.3120Y-20.3991Z-0.0222
G1X3.3431Y-20.3720Z-0.0213
G1X3.3653Y-20.3553Z-0.0217
G1X3.3845Y-20.3437Z-0.0237
G1X3.4022Y-20.3356Z-0.0273
G1X3.4127Y-20.3309Z-0.0313
G1X3.4255Y-20.3235Z-0.0397
G1X3.4273Y-20.3223Z-0.0411
G1X3.4445Y-20.3313Z-0.0371
G1X3.4610Y-20.3433Z-0.0340
G1X3.4782Y-20.3596Z-0.0315
G1X3.4967Y-20.3814Z-0.0296
G1X3.5204Y-20.4144Z-0.0279
G1X3.5635Y-20.4807Z-0.0264
G1X3.5868Y-20.5131Z-0.0257
G1X3.6033Y-20.5362Z-0.0262
G1X3.6136Y-20.5535Z-0.0287
G1X3.6205Y-20.5689Z-0.0330
G1X3.6253Y-20.5846Z-0.0394
G1X3.6263Y-20.5890Z-0.0416
G1X3.6096Y-20.5974Z-0.0302
G1X3.5949Y-20.6027Z-0.0231
G1X3.5800Y-20.6062Z-0.0189
G1X3.5615Y-20.6085Z-0.0168
G1X3.5345Y-20.6095Z-0.0166
G1X3.4981Y-20.6104Z-0.0175
G1X3.4645Y-20.6136Z-0.0165
G1X3.4269Y-20.6195Z-0.0131
G1X3.3824Y-20.6290Z-0.0066
G1X3.3463Y-20.6379Z0.0000
G1X3.3995Y-20.6251Z-0.0094
G1X3.4396Y-20.6173Z-0.0145
G1X3.4752Y-20.6123Z-0.0170
G1X3.5083Y-20.6099Z-0.0175
G1X3.5537Y-20.6090Z-0.0165
G1X3.5747Y-20.6070Z-0.0180
G1X3.5901Y-20.6040Z-0.0214
G1X3.6045Y-20.5995Z-0.0274
G1X3.6203Y-20.5922Z-0.0372
G1X3.6263Y-20.5890Z-0.0416
G1X3.6510Y-20.6049Z-0.0338
G1X3.6732Y-20.6209Z-0.0290
G1X3.6934Y-20.6374Z-0.0271
G1X3.7125Y-20.6550Z-0.0278
G1X3.7310Y-20.6742Z-0.0314
G1X3.7459Y-20.6916Z-0.0367
G1X3.7588Y-20.7094Z-0.0443
G1X3.7646Y-20.7184Z-0.0490
G1X3.7548Y-20.7363Z-0.0398
G1X3.7453Y-20.7526Z-0.0342
G1X3.7340Y-20.7700Z-0.0312
G1X3.7200Y-20.7894Z-0.0307
G1X3.6914Y-20.8270Z-0.0323
G1X3.6588Y-20.8734Z-0.0302
G1X3.6334Y-20.9059Z-0.0272
G1X3.6083Y-20.9347Z-0.0227
G1X3.5815Y-20.9624Z-0.0163
G1X3.5522Y-20.9895Z-0.0075
G1X3.5307Y-21.0079Z0.0000
G1X3.5633Y-20.9796Z-0.0110
G1X3.5927Y-20.9512Z-0.0192
G1X3.6194Y-20.9223Z-0.0249
G1X3.6450Y-20.8915Z-0.0287
G1X3.6742Y-20.8520Z-0.0313
G1X3.6972Y-20.8190Z-0.0323
G1X3.7272Y-20.7796Z-0.0307
G1X3.7398Y-20.7612Z-0.0324
G1X3.7498Y-20.7450Z-0.0365
G1X3.7596Y-20.7277Z-0.0438
G1X3.7646Y-20.7184Z-0.0490
G1X3.7870Y-20.7197Z-0.0387
G1X3.8050Y-20.7226Z-0.0326
G1X3.8209Y-20.7269Z-0.0294
G1X3.8364Y-20.7332Z-0.0285
G1X3.8530Y-20.7422Z-0.0302
G1X3.8721Y-20.7546Z-0.0349
G1X3.8907Y-20.7681Z-0.0417
G1X3.8892Y-20.7828Z-0.0324
G1X3.8898Y-20.7939Z-0.0270
G1X3.8918Y-20.8033Z-0.0240
G1X3.9070Y-20.8426Z-0.0196
G1X3.9236Y-20.8895Z-0.0169
G1X3.9394Y-20.9416Z-0.0158
G1X3.9518Y-20.9919Z-0.0149
G1X3.9597Y-21.0347Z-0.0131
G1X3.9650Y-21.0753Z-0.0097
G1X3.9678Y-21.1118Z-0.0047
G1X3.9686Y-21.1371Z0.0000
G1X3.9670Y-21.0986Z-0.0068
G1X3.9635Y-21.0616Z-0.0111
G1X3.9572Y-21.0194Z-0.0139
G1X3.9479Y-20.9748Z-0.0152
G1X3.9338Y-20.9220Z-0.0161
G1X3.9170Y-20.8701Z-0.0177
G1X3.8997Y-20.8238Z-0.0213
G1X3.8917Y-20.8031Z-0.0241
G1X3.8897Y-20.7938Z-0.0271
G1X3.8893Y-20.7826Z-0.0325
G1X3.8907Y-20.7681Z-0.0417
G1X3.9022Y-20.7669Z-0.0371
G1X3.9156Y-20.7676Z-0.0339
G1X3.9471Y-20.7731Z-0.0315
G1X3.9662Y-20.7768Z-0.0317
G1X3.9779Y-20.7773Z-0.0342
G1X3.9901Y-20.7761Z-0.0392
G1X4.0001Y-20.7740Z-0.0446
G1X4.0221Y-20.7926Z-0.0377
G1X4.0411Y-20.8119Z-0.0327
G1X4.0580Y-20.8325Z-0.0295
G1X4.0736Y-20.8559Z-0.0278
G1X4.0878Y-20.8815Z-0.0275
G1X4.1018Y-20.9127Z-0.0285
G1X4.1170Y-20.9544Z-0.0306
G1X4.1334Y-21.0076Z-0.0323
G1X4.1434Y-21.0437Z-0.0320
G1X4.1472Y-21.0665Z-0.0331
G1X4.1484Y-21.0884Z-0.0360
G1X4.1472Y-21.1095Z-0.0405
G1X4.1432Y-21.1318Z-0.0473
G1X4.1429Y-21.1334Z-0.0478
G1X4.1235Y-21.1393Z-0.0361
G1X4.1072Y-21.1455Z-0.0289
G1X4.0918Y-21.1525Z-0.0248
G1X4.0744Y-21.1620Z-0.0232
G1X4.0495Y-21.1772Z-0.0243
G1X4.0173Y-21.1979Z-0.0261
G1X3.9759Y-21.2237Z-0.0264
G1X3.9367Y-21.2452Z-0.0262
G1X3.8957Y-21.2649Z-0.0258
G1X3.8519Y-21.2828Z-0.0250
G1X3.8062Y-21.2984Z-0.0240
G1X3.7586Y-21.3114Z-0.0228
G1X3.7103Y-21.3214Z-0.0216
G1X3.6617Y-21.3284Z-0.0206
G1X3.6129Y-21.3327Z-0.0200
G1X3.5637Y-21.3342Z-0.0197
G1X3.5104Y-21.3331Z-0.0200
G1X3.4575Y-21.3292Z-0.0210
G1X3.4002Y-21.3223Z-0.0230
G1X3.3401Y-21.3122Z-0.0263
G1X3.2742Y-21.2983Z-0.0314
G1X3.1973Y-21.2800Z-0.0383
G1X3.1669Y-21.2710Z-0.0426
G1X3.1431Y-21.2619Z-0.0480
G1X3.1215Y-21.2512Z-0.0553
G1X3.1108Y-21.2450Z-0.0599
G0Z0.1181
G0X5.3167Y-21.0442
G1Z-0.0603F20.0
G1X5.2972Y-21.0468Z-0.0495F60.0
G1X5.2807Y-21.0513Z-0.0417
G1X5.2633Y-21.0582Z-0.0357
G1X5.2437Y-21.0679Z-0.0315
G1X5.2192Y-21.0816Z-0.0296
G1X5.1923Y-21.0966Z-0.0305
G1X5.1634Y-21.1120Z-0.0344
G1X5.1331Y-21.1271Z-0.0415
G1X5.1017Y-21.1415Z-0.0518
G1X5.0822Y-21.1502Z-0.0598
G1X5.0582Y-21.1359Z-0.0466
G1X5.0360Y-21.1241Z-0.0376
G1X5.0145Y-21.1138Z-0.0319
G1X4.9909Y-21.1037Z-0.0290
G1X4.9615Y-21.0934Z-0.0280
G1X4.9208Y-21.0827Z-0.0280
G1X4.8773Y-21.0740Z-0.0282
G1X4.8321Y-21.0679Z-0.0284
G1X4.7874Y-21.0646Z-0.0286
G1X4.7421Y-21.0640Z-0.0287
G1X4.6990Y-21.0660Z-0.0289
G1X4.6521Y-21.0709Z-0.0290
G1X4.6010Y-21.0793Z-0.0291
G1X4.5566Y-21.0893Z-0.0291
G1X4.5040Y-21.1040Z-0.0291
G1X4.4483Y-21.1228Z-0.0291
G1X4.3970Y-21.1428Z-0.0290
G1X4.3428Y-21.1666Z-0.0287
G1X4.2759Y-21.1988Z-0.0284
G1X4.2526Y-21.2087Z-0.0301
G1X4.2326Y-21.2154Z-0.0337
G1X4.2144Y-21.2193Z-0.0391
G1X4.1977Y-21.2205Z-0.0450
G1X4.1870Y-21.2078Z-0.0392
G1X4.1777Y-21.1937Z-0.0350
G1X4.1694Y-21.1791Z-0.0337
G1X4.1614Y-21.1640Z-0.0353
G1X4.1532Y-21.1494Z-0.0398
G1X4.1429Y-21.1334Z-0.0478
G1X4.1469Y-21.1119Z-0.0412
G1X4.1484Y-21.0908Z-0.0364
G1X4.1475Y-21.0689Z-0.0334
G1X4.1439Y-21.0462Z-0.0320
G1X4.1366Y-21.0186Z-0.0322
G1X4.1220Y-20.9698Z-0.0313
G1X4.1078Y-20.9280Z-0.0292
G1X4.0938Y-20.8941Z-0.0278
G1X4.0795Y-20.8659Z-0.0275
G1X4.0642Y-20.8413Z-0.0287
G1X4.0475Y-20.8192Z-0.0314
G1X4.0291Y-20.7993Z-0.0357
G1X4.0083Y-20.7806Z-0.0419
G1X4.0001Y-20.7740Z-0.0446
G1X3.9993Y-20.7583Z-0.0358
G1X3.9967Y-20.7465Z-0.0306
G1X3.9925Y-20.7366Z-0.0277
G1X3.9868Y-20.7281Z-0.0268
G1X3.9396Y-20.6786Z-0.0300
G1X3.8839Y-20.6233Z-0.0313
G1X3.8320Y-20.5753Z-0.0316
G1X3.7768Y-20.5286Z-0.0325
G1X3.7444Y-20.4991Z-0.0322
G1X3.7178Y-20.4715Z-0.0317
G1X3.6942Y-20.4429Z-0.0313
G1X3.6755Y-20.4161Z-0.0309
G1X3.6593Y-20.3884Z-0.0308
G1X3.6454Y-20.3592Z-0.0309
G1X3.6343Y-20.3283Z-0.0313
G1X3.6266Y-20.2991Z-0.0321
G1X3.6211Y-20.2662Z-0.0332
G1X3.6186Y-20.2342Z-0.0346
G1X3.6189Y-20.1985Z-0.0364
G1X3.6223Y-20.1609Z-0.0386
G1X3.6277Y-20.1283Z-0.0406
G1X3.6306Y-20.1183Z-0.0423
G1X3.6347Y-20.1083Z-0.0455
G1X3.6429Y-20.0938Z-0.0527
G1X3.6441Y-20.0919Z-0.0539
G1X3.6536Y-20.0958Z-0.0470
G1X3.6638Y-20.1011Z-0.0400
G1X3.6748Y-20.1088Z-0.0333
G1X3.6823Y-20.1160Z-0.0297
G1X3.6890Y-20.1253Z-0.0276
G1X3.7113Y-20.1659Z-0.0271
G1X3.7334Y-20.2005Z-0.0267
G1X3.7570Y-20.2325Z-0.0264
G1X3.7837Y-20.2638Z-0.0260
G1X3.8127Y-20.2932Z-0.0257
G1X3.8427Y-20.3195Z-0.0255
G1X3.8751Y-20.3440Z-0.0253
G1X3.9099Y-20.3667Z-0.0252
G1X3.9471Y-20.3874Z-0.0254
G1X3.9890Y-20.4073Z-0.0260
G1X4.0320Y-20.4243Z-0.0270
G1X4.1001Y-20.4476Z-0.0280
G1X4.1868Y-20.4739Z-0.0277
G1X4.3849Y-20.5290Z-0.0257
G1X4.4677Y-20.5535Z-0.0266
G1X4.4926Y-20.5598Z-0.0288
G1X4.5094Y-20.5624Z-0.0314
G1X4.5201Y-20.5618Z-0.0322
G1X4.5302Y-20.5585Z-0.0320
G1X4.5399Y-20.5523Z-0.0313
G1X4.5492Y-20.5429Z-0.0310
G1X4.5722Y-20.5183Z-0.0304
G1X4.5962Y-20.4967Z-0.0296
G1X4.6210Y-20.4777Z-0.0286
G1X4.6501Y-20.4591Z-0.0276
G1X4.6809Y-20.4427Z-0.0266
G1X4.7147Y-20.4280Z-0.0259
G1X4.7537Y-20.4144Z-0.0255
G1X4.7959Y-20.4027Z-0.0258
G1X4.8488Y-20.3912Z-0.0271
G1X4.9135Y-20.3804Z-0.0301
G1X4.9258Y-20.3783Z-0.0312
G1X4.9348Y-20.3753Z-0.0334
G1X4.9454Y-20.3699Z-0.0379
G1X4.9538Y-20.3643Z-0.0429
G1X4.9605Y-20.3587Z-0.0480
G1X5.0080Y-20.3695Z-0.0342
G1X5.0313Y-20.3730Z-0.0293
G1X5.0537Y-20.3747Z-0.0266
G1X5.0753Y-20.3751Z-0.0270
G1X5.0943Y-20.3733Z-0.0287
G1X5.1047Y-20.3703Z-0.0289
G1X5.1143Y-20.3645Z-0.0272
G1X5.1331Y-20.3501Z-0.0238
G1X5.1537Y-20.3322Z-0.0224
G1X5.1911Y-20.3001Z-0.0221
G1X5.2305Y-20.2697Z-0.0227
G1X5.2727Y-20.2405Z-0.0246
G1X5.3163Y-20.2137Z-0.0277
G1X5.3621Y-20.1890Z-0.0322
G1X5.4073Y-20.1675Z-0.0378
G1X5.4543Y-20.1480Z-0.0448
G1X5.4968Y-20.1326Z-0.0521
G1X5.5114Y-20.1403Z-0.0424
G1X5.5219Y-20.1442Z-0.0372
G1X5.5321Y-20.1466Z-0.0336
G1X5.5433Y-20.1475Z-0.0316
G1X5.5959Y-20.1480Z-0.0280
G1X5.6513Y-20.1494Z-0.0270
G1X5.7114Y-20.1510Z-0.0289
G1X5.7535Y-20.1496Z-0.0300
G1X5.7930Y-20.1453Z-0.0305
G1X5.8278Y-20.1389Z-0.0305
G1X5.8605Y-20.1300Z-0.0303
G1X5.8922Y-20.1183Z-0.0298
G1X5.9221Y-20.1041Z-0.0292
G1X5.9490Y-20.0880Z-0.0286
G1X5.9757Y-20.0684Z-0.0280
G1X6.0008Y-20.0460Z-0.0276
G1X6.0242Y-20.0213Z-0.0273
G1X6.0474Y-19.9921Z-0.0272
G1X6.0704Y-19.9580Z-0.0271
G1X6.0938Y-19.9182Z-0.0276
G1X6.1064Y-19.8966Z-0.0296
G1X6.1104Y-19.8852Z-0.0329
G1X6.1123Y-19.8729Z-0.0383
G1X6.1248Y-19.8698Z-0.0298
G1X6.1335Y-19.8663Z-0.0249
G1X6.1383Y-19.8643Z-0.0232
G1X6.1429Y-19.8624Z-0.0227
G1X6.1510Y-19.8590Z-0.0243
G1X6.1571Y-19.8569Z-0.0270
G1X6.1637Y-19.8554Z-0.0305
G1X6.1768Y-19.8541Z-0.0386
G1X6.1805Y-19.8659Z-0.0337
G1X6.1828Y-19.8778Z-0.0316
G1X6.1868Y-19.8979Z-0.0311
G1X6.1924Y-19.9168Z-0.0329
G1X6.1998Y-19.9356Z-0.0370
G1X6.2092Y-19.9545Z-0.0436
G1X6.2200Y-19.9726Z-0.0526
G1X6.2262Y-19.9815Z-0.0581
G1X6.2133Y-20.0208Z-0.0449
G1X6.1999Y-20.0556Z-0.0353
G1X6.1869Y-20.0848Z-0.0292
G1X6.1730Y-20.1118Z-0.0254
G1X6.1576Y-20.1379Z-0.0235
G1X6.1369Y-20.1689Z-0.0236
G1X6.0820Y-20.2471Z-0.0274
G1X5.9839Y-20.3846Z-0.0359
G1X5.9374Y-20.4513Z-0.0377
G1X5.9034Y-20.5016Z-0.0369
G1X5.8759Y-20.5439Z-0.0342
G1X5.8471Y-20.5902Z-0.0288
G1X5.8359Y-20.6119Z-0.0271
G1X5.8269Y-20.6344Z-0.0267
G1X5.8186Y-20.6621Z-0.0277
G1X5.8130Y-20.6897Z-0.0300
G1X5.8089Y-20.7142Z-0.0317
G1X5.8040Y-20.7330Z-0.0311
G1X5.7973Y-20.7476Z-0.0302
G1X5.7883Y-20.7604Z-0.0293
G1X5.7759Y-20.7725Z-0.0283
G1X5.7600Y-20.7835Z-0.0275
G1X5.7400Y-20.7936Z-0.0270
G1X5.7116Y-20.8040Z-0.0269
G1X5.6481Y-20.8240Z-0.0277
G1X5.5967Y-20.8426Z-0.0279
G1X5.5478Y-20.8631Z-0.0284
G1X5.5053Y-20.8840Z-0.0294
G1X5.4657Y-20.9065Z-0.0311
G1X5.4289Y-20.9305Z-0.0337
G1X5.4080Y-20.9459Z-0.0357
G1X5.4028Y-20.9509Z-0.0371
G1X5.3981Y-20.9564Z-0.0391
G1X5.3938Y-20.9626Z-0.0419
G1X5.3899Y-20.9693Z-0.0453
G1X5.3833Y-20.9847Z-0.0542
G1X5.3660Y-20.9941Z-0.0518
G1X5.3507Y-21.0051Z-0.0514
G1X5.3374Y-21.0175Z-0.0529
G1X5.3250Y-21.0321Z-0.0564
G1X5.3167Y-21.0442Z-0.0603
G1X5.3256Y-21.0660Z-0.0478
G1X5.3333Y-21.0850Z-0.0400
G1X5.3400Y-21.1032Z-0.0356
G1X5.3454Y-21.1219Z-0.0341
G1X5.3485Y-21.1416Z-0.0345
G1X5.3494Y-21.1638Z-0.0372
G1X5.3482Y-21.1900Z-0.0427
G1X5.3475Y-21.1978Z-0.0449
G1X5.3308Y-21.2016Z-0.0310
G1X5.3181Y-21.2064Z-0.0217
G1X5.3125Y-21.2096Z-0.0182
G1X5.3081Y-21.2130Z-0.0159
G1X5.3046Y-21.2168Z-0.0145
G1X5.3006Y-21.2238Z-0.0141
G1X5.2820Y-21.2726Z-0.0174
G1X5.2667Y-21.3188Z-0.0184
G1X5.2550Y-21.3601Z-0.0174
G1X5.2451Y-21.4030Z-0.0142
G1X5.2379Y-21.4428Z-0.0093
G1X5.2325Y-21.4846Z-0.0022
G1X5.2314Y-21.4955Z0.0000
G1X5.2366Y-21.4515Z-0.0080
G1X5.2431Y-21.4127Z-0.0132
G1X5.2519Y-21.3725Z-0.0167
G1X5.2627Y-21.3321Z-0.0183
G1X5.2771Y-21.2866Z-0.0180
