(Header)
(Generated by gSender from Sienci Labs)
G54
G20 ;inches
G90
G0 X0 Y0 Z0.12
G1 F400
M3 S17000
(Header End)


(*** Layer 1 ***)
(Covering Surfacing Perimeter)
(Ramping into Material)
G91
G1 X0.96 Z-0.13
G1 X0.197
G1 X-1.157
G90
(End of Ramping into Material)

G1 Y32
G1 X48
G1 Y0
G1 X0
(End of Covering Surfacing Perimeter)

G1 Y0.7
G1 X48
G1 Y1.4
G1 X0

G1 Y2.1
G1 X48
G1 Y2.8
G1 X0

G1 Y3.5
G1 X48
G1 Y4.2
G1 X0

G1 Y4.9
G1 X48
G1 Y5.6
G1 X0

G1 Y6.3
G1 X48
G1 Y7
G1 X0

G1 Y7.7
G1 X48
G1 Y8.4
G1 X0

G1 Y9.1
G1 X48
G1 Y9.8
G1 X0

G1 Y10.5
G1 X48
G1 Y11.2
G1 X0

G1 Y11.9
G1 X48
G1 Y12.6
G1 X0

G1 Y13.3
G1 X48
G1 Y14
G1 X0

G1 Y14.7
G1 X48
G1 Y15.4
G1 X0

G1 Y16.1
G1 X48
G1 Y16.8
G1 X0

G1 Y17.5
G1 X48
G1 Y18.2
G1 X0

G1 Y18.9
G1 X48
G1 Y19.6
G1 X0

G1 Y20.3
G1 X48
G1 Y21
G1 X0

G1 Y21.7
G1 X48
G1 Y22.4
G1 X0

G1 Y23.1
G1 X48
G1 Y23.8
G1 X0

G1 Y24.5
G1 X48
G1 Y25.2
G1 X0

G1 Y25.9
G1 X48
G1 Y26.6
G1 X0

G1 Y27.3
G1 X48
G1 Y28
G1 X0

G1 Y28.7
G1 X48
G1 Y29.4
G1 X0

G1 Y30.1
G1 X48
G1 Y30.8
G1 X0

G1 Y31.5
G1 X48


(Returning to Zero)
G92 Z0
G0 Z0.12
G0 X0 Y0
(End of Returning to Zero)

(*** End of Layer 1 ***)


(Footer)
M5 ;Turn off spindle
(End of Footer)