%
(VECTRIC POST REVISION)
(C1123243DDFB7F5640F9758EC44667F9)
(================================================)
( File: Rose2_Sheet 2_1-Rose Male [Clear 1] )
( Date: Friday June 13 2025 Time: 10:39 AM )
(================================================)
( Material Size )
( X=7.000 Y=5.500 Z=0.250 )
(  )
(================================================)
( TOOL VERIFICATION - ENSURE CORRECT TOOL LOADED )
( Tool #2 - Compression End Mill  1/4"  UP/DOWN CUT )
( Spindle Speed:  S10000 RPM )
( FEED_RATE: F120.0 IPM )
( PLUNGE_RATE: 40 IPM )
( CUT_RATE: 120 IPM )
( Tools Used: 2 = Compression End Mill  1/4"  UP/DOWN CUT )
(================================================)
( Home X = X0.0000 )
( Home Y = Y0.0000 )
( Home Z = Z0.8000 )
( Safe Z = Z0.2000 )
(================================================)
( Minimum extent in X = 0.000 )
( Minimum extent in Y = 0.000 )
( Minimum extent in Z = -0.250 )
( Maximum extent in X = 7.000 )
( Maximum extent in Y = 5.500 )
( Maximum extent in Z = 0.000 )
( Length of material in X = 7.000 )
( Length of material in Y = 5.500 )
( Depth of material in Z = 0.250 )
(================================================)
( VERIFY: Check tool number, diameter, and type )
( before starting program execution )
(================================================)

T2
G0 G17 G20 G90 G40 G49 G64 P0.0001
G0Z0.8000
G0X0.0000Y0.0000
(================================================)
( Starting Tool #2 - Compression End Mill  1/4"  UP/DOWN CUT )
( Speed:  S10000 RPM )
(================================================)
M3 S10000
M0(MSG, Click 'Continue' when the spindle is up to speed)
G0X0.3510Y0.3510
G0Z0.2000
G1Z-0.1000F40.0
G1X6.6490F120.0
G1Y5.1490
G1X0.3510
G1Y0.3510
G1X0.2514Y0.2514
G1X6.7486
G1Y5.2486
G1X0.2514
G1Y0.2514
G1X0.1518Y0.1518
G1X6.8482
G1Y5.3482
G1X0.1518
G1Y0.1518
G0Z0.2000
G0X0.9684Y0.9486
G1Z-0.1000F40.0
G1X0.9486Y0.9729F120.0
G1Y0.9486
G1X0.9684
G1X1.0391Y1.0189
G1X0.9987Y1.0706
G1X0.9759Y1.1033
G1X0.9467Y1.1158
G1X0.8862Y1.1446
G1X0.8490Y1.1644
G1Y0.8490
G1X1.2085
G1X1.1809Y0.8725
G1X1.1512Y0.8989
G1X1.1097Y0.9400
G1X1.0751Y0.9773
G1X1.0391Y1.0189
G1X1.1160Y1.0822
G1X1.0789Y1.1297
G1X1.0412Y1.1847
G1X0.9859Y1.2074
G1X0.9325Y1.2328
G1X0.9124Y1.2433
G1X0.8547Y1.2769
G1X0.8357Y1.2892
G1X0.7908Y1.3205
G1X0.7662Y1.3391
G1X0.7494Y1.3531
G1Y0.7494
G1X1.6235
G1X1.5483Y0.7712
G1X1.5357Y0.7756
G2X1.4465Y0.8133I0.2464J0.7077
G1X1.4340Y0.8196
G1X1.3644Y0.8592
G1X1.3520Y0.8672
G1X1.2991Y0.9045
G1X1.2867Y0.9141
G1X1.2470Y0.9470
G1X1.2194Y0.9715
G1X1.1813Y1.0093
G1X1.1493Y1.0437
G1X1.1160Y1.0822
G0Z0.2000
G0X2.2576Y0.8509
G1Z-0.1000F40.0
G1X2.2541Y0.8528F120.0
G1X2.1994Y0.8219
G2X2.0919Y0.7750I-0.3527J0.6612
G1X2.0786Y0.7704
G1X2.0065Y0.7494
G1X2.5559
G1X2.5401Y0.7519
G1X2.4781Y0.7647
G1X2.4689Y0.7670
G1X2.4166Y0.7821
G1X2.4074Y0.7852
G1X2.3435Y0.8095
G1X2.3250Y0.8175
G1X2.2576Y0.8509
G1X2.3062Y0.9378
G1X2.2738Y0.9559
G1X2.2504Y0.9706
G1X2.2411Y0.9638
G2X2.1661Y0.9170I-0.3808J0.5265
G1X2.1526Y0.9098
G2X2.0593Y0.8691I-0.3058J0.5733
G1X2.0460Y0.8645
G2X1.9380Y0.8372I-0.2126J0.6140
G1X1.9249Y0.8351
G2X1.8108Y0.8267I-0.1045J0.6413
G1X1.7979Y0.8269
G2X1.6889Y0.8377I0.0096J0.6497
G1X1.6762Y0.8401
G2X1.5811Y0.8653I0.1186J0.6389
G1X1.5685Y0.8697
G2X1.4911Y0.9024I0.2136J0.6137
G1X1.4786Y0.9086
G1X1.4183Y0.9430
G1X1.4058Y0.9510
G1X1.3600Y0.9833
G1X1.3299Y1.0066
G1X1.2876Y1.0442
G1X1.2529Y1.0785
G1X1.2235Y1.1102
G1X1.1929Y1.1455
G1X1.1591Y1.1888
G1X1.1244Y1.2387
G1X1.1076Y1.2669
G1X1.0669Y1.2810
G1X1.0251Y1.2989
G1X0.9788Y1.3209
G1X0.9587Y1.3315
G1X0.9087Y1.3607
G1X0.8897Y1.3729
G1X0.8507Y1.4001
G1X0.8282Y1.4171
G1X0.7931Y1.4465
G1X0.7586Y1.4788
G1X0.7250Y1.5138
G1X0.6929Y1.5516
G1X0.6625Y1.5919
G1X0.6498Y1.6111
G1Y0.6498
G1X3.3918
G1X3.3599Y0.7198
G2X3.2743Y0.6880I-0.2687J0.5916
G1X3.2624Y0.6845
G2X3.1639Y0.6637I-0.1831J0.6235
G1X3.1584Y0.6630
G2X3.0710Y0.6575I-0.0846J0.6443
G1X3.0658Y0.6575
G2X2.9548Y0.6675I0.0028J0.6498
G1X2.9481Y0.6687
G2X2.8327Y0.7005I0.1138J0.6398
G1X2.8267Y0.7027
G2X2.7196Y0.7548I0.2292J0.6080
G1X2.7142Y0.7580
G2X2.6248Y0.8231I0.3363J0.5560
G1X2.6015Y0.8439
G1X2.5561Y0.8502
G1X2.5023Y0.8613
G1X2.4931Y0.8636
G1X2.4478Y0.8767
G1X2.4385Y0.8798
G1X2.3831Y0.9009
G1X2.3646Y0.9089
G1X2.3062Y0.9378
G1X2.3548Y1.0248
G1X2.3246Y1.0416
G1X2.2883Y1.0644
G1X2.2451Y1.0940
G1X2.1965Y1.0545
G1X2.1827Y1.0445
G2X2.1192Y1.0049I-0.3224J0.4458
G1X2.1057Y0.9977
G2X2.0268Y0.9632I-0.2589J0.4855
G1X2.0135Y0.9586
G2X1.9220Y0.9355I-0.1800J0.5199
G1X1.9089Y0.9334
G2X1.8123Y0.9263I-0.0885J0.5430
G1X1.7994Y0.9265
G2X1.7071Y0.9356I0.0081J0.5501
G1X1.6943Y0.9380
G2X1.6138Y0.9594I0.1004J0.5410
G1X1.6012Y0.9637
G1X1.5357Y0.9914
G1X1.5232Y0.9977
G1X1.4721Y1.0268
G1X1.4597Y1.0348
G1X1.4209Y1.0622
G1X1.3935Y1.0833
G1X1.3558Y1.1168
G1X1.3245Y1.1478
G1X1.2977Y1.1767
G1X1.2699Y1.2088
G1X1.2393Y1.2479
G1X1.2081Y1.2928
G1X1.1880Y1.3263
G1X1.1746Y1.3501
G1X1.1585Y1.3546
G1X1.1029Y1.3740
G1X1.0643Y1.3905
G1X1.0251Y1.4091
G1X1.0050Y1.4197
G1X0.9626Y1.4444
G1X0.9267Y1.4676
G1X0.8902Y1.4951
G1X0.8591Y1.5211
G1X0.8286Y1.5496
G1X0.7990Y1.5806
G1X0.7707Y1.6139
G1X0.7439Y1.6494
G1X0.7190Y1.6870
G1X0.6994Y1.7210
G1X0.6741Y1.7379
G1X0.6509Y1.7544
G1X0.6168Y1.7806
G1X0.5953Y1.7986
G1X0.5632Y1.8276
G1X0.5502Y1.8403
G1Y0.5502
G1X3.5896
G1X3.5426Y0.6015
G1X3.5400Y0.6046
G2X3.4886Y0.6804I0.4281J0.3456
G1X3.4865Y0.6843
G2X3.4523Y0.7569I0.4795J0.2698
G1X3.4506Y0.7614
G1X3.4355Y0.8065
G1X3.4055Y0.8571
G1X3.3930Y0.8494
G1X3.3367Y0.8189
G1X3.3243Y0.8131
G2X3.2462Y0.7836I-0.2331J0.4984
G1X3.2344Y0.7801
G2X3.1510Y0.7625I-0.1550J0.5279
G1X3.1454Y0.7618
G2X3.0714Y0.7571I-0.0716J0.5455
G1X3.0662Y0.7571
G2X2.9723Y0.7656I0.0024J0.5502
G1X2.9656Y0.7668
G2X2.8678Y0.7937I0.0963J0.5417
G1X2.8618Y0.7959
G2X2.7711Y0.8400I0.1941J0.5148
G1X2.7658Y0.8432
G2X2.6901Y0.8983I0.2848J0.4708
G1X2.6854Y0.9024
G1X2.6457Y0.9404
G1X2.6353Y0.9410
G1X2.5810Y0.9471
G1X2.5720Y0.9486
G1X2.5265Y0.9579
G1X2.4979Y0.9651
G1X2.4697Y0.9744
G1X2.4228Y0.9922
G1X2.4043Y1.0003
G1X2.3548Y1.0248
G1X2.4034Y1.1117
G1X2.3754Y1.1273
G1X2.3426Y1.1480
G1X2.3140Y1.1672
G1X2.2855Y1.1876
G1X2.2574Y1.2094
G1X2.2366Y1.2267
G1X2.2223Y1.2109
G1X2.1922Y1.1807
G1X2.1781Y1.1678
G1X2.1381Y1.1352
G1X2.1243Y1.1252
G1X2.0724Y1.0928
G1X2.0588Y1.0856
G2X1.9942Y1.0573I-0.2121J0.3976
G1X1.9809Y1.0527
G2X1.9060Y1.0338I-0.1474J0.4258
G1X1.8929Y1.0317
G2X1.8137Y1.0259I-0.0725J0.4447
G1X1.8008Y1.0260
G2X1.7253Y1.0336I0.0066J0.4505
G1X1.7125Y1.0359
G2X1.6466Y1.0534I0.0822J0.4430
G1X1.6340Y1.0578
G1X1.5803Y1.0805
G1X1.5678Y1.0867
G1X1.5260Y1.1106
G1X1.5135Y1.1186
G1X1.4818Y1.1410
G1X1.4571Y1.1601
G1X1.4239Y1.1895
G1X1.3961Y1.2171
G1X1.3719Y1.2432
G1X1.3468Y1.2721
G1X1.3195Y1.3071
G1X1.2918Y1.3469
G1X1.2639Y1.3935
G1X1.2437Y1.4345
G1X1.1884Y1.4497
G1X1.1390Y1.4669
G1X1.0872Y1.4891
G1X1.0512Y1.5079
G1X1.0166Y1.5281
G1X0.9837Y1.5493
G1X0.9522Y1.5731
G1X0.9251Y1.5957
G1X0.8987Y1.6204
G1X0.8730Y1.6473
G1X0.8484Y1.6762
G1X0.8252Y1.7070
G1X0.8037Y1.7395
G1X0.7839Y1.7736
G1X0.7748Y1.7917
G1X0.7459Y1.8091
G1X0.6942Y1.8458
G1X0.6455Y1.8864
G1X0.6004Y1.9305
G1X0.5593Y1.9776
G1X0.5223Y2.0271
G1X0.4897Y2.0784
G1X0.4613Y2.1310
G1X0.4506Y2.1547
G1Y0.4506
G1X6.5494
G1Y2.6674
G1X6.5129Y2.6253
G1X6.4796Y2.5923
G1X6.4453Y2.5625
G1X6.4105Y2.5357
G1X6.3656Y2.5047
G1X6.3495Y2.4945
G1X6.3081Y2.4714
G1X6.3009Y2.4679
G2X6.2259Y2.4390I-0.1987J0.4044
G1X6.2185Y2.4369
G2X6.1339Y2.4213I-0.1237J0.4333
G1X6.1302Y2.4210
G2X6.0595Y2.4204I-0.0390J0.4489
G1X6.0558Y2.4207
G2X5.9789Y2.4328I0.0317J0.4495
G1X5.9752Y2.4337
G2X5.8995Y2.4599I0.1087J0.4373
G1X5.8958Y2.4615
G2X5.8287Y2.4988I0.1844J0.4111
G1X5.8251Y2.5012
G2X5.7709Y2.5441I0.2515J0.3739
G1X5.7673Y2.5474
G1X5.7277Y2.5889
G1X5.7242Y2.5932
G2X5.6842Y2.6490I0.3453J0.2895
G1X5.6817Y2.6531
G2X5.6449Y2.7290I0.3853J0.2336
G1X5.6435Y2.7329
G2X5.6195Y2.8266I0.4221J0.1577
G1X5.6190Y2.8303
G1X5.6146Y2.8848
G1X5.5817Y2.9244
G1X5.5687Y2.9430
G1X5.5004Y2.8997
G1X5.4310Y2.8537
G1X5.3611Y2.8058
G1X5.2906Y2.7561
G1X5.2195Y2.7050
G1X5.0379Y2.5726
G1X5.0987Y2.5312
G1X5.1355Y2.5045
G1X5.1747Y2.4743
G1X5.1960Y2.4564
G1X5.2161Y2.4551
G2X5.2860Y2.4440I-0.0350J-0.4492
G1X5.2914Y2.4427
G2X5.3702Y2.4159I-0.1049J-0.4382
G1X5.3749Y2.4139
G2X5.4548Y2.3678I-0.1838J-0.4114
G1X5.4587Y2.3650
G2X5.5291Y2.3020I-0.2638J-0.3653
G1X5.5323Y2.2985
G2X5.5850Y2.2272I-0.3341J-0.3023
G1X5.5876Y2.2229
G2X5.6215Y2.1532I-0.3869J-0.2310
G1X5.6233Y2.1483
G1X5.6421Y2.0864
G1X5.6433Y2.0809
G1X5.6519Y2.0288
G1X5.6526Y2.0228
G1X5.6550Y1.9802
G1X5.6551Y1.9735
G1X5.6529Y1.9243
G1X5.6497Y1.8917
G1X5.6421Y1.8497
G1X5.6339Y1.8145
G1X5.6236Y1.7791
G1X5.6113Y1.7439
G1X5.5967Y1.7091
G1X5.5801Y1.6750
G1X5.5614Y1.6420
G1X5.5409Y1.6103
G1X5.5187Y1.5803
G1X5.5036Y1.5622
G1X5.4775Y1.5336
G1X5.4634Y1.5193
G1X5.4277Y1.4869
G1X5.4121Y1.4743
G1X5.3776Y1.4488
G1X5.3455Y1.4274
G1X5.2981Y1.4012
G1X5.2542Y1.3807
G1X5.2144Y1.3647
G1X5.1767Y1.3513
G1X5.1225Y1.3345
G1X5.0436Y1.3122
G1X5.0067Y1.3037
G1X4.9507Y1.2938
G1X4.8999Y1.2873
G1X4.8099Y1.2778
G1X4.7984Y1.2759
G1X4.7528Y1.2646
G1X4.7358Y1.2617
G1X4.7298Y1.2348
G1X4.7122Y1.1754
G1X4.6914Y1.1192
G1X4.6682Y1.0663
G1X4.6430Y1.0164
G1X4.6163Y0.9694
G1X4.5884Y0.9251
G1X4.5597Y0.8833
G1X4.5303Y0.8438
G1X4.5006Y0.8065
G1X4.4707Y0.7712
G1X4.4407Y0.7377
G1X4.3863Y0.6800
G1X4.3512Y0.6468
G1X4.3133Y0.6146
G1X4.2684Y0.5808
G1X4.2428Y0.5646
G2X4.1646Y0.5252I-0.2407J0.3809
G1X4.1553Y0.5217
G2X4.0747Y0.4989I-0.1625J0.4203
G1X4.0704Y0.4981
G1X4.0043Y0.4908
G1X4.0002Y0.4907
G2X3.9248Y0.4944I-0.0158J0.4503
G1X3.9210Y0.4949
G2X3.8399Y0.5134I0.0595J0.4466
G1X3.8363Y0.5146
G2X3.7560Y0.5500I0.1406J0.4281
G1X3.7528Y0.5518
G2X3.6809Y0.6020I0.2209J0.3927
G1X3.6779Y0.6045
G2X3.6201Y0.6640I0.2928J0.3425
G1X3.6175Y0.6672
G2X3.5754Y0.7293I0.3506J0.2830
G1X3.5733Y0.7331
G1X3.5453Y0.7926
G1X3.5436Y0.7971
G1X3.5278Y0.8467
G1X3.4982Y0.8955
G1X3.4750Y0.9366
G1X3.4520Y0.9803
G1X3.4387Y1.0079
G1X3.4361Y1.0054
G1X3.4022Y0.9766
G1X3.3903Y0.9675
G1X3.3530Y0.9417
G1X3.3406Y0.9341
G1X3.2945Y0.9091
G1X3.2821Y0.9033
G2X3.2181Y0.8791I-0.1909J0.4082
G1X3.2063Y0.8757
G2X3.1380Y0.8612I-0.1270J0.4323
G1X3.1325Y0.8605
G1X3.0718Y0.8567
G1X3.0666Y0.8567
G2X2.9897Y0.8637I0.0020J0.4506
G1X2.9830Y0.8648
G2X2.9029Y0.8868I0.0789J0.4436
G1X2.8969Y0.8891
G2X2.8227Y0.9252I0.1589J0.4216
G1X2.8173Y0.9284
G2X2.7553Y0.9736I0.2332J0.3855
G1X2.7506Y0.9777
G2X2.7032Y1.0254I0.2952J0.3404
G1X2.6916Y1.0393
G1X2.6502Y1.0399
G1X2.6414Y1.0404
G1X2.5970Y1.0454
G1X2.5880Y1.0469
G1X2.5507Y1.0546
G1X2.5256Y1.0608
G1X2.5008Y1.0690
G1X2.4624Y1.0836
G1X2.4439Y1.0916
G1X2.4034Y1.1117
G0Z0.2000
G0X2.8901Y1.2867
G1Z-0.1000F40.0
G1X2.8808Y1.3171F120.0
G1X2.8753Y1.3430
G1X2.8702Y1.3785
G1X2.8665Y1.4136
G1X2.8651Y1.4585
G1X2.8564Y1.4414
G1X2.8515Y1.4331
G1X2.8371Y1.4128
G1X2.8315Y1.4060
G1X2.8125Y1.3871
G1X2.8062Y1.3818
G1X2.7839Y1.3664
G1X2.7769Y1.3624
G1X2.7534Y1.3516
G1X2.7458Y1.3489
G1X2.7231Y1.3426
G1X2.7050Y1.3391
G1X2.6774Y1.3376
G1X2.6523Y1.3391
G1X2.6295Y1.3428
G1X2.6088Y1.3480
G1X2.5877Y1.3550
G1X2.5558Y1.3688
G1X2.5278Y1.3844
G1X2.5053Y1.3986
G1X2.4846Y1.4125
G1X2.4642Y1.4272
G1X2.4443Y1.4426
G1X2.4248Y1.4587
G1X2.4059Y1.4757
G1X2.3875Y1.4935
G1X2.3697Y1.5121
G1X2.3526Y1.5315
G1X2.3363Y1.5518
G1X2.3207Y1.5729
G1X2.3059Y1.5948
G1X2.2967Y1.6100
G1X2.2480Y1.5948
G1X2.2228Y1.5858
G1X2.1989Y1.5763
G1X2.1762Y1.5663
G1X2.1549Y1.5558
G1X2.1350Y1.5446
G1X2.1164Y1.5327
G1X2.0991Y1.5202
G1X2.0831Y1.5068
G1X2.0609Y1.4849
G1X2.0474Y1.4687
G1X2.0192Y1.4318
G1X1.9960Y1.4061
G1X1.9701Y1.3824
G1X1.9409Y1.3613
G1X1.9182Y1.3492
G1X1.8964Y1.3397
G1X1.8831Y1.3351
G1X1.8579Y1.3287
G1X1.8448Y1.3266
G1X1.8181Y1.3246
G1X1.8052Y1.3248
G1X1.7798Y1.3273
G1X1.7670Y1.3297
G1X1.7448Y1.3356
G1X1.7229Y1.3432
G1X1.6944Y1.3575
G1X1.6696Y1.3735
G1X1.6479Y1.3903
G1X1.6285Y1.4075
G1X1.6108Y1.4249
G1X1.5944Y1.4426
G1X1.5776Y1.4621
G1X1.5601Y1.4844
G1X1.5429Y1.5092
G1X1.5265Y1.5366
G1X1.5122Y1.5655
G1X1.5047Y1.5841
G1X1.4986Y1.6024
G1X1.4935Y1.6222
G1X1.4896Y1.6437
G1X1.4876Y1.6671
G1X1.4885Y1.6998
G1X1.4657Y1.7029
G1X1.3962Y1.7102
G1X1.3679Y1.7141
G1X1.3388Y1.7194
G1X1.3088Y1.7261
G1X1.2782Y1.7348
G1X1.2471Y1.7456
G1X1.2156Y1.7591
G1X1.1841Y1.7756
G1X1.1548Y1.7945
G1X1.1381Y1.8071
G1X1.1233Y1.8195
G1X1.1089Y1.8330
G1X1.0950Y1.8475
G1X1.0818Y1.8631
G1X1.0693Y1.8796
G1X1.0577Y1.8971
G1X1.0470Y1.9155
G1X1.0374Y1.9347
G1X1.0289Y1.9546
G1X1.0215Y1.9752
G1X1.0153Y1.9964
G1X1.0128Y2.0069
G1X0.9810Y2.0201
G1X0.9443Y2.0385
G1X0.9095Y2.0594
G1X0.8767Y2.0827
G1X0.8460Y2.1083
G1X0.8177Y2.1359
G1X0.7918Y2.1655
G1X0.7685Y2.1969
G1X0.7476Y2.2296
G1X0.7293Y2.2637
G1X0.7134Y2.2988
G1X0.6998Y2.3349
G1X0.6885Y2.3717
G1X0.6792Y2.4092
G1X0.6721Y2.4474
G1X0.6670Y2.4843
G1X0.6635Y2.5198
G1X0.6597Y2.5880
G1X0.6565Y2.7106
G1X0.6535Y2.7647
G1X0.6510Y2.7901
G1X0.6477Y2.8143
G1X0.6436Y2.8374
G1X0.6384Y2.8595
G1X0.6321Y2.8807
G1X0.6158Y2.9251
G1X0.6090Y2.9512
G1X0.6048Y2.9774
G1X0.6030Y3.0032
G1X0.6035Y3.0284
G1X0.6060Y3.0529
G1X0.6103Y3.0764
G1X0.6161Y3.0990
G1X0.6233Y3.1207
G1X0.6316Y3.1414
G1X0.6410Y3.1611
G1X0.6513Y3.1800
G1X0.6624Y3.1980
G1X0.6743Y3.2153
G1X0.6868Y3.2317
G1X0.7049Y3.2535
G1X0.7097Y3.2625
G1X0.7131Y3.2728
G1X0.7157Y3.2841
G1X0.7180Y3.2988
G1X0.7218Y3.3415
G1X0.7264Y3.3882
G1X0.7338Y3.4361
G1X0.7444Y3.4859
G1X0.7577Y3.5343
G1X0.7655Y3.5583
G1X0.7740Y3.5822
G1X0.7834Y3.6058
G1X0.7936Y3.6293
G1X0.8046Y3.6524
G1X0.8165Y3.6753
G1X0.8293Y3.6979
G1X0.8433Y3.7209
G1X0.8633Y3.7501
G1X0.8851Y3.7784
G1X0.9081Y3.8049
G1X0.9322Y3.8297
G1X0.9572Y3.8528
G1X0.9830Y3.8744
G1X1.0094Y3.8944
G1X1.0363Y3.9130
G1X1.0636Y3.9302
G1X1.0913Y3.9462
G1X1.1191Y3.9610
G1X1.1470Y3.9748
G1X1.1992Y3.9978
G1X1.1915Y4.0347
G1X1.1874Y4.0719
G1X1.1866Y4.1084
G1X1.1885Y4.1440
G1X1.1929Y4.1786
G1X1.1994Y4.2121
G1X1.2053Y4.2347
G1X1.2119Y4.2559
G1X1.2202Y4.2778
G1X1.2305Y4.3003
G1X1.2437Y4.3235
G1X1.2605Y4.3470
G1X1.2744Y4.3621
G1X1.2907Y4.3773
G1X1.2989Y4.3840
G1X1.3197Y4.3981
G1X1.3288Y4.4033
G1X1.3533Y4.4143
G1X1.3633Y4.4178
G1X1.3895Y4.4244
G1X1.4004Y4.4262
G1X1.4257Y4.4281
G1X1.4377Y4.4280
G1X1.4602Y4.4261
G1X1.4828Y4.4225
G1X1.5141Y4.4134
G1X1.5431Y4.4013
G1X1.5850Y4.3797
G1X1.5964Y4.3759
G1X1.6125Y4.3735
G1X1.6247Y4.3738
G1X1.6394Y4.3759
G1X1.6572Y4.3805
G1X1.6779Y4.3879
G1X1.7212Y4.4060
G1X1.7535Y4.4177
G1X1.7861Y4.4279
G1X1.8192Y4.4364
G1X1.8526Y4.4431
G1X1.8864Y4.4482
G1X1.9204Y4.4514
G1X1.9546Y4.4527
G1X1.9888Y4.4522
G1X2.0232Y4.4497
G1X2.0574Y4.4453
G1X2.0916Y4.4390
G1X2.1307Y4.4291
G1X2.1487Y4.4588
G1X2.1642Y4.4808
G1X2.1810Y4.5023
G1X2.1993Y4.5229
G1X2.2190Y4.5427
G1X2.2402Y4.5614
G1X2.2628Y4.5789
G1X2.2867Y4.5951
G1X2.3119Y4.6098
G1X2.3384Y4.6230
G1X2.3659Y4.6346
G1X2.3966Y4.6452
G1X2.4238Y4.6519
G1X2.4437Y4.6547
G1X2.4664Y4.6561
G1X2.4775Y4.6559
G1X2.5001Y4.6539
G1X2.5144Y4.6516
G1X2.5383Y4.6446
G1X2.5524Y4.6383
G1X2.5726Y4.6273
G1X2.5767Y4.6246
G1X2.5958Y4.6099
G1X2.5996Y4.6065
G1X2.6160Y4.5892
G1X2.6193Y4.5851
G1X2.6322Y4.5665
G1X2.6403Y4.5527
G1X2.6501Y4.5293
G1X2.6565Y4.5067
G1X2.6627Y4.4720
G1X2.6660Y4.4593
G1X2.6699Y4.4481
G1X2.6743Y4.4380
G1X2.6794Y4.4287
G1X2.6852Y4.4197
G1X2.6920Y4.4108
G1X2.6998Y4.4019
G1X2.7089Y4.3929
G1X2.7312Y4.3743
G1X2.7593Y4.3551
G1X2.7747Y4.3457
G1X2.8547Y4.3023
G1X2.8968Y4.2774
G1X2.9379Y4.2505
G1X2.9768Y4.2222
G1X3.0159Y4.1903
G1X3.0344Y4.1737
G1X3.0525Y4.1565
G1X3.0700Y4.1386
G1X3.0869Y4.1199
G1X3.1088Y4.0935
G1X3.1211Y4.1020
G1X3.1524Y4.1179
G1X3.1640Y4.1222
G1X3.1851Y4.1283
G1X3.2085Y4.1333
G1X3.2417Y4.1361
G1X3.2872Y4.1337
G1X3.3246Y4.1301
G1X3.4204Y4.1180
G1X3.4467Y4.1152
G1X3.4694Y4.1137
G1X3.5352Y4.1133
G1X3.5798Y4.1107
G1X3.6235Y4.1058
G1X3.6662Y4.0986
G1X3.7078Y4.0893
G1X3.7483Y4.0780
G1X3.7877Y4.0648
G1X3.8259Y4.0498
G1X3.8630Y4.0332
G1X3.8989Y4.0152
G1X3.9338Y3.9958
G1X3.9676Y3.9752
G1X4.0004Y3.9535
G1X4.0322Y3.9309
G1X4.0631Y3.9074
G1X4.0931Y3.8832
G1X4.1187Y3.8615
G1X4.1628Y3.8213
G1X4.1653Y3.8489
G1X4.1693Y3.8808
G1X4.1742Y3.9125
G1X4.1850Y3.9710
G1X4.1973Y4.0290
G1X4.2025Y4.0500
G1X4.2087Y4.0715
G1X4.2158Y4.0931
G1X4.2240Y4.1147
G1X4.2331Y4.1364
G1X4.2434Y4.1579
G1X4.2548Y4.1793
G1X4.2674Y4.2006
G1X4.2813Y4.2215
G1X4.2966Y4.2421
G1X4.3133Y4.2621
G1X4.3315Y4.2815
G1X4.3513Y4.3001
G1X4.3727Y4.3177
G1X4.3958Y4.3341
G1X4.4287Y4.3539
G1X4.4394Y4.3622
G1X4.4464Y4.3699
G1X4.4523Y4.3792
G1X4.4581Y4.3922
G1X4.4638Y4.4104
G1X4.4662Y4.4205
G1X4.4716Y4.4497
G1X4.4663Y4.4634
G1X4.4599Y4.4874
G1X4.4579Y4.5033
G1X4.4569Y4.5314
G1X4.4572Y4.5372
G1X4.4635Y4.5723
G1X4.4651Y4.5778
G2X4.4813Y4.6137I0.1453J-0.0439
G1X4.4846Y4.6190
G1X4.5077Y4.6478
G1X4.5128Y4.6528
G1X4.5366Y4.6718
G1X4.5438Y4.6763
G1X4.5643Y4.6874
G1X4.5817Y4.6951
G1X4.6064Y4.7029
G1X4.6301Y4.7079
G1X4.6544Y4.7106
G1X4.6790Y4.7108
G1X4.7033Y4.7084
G1X4.7268Y4.7036
G1X4.7491Y4.6967
G1X4.7698Y4.6880
G1X4.7889Y4.6780
G1X4.8063Y4.6669
G1X4.8220Y4.6552
G1X4.8378Y4.6416
G1X4.8608Y4.6182
G1X4.8800Y4.5944
G1X4.9053Y4.5599
G1X4.9287Y4.5259
G1X4.9512Y4.4907
G1X4.9724Y4.4544
G1X4.9921Y4.4167
G1X5.0101Y4.3776
G1X5.0259Y4.3370
G1X5.0390Y4.2963
G1X5.0450Y4.2734
G1X5.0499Y4.2514
G1X5.0541Y4.2290
G1X5.0574Y4.2063
G1X5.0598Y4.1833
G1X5.0613Y4.1599
G1X5.0618Y4.1364
G1X5.0612Y4.1125
G1X5.0597Y4.0885
G1X5.0571Y4.0644
G1X5.0534Y4.0401
G1X5.0486Y4.0158
G1X5.0427Y3.9914
G1X5.0357Y3.9670
G1X5.0276Y3.9427
G1X5.0183Y3.9184
G1X5.0031Y3.8827
G1X4.9873Y3.8480
G1X4.9700Y3.8129
G1X4.9509Y3.7776
G1X4.9299Y3.7423
G1X4.9066Y3.7072
G1X4.8810Y3.6724
G1X4.8530Y3.6385
G1X4.8321Y3.6158
G1X4.8102Y3.5947
G1X4.7880Y3.5754
G1X4.7660Y3.5580
G1X4.7442Y3.5420
G1X4.7223Y3.5271
G1X4.6826Y3.5020
G1X4.6113Y3.4584
G1X4.5834Y3.4395
G1X4.5690Y3.4286
G1X4.5654Y3.4185
G1X4.5607Y3.3980
G1X4.5584Y3.3751
G1X4.5847Y3.3652
G1X4.6113Y3.3575
G1X4.6395Y3.3511
G1X4.6695Y3.3458
G1X4.7005Y3.3420
G1X4.7316Y3.3396
G1X4.7619Y3.3388
G1X4.7905Y3.3396
G1X4.8281Y3.3433
G1X4.8477Y3.3472
G1X4.8657Y3.3528
G1X4.8708Y3.3555
G1X4.9921Y3.4325
G1X5.1811Y3.5550
G1X5.2460Y3.5957
G1X5.3121Y3.6359
G1X5.3803Y3.6755
G1X5.4065Y3.6895
G1X5.4334Y3.7024
G1X5.4606Y3.7139
G1X5.4880Y3.7241
G1X5.5157Y3.7328
G1X5.5435Y3.7400
G1X5.5715Y3.7458
G1X5.5995Y3.7500
G1X5.6276Y3.7527
G1X5.6557Y3.7538
G1X5.6837Y3.7533
G1X5.7115Y3.7511
G1X5.7391Y3.7474
G1X5.7664Y3.7421
G1X5.7932Y3.7351
G1X5.8196Y3.7266
G1X5.8454Y3.7165
G1X5.8705Y3.7050
G1X5.8949Y3.6920
G1X5.9186Y3.6776
G1X5.9414Y3.6618
G1X5.9634Y3.6448
G1X5.9845Y3.6266
G1X6.0046Y3.6073
G1X6.0238Y3.5868
G1X6.0421Y3.5653
G1X6.0595Y3.5428
G1X6.0758Y3.5193
G1X6.0913Y3.4949
G1X6.1057Y3.4697
G1X6.1193Y3.4435
G1X6.1316Y3.4171
G1X6.1413Y3.3946
G1X6.1817Y3.3839
G1X6.2031Y3.3766
G1X6.2240Y3.3682
G1X6.2457Y3.3577
G1X6.2678Y3.3448
G1X6.2899Y3.3291
G1X6.3114Y3.3104
G1X6.3316Y3.2885
G1X6.3497Y3.2637
G1X6.3650Y3.2366
G1X6.3773Y3.2078
G1X6.3863Y3.1778
G1X6.3920Y3.1484
G1X6.3955Y3.1186
G1X6.3970Y3.0896
G1X6.3963Y3.0606
G1X6.3935Y3.0317
G1X6.3884Y3.0032
G1X6.3811Y2.9753
G1X6.3716Y2.9482
G1X6.3599Y2.9220
G1X6.3463Y2.8971
G1X6.3310Y2.8736
G1X6.3141Y2.8515
G1X6.2958Y2.8308
G1X6.2764Y2.8116
G1X6.2559Y2.7938
G1X6.2346Y2.7774
G1X6.2004Y2.7537
G1X6.1836Y2.7431
G1X6.1691Y2.7360
G1X6.1439Y2.7263
G1X6.1365Y2.7242
G1X6.1080Y2.7190
G1X6.1044Y2.7187
G1X6.0805Y2.7185
G1X6.0768Y2.7187
G1X6.0509Y2.7228
G1X6.0473Y2.7237
G1X6.0217Y2.7325
G1X6.0181Y2.7342
G1X5.9955Y2.7467
G1X5.9919Y2.7492
G1X5.9736Y2.7636
G1X5.9629Y2.7735
G1X5.9531Y2.7851
G1X5.9397Y2.8040
G1X5.9372Y2.8080
G1X5.9248Y2.8336
G1X5.9234Y2.8374
G1X5.9153Y2.8690
G1X5.9148Y2.8727
G1X5.9138Y2.9064
G1X5.9140Y2.9099
G1X5.9197Y2.9405
G1X5.9207Y2.9438
G1X5.9348Y2.9769
G1X5.9466Y2.9958
G1X5.9237Y3.0091
G1X5.9059Y3.0211
G1X5.8891Y3.0338
G1X5.8732Y3.0473
G1X5.8583Y3.0613
G1X5.8432Y3.0771
G1X5.8196Y3.1056
G1X5.7982Y3.1362
G1X5.7565Y3.2069
G1X5.7363Y3.2380
G1X5.7175Y3.2633
G1X5.7011Y3.2821
G1X5.6875Y3.2949
G1X5.6772Y3.3025
G1X5.6670Y3.3076
G1X5.6583Y3.3095
G1X5.6433Y3.3092
G1X5.6269Y3.3063
G1X5.6050Y3.3000
G1X5.5776Y3.2894
G1X5.5451Y3.2744
G1X5.5278Y3.2654
G1X5.4870Y3.2427
G1X5.4124Y3.1976
G1X5.3379Y3.1504
G1X5.2641Y3.1015
G1X5.1906Y3.0512
G1X5.1173Y2.9996
G1X5.0442Y2.9470
G1X4.7486Y2.7316
G1X4.6730Y2.6777
G1X4.5966Y2.6244
G1X4.5189Y2.5719
G1X4.4674Y2.5384
G1X4.4752Y2.5377
G1X4.4964Y2.5337
G1X4.5157Y2.5288
G1X4.5353Y2.5224
G1X4.5549Y2.5144
G1X4.5746Y2.5044
G1X4.6189Y2.4757
G1X4.6454Y2.4595
G1X4.7701Y2.3887
G1X4.8047Y2.3681
G1X4.8384Y2.3465
G1X4.9261Y2.2872
G1X4.9566Y2.2651
G1X4.9874Y2.2413
G1X5.0183Y2.2155
G1X5.0487Y2.1873
G1X5.0885Y2.1459
G1X5.0919Y2.1429
G1X5.1101Y2.1487
G1X5.1301Y2.1536
G1X5.1522Y2.1571
G1X5.1769Y2.1584
G1X5.1929Y2.1572
G1X5.2164Y2.1534
G1X5.2218Y2.1521
G1X5.2484Y2.1431
G1X5.2530Y2.1411
G1X5.2799Y2.1255
G1X5.2838Y2.1227
G1X5.3075Y2.1015
G1X5.3107Y2.0980
G1X5.3285Y2.0739
G1X5.3310Y2.0697
G1X5.3424Y2.0462
G1X5.3482Y2.0312
G1X5.3538Y2.0063
G1X5.3562Y1.9842
G1X5.3564Y1.9621
G1X5.3535Y1.9330
G1X5.3494Y1.9102
G1X5.3447Y1.8901
G1X5.3390Y1.8703
G1X5.3322Y1.8511
G1X5.3244Y1.8324
G1X5.3156Y1.8144
G1X5.3058Y1.7970
G1X5.2951Y1.7805
G1X5.2835Y1.7649
G1X5.2699Y1.7485
G1X5.2454Y1.7238
G1X5.2180Y1.7015
G1X5.1901Y1.6829
G1X5.1623Y1.6675
G1X5.1351Y1.6548
G1X5.1087Y1.6442
G1X5.0827Y1.6350
G1X5.0368Y1.6208
G1X4.9708Y1.6021
G1X4.9471Y1.5966
G1X4.9056Y1.5893
G1X4.8657Y1.5842
G1X4.7965Y1.5772
G1X4.7675Y1.5737
G1X4.7311Y1.5671
G1X4.6915Y1.5573
G1X4.6622Y1.5521
G1X4.6329Y1.5488
G1X4.6036Y1.5472
G1X4.5745Y1.5472
G1X4.5455Y1.5486
G1X4.5166Y1.5515
G1X4.4880Y1.5556
G1X4.4480Y1.5637
G1X4.4504Y1.5512
G1X4.4551Y1.5170
G1X4.4579Y1.4831
G1X4.4588Y1.4603
G1X4.4587Y1.4380
G1X4.4577Y1.4160
G1X4.4558Y1.3941
G1X4.4531Y1.3726
G1X4.4493Y1.3500
G1X4.4404Y1.3099
G1X4.4285Y1.2698
G1X4.4142Y1.2310
G1X4.3978Y1.1936
G1X4.3796Y1.1576
G1X4.3599Y1.1229
G1X4.3389Y1.0895
G1X4.3167Y1.0573
G1X4.2935Y1.0262
G1X4.2696Y0.9962
G1X4.2451Y0.9672
G1X4.2202Y0.9393
G1X4.1753Y0.8918
G1X4.1516Y0.8694
G1X4.1264Y0.8480
G1X4.0983Y0.8268
G1X4.0832Y0.8172
G1X4.0569Y0.8039
G1X4.0476Y0.8004
G1X4.0204Y0.7927
G1X4.0161Y0.7919
G1X3.9938Y0.7895
G1X3.9897Y0.7893
G1X3.9643Y0.7905
G1X3.9605Y0.7911
G1X3.9332Y0.7973
G1X3.9296Y0.7985
G1X3.9025Y0.8104
G1X3.8992Y0.8122
G1X3.8750Y0.8292
G1X3.8721Y0.8317
G1X3.8526Y0.8517
G1X3.8500Y0.8549
G1X3.8359Y0.8758
G1X3.8337Y0.8796
G1X3.8243Y0.8997
G1X3.8191Y0.9131
G1X3.8156Y0.9276
G1X3.8117Y0.9509
G1X3.8111Y0.9583
G1X3.7762Y1.0131
G1X3.7564Y1.0460
G1X3.7372Y1.0798
G1X3.7189Y1.1147
G1X3.7016Y1.1507
G1X3.6855Y1.1879
G1X3.6710Y1.2264
G1X3.6583Y1.2663
G1X3.6478Y1.3075
G1X3.6400Y1.3488
G1X3.6350Y1.3895
G1X3.6085Y1.3799
G1X3.5779Y1.3709
G1X3.5465Y1.3635
G1X3.5136Y1.3579
G1X3.4592Y1.3524
G1X3.3895Y1.3468
G1X3.3549Y1.3420
G1X3.3415Y1.3391
G1X3.3307Y1.3360
G1X3.3161Y1.3297
G1X3.3071Y1.3229
G1X3.2999Y1.3144
G1X3.2940Y1.3050
G1X3.2858Y1.2892
G1X3.2697Y1.2639
G1X3.2484Y1.2390
G1X3.2262Y1.2182
G1X3.2023Y1.1999
G1X3.1759Y1.1835
G1X3.1555Y1.1740
G1X3.1340Y1.1658
G1X3.1221Y1.1623
G1X3.0991Y1.1575
G1X3.0834Y1.1554
G1X3.0679Y1.1555
G1X3.0420Y1.1578
G1X3.0353Y1.1590
G1X3.0083Y1.1664
G1X3.0023Y1.1687
G1X2.9773Y1.1809
G1X2.9720Y1.1841
G1X2.9511Y1.1993
G1X2.9464Y1.2034
G1X2.9304Y1.2195
G1X2.9200Y1.2316
G1X2.9112Y1.2451
G1X2.9003Y1.2646
G1X2.8901Y1.2867
G1X2.7941Y1.2605
G1X2.7796Y1.2552
G1X2.7420Y1.2448
G1X2.7340Y1.2433
G1X2.7001Y1.2391
G1X2.6917Y1.2386
G1X2.6624Y1.2387
G1X2.6412Y1.2400
G1X2.6094Y1.2452
G1X2.5811Y1.2523
G1X2.5522Y1.2618
G1X2.5116Y1.2794
G1X2.4770Y1.2987
G1X2.4511Y1.3150
G1X2.4277Y1.3307
G1X2.4046Y1.3473
G1X2.3820Y1.3648
G1X2.3597Y1.3833
G1X2.3380Y1.4028
G1X2.3168Y1.4232
G1X2.2963Y1.4447
G1X2.2765Y1.4673
G1X2.2566Y1.4920
G1X2.2373Y1.4844
G1X2.2185Y1.4761
G1X2.2015Y1.4677
G1X2.1862Y1.4591
G1X2.1725Y1.4504
G1X2.1603Y1.4415
G1X2.1495Y1.4325
G1X2.1349Y1.4182
G1X2.1178Y1.3965
G1X2.0957Y1.3678
G1X2.0666Y1.3357
G1X2.0437Y1.3148
G1X2.0214Y1.2966
G1X2.0076Y1.2866
G1X1.9786Y1.2685
G1X1.9651Y1.2613
G1X1.9290Y1.2456
G1X1.9157Y1.2410
G1X1.8739Y1.2304
G1X1.8608Y1.2283
G1X1.8167Y1.2250
G1X1.8038Y1.2252
G1X1.7616Y1.2294
G1X1.7489Y1.2318
G1X1.7121Y1.2415
G1X1.6995Y1.2459
G1X1.6695Y1.2586
G1X1.6450Y1.2709
G1X1.6121Y1.2920
G1X1.5843Y1.3135
G1X1.5603Y1.3348
G1X1.5393Y1.3557
G1X1.5202Y1.3761
G1X1.5007Y1.3988
G1X1.4799Y1.4253
G1X1.4592Y1.4551
G1X1.4389Y1.4889
G1X1.4212Y1.5248
G1X1.4112Y1.5497
G1X1.4031Y1.5740
G1X1.3944Y1.6102
G1X1.3522Y1.6157
G1X1.3190Y1.6217
G1X1.2843Y1.6296
G1X1.2483Y1.6397
G1X1.2110Y1.6527
G1X1.1728Y1.6691
G1X1.1339Y1.6895
G1X1.0977Y1.7128
G1X1.0761Y1.7291
G1X1.0572Y1.7449
G1X1.0388Y1.7621
G1X1.0210Y1.7808
G1X1.0040Y1.8008
G1X0.9879Y1.8221
G1X0.9730Y1.8446
G1X0.9593Y1.8682
G1X0.9470Y1.8928
G1X0.9362Y1.9182
G1X0.9305Y1.9340
G1X0.8963Y1.9512
G1X0.8550Y1.9760
G1X0.8158Y2.0037
G1X0.7792Y2.0343
G1X0.7453Y2.0675
G1X0.7143Y2.1029
G1X0.6864Y2.1403
G1X0.6616Y2.1792
G1X0.6400Y2.2195
G1X0.6213Y2.2607
G1X0.6055Y2.3027
G1X0.5924Y2.3452
G1X0.5819Y2.3881
G1X0.5737Y2.4314
G1X0.5681Y2.4727
G1X0.5642Y2.5116
G1X0.5617Y2.5487
G1X0.5601Y2.5845
G1X0.5558Y2.7325
G1X0.5520Y2.7786
G1X0.5493Y2.7988
G1X0.5460Y2.8172
G1X0.5421Y2.8340
G1X0.5375Y2.8493
G1X0.5206Y2.8954
G1X0.5114Y2.9307
G1X0.5058Y2.9660
G1X0.5034Y3.0007
G1X0.5040Y3.0344
G1X0.5073Y3.0668
G1X0.5129Y3.0977
G1X0.5205Y3.1272
G1X0.5297Y3.1550
G1X0.5404Y3.1814
G1X0.5522Y3.2064
G1X0.5652Y3.2301
G1X0.5790Y3.2525
G1X0.5936Y3.2737
G1X0.6090Y3.2939
G1X0.6181Y3.3047
G1X0.6208Y3.3262
G1X0.6276Y3.4007
G1X0.6357Y3.4533
G1X0.6414Y3.4823
G1X0.6476Y3.5094
G1X0.6546Y3.5366
G1X0.6625Y3.5636
G1X0.6712Y3.5906
G1X0.6809Y3.6174
G1X0.6914Y3.6441
G1X0.7029Y3.6705
G1X0.7154Y3.6968
G1X0.7289Y3.7228
G1X0.7434Y3.7484
G1X0.7597Y3.7750
G1X0.7827Y3.8087
G1X0.8080Y3.8415
G1X0.8347Y3.8723
G1X0.8626Y3.9010
G1X0.8914Y3.9276
G1X0.9209Y3.9523
G1X0.9510Y3.9751
G1X0.9814Y3.9962
G1X1.0121Y4.0155
G1X1.0429Y4.0333
G1X1.0888Y4.0572
G1X1.0877Y4.0761
G1X1.0869Y4.1100
G1X1.0892Y4.1530
G1X1.0945Y4.1944
G1X1.1023Y4.2343
G1X1.1095Y4.2621
G1X1.1177Y4.2884
G1X1.1282Y4.3162
G1X1.1418Y4.3457
G1X1.1596Y4.3771
G1X1.1740Y4.3972
G1X1.1937Y4.4215
G1X1.2012Y4.4297
G1X1.2281Y4.4548
G1X1.2364Y4.4615
G1X1.2708Y4.4848
G1X1.2799Y4.4900
G1X1.3204Y4.5083
G1X1.3304Y4.5119
G1X1.3737Y4.5228
G1X1.3847Y4.5246
G1X1.4266Y4.5277
G1X1.4385Y4.5276
G1X1.4758Y4.5245
G1X1.4889Y4.5224
G1X1.5202Y4.5154
G1X1.5473Y4.5074
G1X1.5854Y4.4916
G1X1.6197Y4.4736
G1X1.6337Y4.4777
G1X1.6851Y4.4989
G1X1.7217Y4.5122
G1X1.7590Y4.5237
G1X1.7969Y4.5335
G1X1.8354Y4.5413
G1X1.8743Y4.5471
G1X1.9137Y4.5508
G1X1.9534Y4.5524
G1X1.9932Y4.5517
G1X2.0331Y4.5489
G1X2.0729Y4.5438
G1X2.0852Y4.5415
G1X2.1045Y4.5661
G1X2.1267Y4.5911
G1X2.1507Y4.6152
G1X2.1766Y4.6381
G1X2.2043Y4.6596
G1X2.2337Y4.6795
G1X2.2645Y4.6975
G1X2.2968Y4.7136
G1X2.3302Y4.7276
G1X2.3683Y4.7408
G1X2.4051Y4.7499
G1X2.4302Y4.7533
G1X2.4677Y4.7557
G1X2.4788Y4.7555
G1X2.5163Y4.7522
G1X2.5215Y4.7514
G1X2.5513Y4.7446
G1X2.5561Y4.7432
G1X2.5887Y4.7311
G1X2.5932Y4.7291
G1X2.6267Y4.7109
G1X2.6308Y4.7082
G1X2.6625Y4.6839
G1X2.6662Y4.6805
G1X2.6935Y4.6518
G1X2.6968Y4.6477
G1X2.7181Y4.6169
G1X2.7210Y4.6120
G1X2.7361Y4.5817
G1X2.7385Y4.5760
G1X2.7483Y4.5479
G1X2.7537Y4.5291
G1X2.7614Y4.4882
G1X2.7651Y4.4795
G1X2.7724Y4.4702
G1X2.7832Y4.4601
G1X2.8008Y4.4470
G1X2.8244Y4.4321
G1X2.9037Y4.3890
G1X2.9494Y4.3620
G1X2.9945Y4.3326
G1X3.0371Y4.3016
G1X3.0600Y4.2834
G1X3.0812Y4.2655
G1X3.1021Y4.2468
G1X3.1328Y4.2168
G1X3.1645Y4.2257
G1X3.1788Y4.2288
G1X3.2093Y4.2333
G1X3.2227Y4.2344
G1X3.2575Y4.2350
G1X3.2945Y4.2330
G1X3.3356Y4.2291
G1X3.4319Y4.2169
G1X3.4552Y4.2145
G1X3.4731Y4.2133
G1X3.5384Y4.2129
G1X3.5883Y4.2100
G1X3.6374Y4.2045
G1X3.6853Y4.1964
G1X3.7321Y4.1860
G1X3.7775Y4.1732
G1X3.8217Y4.1584
G1X3.8644Y4.1417
G1X3.9057Y4.1233
G1X3.9455Y4.1032
G1X3.9840Y4.0819
G1X4.0210Y4.0593
G1X4.0567Y4.0356
G1X4.0916Y4.0108
G1X4.1002Y4.0513
G1X4.1062Y4.0758
G1X4.1135Y4.1010
G1X4.1219Y4.1263
G1X4.1315Y4.1517
G1X4.1423Y4.1772
G1X4.1544Y4.2027
G1X4.1679Y4.2282
G1X4.1830Y4.2536
G1X4.1998Y4.2788
G1X4.2182Y4.3037
G1X4.2386Y4.3281
G1X4.2610Y4.3520
G1X4.2855Y4.3750
G1X4.3122Y4.3969
G1X4.3412Y4.4175
G1X4.3666Y4.4328
G1X4.3689Y4.4420
G1X4.3662Y4.4521
G1X4.3598Y4.4847
G1X4.3591Y4.4907
G1X4.3575Y4.5372
G1X4.3578Y4.5430
G2X4.3681Y4.6011I0.2510J-0.0146
G1X4.3698Y4.6066
G2X4.3966Y4.6661I0.2406J-0.0727
G1X4.3998Y4.6713
G2X4.4382Y4.7192I0.2138J-0.1322
G1X4.4432Y4.7241
G2X4.4828Y4.7555I0.1755J-0.1800
G1X4.4899Y4.7601
G1X4.5239Y4.7784
G1X4.5333Y4.7826
G1X4.5603Y4.7928
G1X4.5812Y4.7993
G1X4.6143Y4.8063
G1X4.6486Y4.8101
G1X4.6835Y4.8104
G1X4.7181Y4.8070
G1X4.7515Y4.8002
G1X4.7831Y4.7904
G1X4.8123Y4.7782
G1X4.8389Y4.7642
G1X4.8629Y4.7489
G1X4.8843Y4.7330
G1X4.9059Y4.7144
G1X4.9352Y4.6845
G1X4.9590Y4.6551
G1X4.9865Y4.6176
G1X5.0117Y4.5809
G1X5.0362Y4.5426
G1X5.0595Y4.5026
G1X5.0815Y4.4606
G1X5.1018Y4.4166
G1X5.1199Y4.3704
G1X5.1346Y4.3241
G1X5.1418Y4.2970
G1X5.1475Y4.2714
G1X5.1524Y4.2453
G1X5.1562Y4.2187
G1X5.1591Y4.1916
G1X5.1608Y4.1641
G1X5.1614Y4.1363
G1X5.1608Y4.1082
G1X5.1589Y4.0799
G1X5.1559Y4.0515
G1X5.1515Y4.0230
G1X5.1459Y3.9944
G1X5.1390Y3.9659
G1X5.1308Y3.9375
G1X5.1214Y3.9093
G1X5.1108Y3.8812
G1X5.0943Y3.8425
G1X5.0773Y3.8052
G1X5.0585Y3.7672
G1X5.0376Y3.7284
G1X5.0143Y3.6893
G1X4.9883Y3.6501
G1X4.9595Y3.6110
G1X4.9280Y3.5730
G1X4.9034Y3.5462
G1X4.8775Y3.5212
G1X4.8517Y3.4988
G1X4.8262Y3.4786
G1X4.8016Y3.4606
G1X4.7687Y3.4386
G1X4.7849Y3.4391
G1X4.8128Y3.4418
G1X4.8246Y3.4441
G1X4.9380Y3.5162
G1X5.1277Y3.6390
G1X5.1936Y3.6805
G1X5.2612Y3.7216
G1X5.3318Y3.7625
G1X5.3614Y3.7783
G1X5.3924Y3.7932
G1X5.4239Y3.8065
G1X5.4558Y3.8183
G1X5.4881Y3.8285
G1X5.5209Y3.8371
G1X5.5540Y3.8439
G1X5.5874Y3.8489
G1X5.6210Y3.8521
G1X5.6547Y3.8534
G1X5.6884Y3.8528
G1X5.7220Y3.8502
G1X5.7554Y3.8457
G1X5.7885Y3.8392
G1X5.8211Y3.8308
G1X5.8530Y3.8204
G1X5.8843Y3.8082
G1X5.9148Y3.7942
G1X5.9443Y3.7785
G1X5.9728Y3.7612
G1X6.0002Y3.7423
G1X6.0265Y3.7220
G1X6.0516Y3.7003
G1X6.0755Y3.6773
G1X6.0981Y3.6532
G1X6.1196Y3.6280
G1X6.1398Y3.6017
G1X6.1588Y3.5745
G1X6.1766Y3.5463
G1X6.1932Y3.5173
G1X6.2129Y3.4785
G1X6.2378Y3.4700
G1X6.2644Y3.4593
G1X6.2925Y3.4457
G1X6.3218Y3.4286
G1X6.3516Y3.4075
G1X6.3809Y3.3819
G1X6.3989Y3.3624
G1X6.4171Y3.3403
G1X6.4249Y3.3297
G1X6.4407Y3.3052
G1X6.4474Y3.2932
G1X6.4601Y3.2675
G1X6.4711Y3.2417
G1X6.4831Y3.2017
G1X6.4905Y3.1638
G1X6.4948Y3.1269
G1X6.4966Y3.0909
G1X6.4958Y3.0546
G1X6.4922Y3.0181
G1X6.4858Y2.9819
G1X6.4764Y2.9461
G1X6.4642Y2.9113
G1X6.4493Y2.8779
G1X6.4319Y2.8460
G1X6.4124Y2.8161
G1X6.3911Y2.7881
G1X6.3682Y2.7623
G1X6.3441Y2.7385
G1X6.3191Y2.7167
G1X6.2932Y2.6968
G1X6.2555Y2.6707
G1X6.2322Y2.6560
G1X6.2131Y2.6467
G1X6.1712Y2.6305
G1X6.1639Y2.6285
G1X6.1167Y2.6197
G1X6.1130Y2.6194
G1X6.0735Y2.6191
G1X6.0698Y2.6194
G1X6.0269Y2.6262
G1X6.0232Y2.6271
G1X5.9810Y2.6417
G1X5.9773Y2.6433
G1X5.9399Y2.6641
G1X5.9363Y2.6665
G1X5.9061Y2.6904
G1X5.9025Y2.6937
G1X5.8804Y2.7169
G1X5.8768Y2.7212
G1X5.8545Y2.7523
G1X5.8521Y2.7564
G1X5.8315Y2.7987
G1X5.8301Y2.8026
G2X5.8167Y2.8549I0.2355J0.0880
G1X5.8162Y2.8586
G2X5.8145Y2.9144I0.2489J0.0357
G1X5.8148Y2.9179
G1X5.8219Y2.9603
G1X5.8068Y2.9730
G1X5.7882Y2.9906
G1X5.7689Y3.0108
G1X5.7403Y3.0452
G1X5.7146Y3.0821
G1X5.6714Y3.1552
G1X5.6545Y3.1812
G1X5.6362Y3.2053
G1X5.6166Y3.1978
G1X5.5895Y3.1852
G1X5.5749Y3.1776
G1X5.5371Y3.1565
G1X5.4647Y3.1129
G1X5.3921Y3.0669
G1X5.3197Y3.0189
G1X5.2474Y2.9694
G1X5.1751Y2.9184
G1X5.1026Y2.8664
G1X4.8069Y2.6508
G1X4.7304Y2.5963
G1X4.6753Y2.5579
G1X4.6960Y2.5453
G1X4.8202Y2.4749
G1X4.8571Y2.4528
G1X4.8929Y2.4299
G1X4.9836Y2.3685
G1X5.0162Y2.3449
G1X5.0498Y2.3190
G1X5.0841Y2.2903
G1X5.1233Y2.2534
G1X5.1418Y2.2563
G1X5.1620Y2.2574
G1X5.1944Y2.2569
G1X5.2006Y2.2565
G1X5.2396Y2.2503
G1X5.2450Y2.2490
G1X5.2890Y2.2341
G1X5.2936Y2.2320
G2X5.3382Y2.2063I-0.1025J-0.2295
G1X5.3421Y2.2035
G2X5.3814Y2.1683I-0.1472J-0.2038
G1X5.3846Y2.1648
G1X5.4140Y2.1250
G1X5.4165Y2.1208
G1X5.4354Y2.0819
G1X5.4373Y2.0770
G1X5.4478Y2.0424
G1X5.4490Y2.0370
G1X5.4538Y2.0079
G1X5.4557Y1.9900
G1X5.4560Y1.9577
G1X5.4522Y1.9192
G1X5.4470Y1.8900
G1X5.4411Y1.8649
G1X5.4339Y1.8399
G1X5.4252Y1.8154
G1X5.4152Y1.7913
G1X5.4038Y1.7679
G1X5.3910Y1.7454
G1X5.3770Y1.7238
G1X5.3619Y1.7033
G1X5.3437Y1.6815
G1X5.3124Y1.6499
G1X5.2772Y1.6213
G1X5.2419Y1.5978
G1X5.2076Y1.5788
G1X5.1748Y1.5634
G1X5.1440Y1.5510
G1X5.1140Y1.5404
G1X5.0654Y1.5254
G1X4.9951Y1.5055
G1X4.9670Y1.4990
G1X4.9206Y1.4908
G1X4.8771Y1.4852
G1X4.7816Y1.4750
G1X4.7541Y1.4702
G1X4.7119Y1.4597
G1X4.6764Y1.4535
G1X4.6412Y1.4495
G1X4.6064Y1.4476
G1X4.5720Y1.4476
G1X4.5583Y1.4483
G1X4.5571Y1.4094
G1X4.5548Y1.3836
G1X4.5516Y1.3583
G1X4.5472Y1.3311
G1X4.5369Y1.2849
G1X4.5230Y1.2383
G1X4.5066Y1.1937
G1X4.4880Y1.1512
G1X4.4674Y1.1105
G1X4.4454Y1.0717
G1X4.4220Y1.0347
G1X4.3977Y0.9993
G1X4.3725Y0.9654
G1X4.3466Y0.9330
G1X4.3203Y0.9019
G1X4.2937Y0.8721
G1X4.2456Y0.8212
G1X4.2182Y0.7952
G1X4.1887Y0.7702
G1X4.1550Y0.7448
G1X4.1364Y0.7330
G1X4.0928Y0.7110
G1X4.0835Y0.7075
G1X4.0385Y0.6947
G1X4.0342Y0.6939
G1X3.9973Y0.6899
G1X3.9932Y0.6898
G1X3.9512Y0.6918
G1X3.9473Y0.6923
G1X3.9021Y0.7027
G1X3.8985Y0.7039
G1X3.8537Y0.7236
G1X3.8504Y0.7254
G1X3.8103Y0.7534
G1X3.8074Y0.7560
G1X3.7751Y0.7892
G1X3.7725Y0.7923
G1X3.7491Y0.8270
G1X3.7469Y0.8308
G1X3.7313Y0.8640
G1X3.7296Y0.8685
G1X3.7201Y0.8986
G1X3.7148Y0.9236
G1X3.6913Y0.9609
G1X3.6704Y0.9958
G1X3.6498Y1.0321
G1X3.6299Y1.0699
G1X3.6109Y1.1094
G1X3.5931Y1.1506
G1X3.5769Y1.1938
G1X3.5625Y1.2389
G1X3.5561Y1.2641
G1X3.5270Y1.2592
G1X3.4680Y1.2531
G1X3.3998Y1.2477
G1X3.3747Y1.2443
G1X3.3594Y1.2193
G1X3.3385Y1.1912
G1X3.3206Y1.1701
G1X3.2907Y1.1421
G1X3.2590Y1.1178
G1X3.2358Y1.1035
G1X3.2101Y1.0895
G1X3.1977Y1.0838
G1X3.1620Y1.0703
G1X3.1502Y1.0668
G1X3.1121Y1.0587
G1X3.1065Y1.0580
G1X3.0727Y1.0559
G1X3.0675Y1.0559
G1X3.0246Y1.0598
G1X3.0179Y1.0610
G1X2.9732Y1.0732
G1X2.9672Y1.0755
G1X2.9258Y1.0956
G1X2.9204Y1.0989
G1X2.8858Y1.1240
G1X2.8811Y1.1281
G1X2.8547Y1.1548
G1X2.8505Y1.1596
G1X2.8315Y1.1850
G1X2.8279Y1.1905
G1X2.8100Y1.2227
G1X2.8041Y1.2353
G1X2.7941Y1.2605
G1X2.7399Y1.1432
G1X2.7056Y1.1396
G1X2.6972Y1.1392
G1X2.6563Y1.1393
G1X2.6475Y1.1399
G1X2.6129Y1.1437
G1X2.5893Y1.1476
G1X2.5533Y1.1566
G1X2.5168Y1.1686
G1X2.4836Y1.1830
G1X2.4520Y1.1986
G1X2.4262Y1.2130
G1X2.3968Y1.2315
G1X2.3708Y1.2490
G1X2.3451Y1.2675
G1X2.3197Y1.2871
G1X2.2947Y1.3079
G1X2.2701Y1.3298
G1X2.2462Y1.3530
G1X2.2306Y1.3693
G1X2.2159Y1.3582
G1X2.2069Y1.3492
G1X2.1721Y1.3039
G1X2.1485Y1.2777
G1X2.1250Y1.2542
G1X2.1109Y1.2413
G1X2.0798Y1.2159
G1X2.0660Y1.2059
G1X2.0255Y1.1807
G1X2.0119Y1.1734
G1X1.9616Y1.1515
G1X1.9483Y1.1469
G2X1.8899Y1.1321I-0.1148J0.3317
G1X1.8769Y1.1300
G2X1.8152Y1.1254I-0.0565J0.3464
G1X1.8023Y1.1256
G1X1.7434Y1.1315
G1X1.7307Y1.1339
G1X1.6793Y1.1475
G1X1.6667Y1.1519
G1X1.6249Y1.1695
G1X1.6124Y1.1758
G1X1.5798Y1.1943
G1X1.5546Y1.2105
G1X1.5207Y1.2368
G1X1.4921Y1.2622
G1X1.4677Y1.2864
G1X1.4461Y1.3097
G1X1.4237Y1.3355
G1X1.3997Y1.3662
G1X1.3755Y1.4010
G1X1.3514Y1.4412
G1X1.3302Y1.4842
G1X1.3158Y1.5211
G1X1.2992Y1.5241
G1X1.2598Y1.5330
G1X1.2183Y1.5447
G1X1.1750Y1.5598
G1X1.1300Y1.5791
G1X1.0837Y1.6034
G1X1.0407Y1.6311
G1X1.0142Y1.6511
G1X0.9912Y1.6703
G1X0.9687Y1.6913
G1X0.9470Y1.7140
G1X0.9262Y1.7385
G1X0.9066Y1.7645
G1X0.8883Y1.7920
G1X0.8716Y1.8209
G1X0.8566Y1.8508
G1X0.8518Y1.8622
G1X0.8004Y1.8925
G1X0.7550Y1.9248
G1X0.7124Y1.9604
G1X0.6729Y1.9990
G1X0.6368Y2.0402
G1X0.6044Y2.0837
G1X0.5757Y2.1288
G1X0.5506Y2.1753
G1X0.5292Y2.2226
G1X0.5112Y2.2705
G1X0.4964Y2.3187
G1X0.4845Y2.3670
G1X0.4754Y2.4154
G1X0.4691Y2.4610
G1X0.4650Y2.5033
G1X0.4623Y2.5431
G1X0.4606Y2.5809
G1X0.4563Y2.7270
G1X0.4531Y2.7671
G1X0.4484Y2.7970
G1X0.4429Y2.8180
G1X0.4312Y2.8499
G1X0.4212Y2.8821
G1X0.4139Y2.9102
G1X0.4067Y2.9546
G1X0.4037Y2.9982
G1X0.4045Y3.0403
G1X0.4086Y3.0807
G1X0.4155Y3.1190
G1X0.4249Y3.1553
G1X0.4362Y3.1894
G1X0.4491Y3.2215
G1X0.4635Y3.2517
G1X0.4790Y3.2801
G1X0.4955Y3.3069
G1X0.5130Y3.3322
G1X0.5223Y3.3444
G1X0.5287Y3.4132
G1X0.5375Y3.4706
G1X0.5439Y3.5030
G1X0.5508Y3.5330
G1X0.5585Y3.5630
G1X0.5673Y3.5929
G1X0.5770Y3.6228
G1X0.5877Y3.6526
G1X0.5994Y3.6823
G1X0.6123Y3.7118
G1X0.6262Y3.7411
G1X0.6413Y3.7702
G1X0.6575Y3.7989
G1X0.6761Y3.8292
G1X0.7021Y3.8673
G1X0.7310Y3.9047
G1X0.7614Y3.9397
G1X0.7930Y3.9723
G1X0.8256Y4.0024
G1X0.8589Y4.0303
G1X0.8926Y4.0558
G1X0.9265Y4.0793
G1X0.9606Y4.1008
G1X0.9876Y4.1164
G1X0.9900Y4.1619
G1X0.9961Y4.2102
G1X1.0051Y4.2564
G1X1.0138Y4.2896
G1X1.0235Y4.3208
G1X1.0362Y4.3546
G1X1.0531Y4.3912
G1X1.0665Y4.4149
G1X1.0862Y4.4457
G1X1.0929Y4.4551
G1X1.1205Y4.4891
G1X1.1280Y4.4972
G1X1.1655Y4.5323
G1X1.1738Y4.5390
G1X1.2218Y4.5716
G1X1.2309Y4.5767
G2X1.2875Y4.6024I0.1725J-0.3057
G1X1.2975Y4.6059
G2X1.3580Y4.6211I0.1159J-0.3313
G1X1.3690Y4.6229
G1X1.4274Y4.6273
G1X1.4394Y4.6272
G1X1.4915Y4.6229
G1X1.5045Y4.6208
G1X1.5482Y4.6109
G1X1.5623Y4.6068
G1X1.5978Y4.5943
G1X1.6261Y4.5822
G1X1.6489Y4.5917
G1X1.6900Y4.6066
G1X1.7319Y4.6196
G1X1.7746Y4.6306
G1X1.8181Y4.6394
G1X1.8623Y4.6460
G1X1.9070Y4.6502
G1X1.9522Y4.6520
G1X1.9976Y4.6513
G1X2.0438Y4.6478
G1X2.0540Y4.6594
G1X2.0824Y4.6878
G1X2.1130Y4.7149
G1X2.1458Y4.7403
G1X2.1806Y4.7638
G1X2.2172Y4.7852
G1X2.2552Y4.8042
G1X2.2946Y4.8207
G1X2.3400Y4.8364
G1X2.3684Y4.8434
G1X2.4046Y4.8504
G1X2.4166Y4.8520
G1X2.4690Y4.8552
G1X2.4801Y4.8551
G1X2.5325Y4.8505
G1X2.5376Y4.8496
G1X2.5793Y4.8402
G1X2.5841Y4.8387
G1X2.6296Y4.8219
G1X2.6341Y4.8199
G1X2.6808Y4.7945
G1X2.6850Y4.7918
G1X2.7292Y4.7579
G1X2.7329Y4.7545
G1X2.7710Y4.7144
G1X2.7743Y4.7103
G1X2.8040Y4.6673
G1X2.8069Y4.6624
G1X2.8280Y4.6200
G1X2.8304Y4.6143
G1X2.8441Y4.5752
G1X2.8460Y4.5686
G1X2.8540Y4.5339
G1X2.8545Y4.5310
G1X2.8742Y4.5184
G1X2.9527Y4.4757
G1X3.0020Y4.4466
G1X3.0510Y4.4146
G1X3.0973Y4.3809
G1X3.1230Y4.3606
G1X3.1619Y4.3270
G1X3.2008Y4.3325
G1X3.2141Y4.3337
G1X3.2627Y4.3345
G1X3.3019Y4.3324
G1X3.3466Y4.3281
G1X3.4637Y4.3137
G1X3.4768Y4.3129
G1X3.5415Y4.3125
G1X3.5968Y4.3093
G1X3.6512Y4.3031
G1X3.7044Y4.2942
G1X3.7564Y4.2826
G1X3.8068Y4.2685
G1X3.8557Y4.2521
G1X3.9029Y4.2336
G1X3.9484Y4.2133
G1X3.9921Y4.1913
G1X4.0317Y4.1693
G1X4.0390Y4.1887
G1X4.0514Y4.2180
G1X4.0654Y4.2475
G1X4.0811Y4.2770
G1X4.0987Y4.3066
G1X4.1182Y4.3360
G1X4.1399Y4.3653
G1X4.1640Y4.3942
G1X4.1906Y4.4225
G1X4.2198Y4.4499
G1X4.2422Y4.4683
G1X4.2598Y4.4818
G2X4.2580Y4.5430I0.3486J0.0408
G1X4.2584Y4.5487
G2X4.2728Y4.6299I0.3504J-0.0204
G1X4.2745Y4.6355
G2X4.3119Y4.7184I0.3360J-0.1016
G1X4.3151Y4.7237
G2X4.3686Y4.7905I0.2986J-0.1845
G1X4.3737Y4.7954
G2X4.4289Y4.8393I0.2450J-0.2513
G1X4.4360Y4.8439
G1X4.4835Y4.8695
G1X4.4929Y4.8737
G1X4.5306Y4.8879
G1X4.5559Y4.8958
G1X4.5814Y4.9012
G1X4.6157Y4.9067
G1X4.6248Y4.9077
G1X4.6608Y4.9098
G1X4.6696Y4.9099
G1X4.7062Y4.9083
G1X4.7147Y4.9074
G1X4.7506Y4.9021
G1X4.7590Y4.9004
G1X4.7931Y4.8916
G1X4.8012Y4.8891
G1X4.8326Y4.8777
G1X4.8549Y4.8684
G1X4.8890Y4.8504
G1X4.9195Y4.8310
G1X4.9465Y4.8108
G1X4.9740Y4.7872
G1X4.9980Y4.7628
G1X5.0202Y4.7378
G1X5.0379Y4.7159
G1X5.0677Y4.6753
G1X5.0947Y4.6360
G1X5.1212Y4.5946
G1X5.1467Y4.5508
G1X5.1709Y4.5046
G1X5.1935Y4.4556
G1X5.2138Y4.4037
G1X5.2303Y4.3520
G1X5.2386Y4.3206
G1X5.2451Y4.2914
G1X5.2507Y4.2615
G1X5.2551Y4.2310
G1X5.2583Y4.1999
G1X5.2603Y4.1683
G1X5.2610Y4.1363
G1X5.2603Y4.1039
G1X5.2582Y4.0713
G1X5.2546Y4.0386
G1X5.2496Y4.0058
G1X5.2432Y3.9730
G1X5.2353Y3.9404
G1X5.2260Y3.9080
G1X5.2153Y3.8759
G1X5.2032Y3.8440
G1X5.1789Y3.7881
G1X5.2104Y3.8072
G1X5.2833Y3.8495
G1X5.3164Y3.8672
G1X5.3514Y3.8840
G1X5.3871Y3.8991
G1X5.4235Y3.9126
G1X5.4606Y3.9243
G1X5.4983Y3.9341
G1X5.5365Y3.9420
G1X5.5752Y3.9478
G1X5.6143Y3.9515
G1X5.6536Y3.9530
G1X5.6931Y3.9523
G1X5.7325Y3.9493
G1X5.7717Y3.9440
G1X5.8106Y3.9364
G1X5.8489Y3.9265
G1X5.8865Y3.9143
G1X5.9233Y3.9000
G1X5.9590Y3.8835
G1X5.9936Y3.8651
G1X6.0269Y3.8448
G1X6.0590Y3.8228
G1X6.0895Y3.7991
G1X6.1187Y3.7739
G1X6.1463Y3.7474
G1X6.1724Y3.7196
G1X6.1970Y3.6906
G1X6.2201Y3.6606
G1X6.2418Y3.6296
G1X6.2619Y3.5977
G1X6.2839Y3.5589
G1X6.3048Y3.5504
G1X6.3394Y3.5337
G1X6.3758Y3.5124
G1X6.3990Y3.4959
G1X6.4265Y3.4743
G1X6.4361Y3.4659
G1X6.4633Y3.4394
G1X6.4721Y3.4300
G1X6.4975Y3.3991
G1X6.5053Y3.3884
G1X6.5274Y3.3542
G1X6.5341Y3.3423
G1X6.5518Y3.3064
G1X6.5574Y3.2932
G1X6.5704Y3.2573
G1X6.5748Y3.2426
G1X6.5833Y3.2083
G1X6.5890Y3.1791
G1X6.5942Y3.1352
G1X6.5963Y3.0923
G1X6.5953Y3.0486
G1X6.5910Y3.0045
G1X6.5831Y2.9605
G1X6.5717Y2.9170
G1X6.5568Y2.8745
G1X6.5386Y2.8337
G1X6.5175Y2.7949
G1X6.4938Y2.7586
G1X6.4680Y2.7248
G1X6.4406Y2.6938
G1X6.4118Y2.6654
G1X6.3822Y2.6396
G1X6.3519Y2.6163
G1X6.3106Y2.5877
G1X6.2965Y2.5788
G1X6.2642Y2.5608
G1X6.2570Y2.5573
G2X6.1985Y2.5348I-0.1548J0.3150
G1X6.1912Y2.5327
G2X6.1253Y2.5205I-0.0963J0.3375
G1X6.1216Y2.5202
G1X6.0665Y2.5198
G1X6.0628Y2.5200
G2X6.0029Y2.5295I0.0247J0.3501
G1X5.9992Y2.5304
G2X5.9402Y2.5508I0.0846J0.3406
G1X5.9366Y2.5524
G2X5.8843Y2.5814I0.1436J0.3203
G1X5.8807Y2.5839
G1X5.8385Y2.6172
G1X5.8349Y2.6205
G1X5.8041Y2.6529
G1X5.8005Y2.6572
G1X5.7693Y2.7007
G1X5.7669Y2.7047
G2X5.7382Y2.7639I0.3001J0.1820
G1X5.7368Y2.7677
G2X5.7181Y2.8408I0.3288J0.1228
G1X5.7176Y2.8444
G2X5.7152Y2.9224I0.3474J0.0498
G1X5.7152Y2.9228
G1X5.6945Y2.9444
G1X5.6610Y2.9848
G1X5.6309Y3.0279
G1X5.6010Y3.0782
G1X5.5871Y3.0704
G1X5.5171Y3.0282
G1X5.4463Y2.9833
G1X5.3754Y2.9363
G1X5.3043Y2.8876
G1X5.2328Y2.8373
G1X5.1610Y2.7857
G1X4.8603Y2.5666
G1X4.9095Y2.5375
G1X4.9474Y2.5133
G1X5.0081Y2.4727
G1X5.0411Y2.4498
G1X5.0759Y2.4247
G1X5.1123Y2.3966
G1X5.1499Y2.3651
G1X5.1587Y2.3569
G1X5.2022Y2.3562
G1X5.2083Y2.3558
G1X5.2628Y2.3472
G1X5.2682Y2.3459
G2X5.3296Y2.3250I-0.0817J-0.3413
G1X5.3342Y2.3229
G2X5.3965Y2.2870I-0.1432J-0.3205
G1X5.4004Y2.2842
G2X5.4552Y2.2352I-0.2055J-0.2846
G1X5.4584Y2.2316
G2X5.4995Y2.1761I-0.2603J-0.2355
G1X5.5020Y2.1719
G2X5.5284Y2.1175I-0.3013J-0.1800
G1X5.5303Y2.1126
G1X5.5449Y2.0644
G1X5.5462Y2.0589
G1X5.5529Y2.0184
G1X5.5555Y1.9725
G1X5.5538Y1.9341
G1X5.5509Y1.9054
G1X5.5445Y1.8699
G1X5.5375Y1.8397
G1X5.5288Y1.8095
G1X5.5183Y1.7796
G1X5.5060Y1.7502
G1X5.4919Y1.7215
G1X5.4762Y1.6937
G1X5.4589Y1.6671
G1X5.4403Y1.6418
G1X5.4174Y1.6144
G1X5.3926Y1.5894
G1X5.3648Y1.5642
G1X5.3493Y1.5515
G1X5.3224Y1.5317
G1X5.2937Y1.5126
G1X5.2528Y1.4900
G1X5.2145Y1.4721
G1X5.1792Y1.4578
G1X5.1454Y1.4459
G1X5.0939Y1.4300
G1X5.0193Y1.4088
G1X4.9868Y1.4014
G1X4.9357Y1.3923
G1X4.8885Y1.3863
G1X4.7958Y1.3764
G1X4.7770Y1.3732
G1X4.7324Y1.3622
G1X4.6906Y1.3549
G1X4.6511Y1.3505
G1X4.6450Y1.3121
G1X4.6333Y1.2599
G1X4.6176Y1.2069
G1X4.5990Y1.1565
G1X4.5781Y1.1087
G1X4.5552Y1.0634
G1X4.5309Y1.0206
G1X4.5052Y0.9799
G1X4.4787Y0.9413
G1X4.4514Y0.9046
G1X4.4236Y0.8697
G1X4.3955Y0.8365
G1X4.3672Y0.8049
G1X4.3159Y0.7506
G1X4.2847Y0.7210
G1X4.2510Y0.6924
G1X4.2117Y0.6628
G1X4.1896Y0.6488
G2X4.1287Y0.6181I-0.1875J0.2967
G1X4.1194Y0.6146
G2X4.0566Y0.5968I-0.1265J0.3274
G1X4.0523Y0.5960
G1X4.0008Y0.5904
G1X3.9967Y0.5902
G1X3.9380Y0.5931
G1X3.9341Y0.5936
G2X3.8710Y0.6081I0.0464J0.3479
G1X3.8674Y0.6092
G2X3.8049Y0.6368I0.1095J0.3335
G1X3.8016Y0.6386
G2X3.7456Y0.6777I0.1721J0.3059
G1X3.7427Y0.6802
G2X3.6976Y0.7266I0.2281J0.2668
G1X3.6950Y0.7298
G1X3.6623Y0.7781
G1X3.6601Y0.7820
G1X3.6383Y0.8283
G1X3.6366Y0.8328
G1X3.6234Y0.8748
G1X3.6207Y0.8860
G1X3.5843Y0.9456
G1X3.5624Y0.9843
G1X3.5409Y1.0251
G1X3.5203Y1.0680
G1X3.5007Y1.1133
G1X3.4851Y1.1548
G1X3.4331Y1.1506
G1X3.4142Y1.1265
G1X3.4053Y1.1160
G1X3.3786Y1.0880
G1X3.3679Y1.0780
G1X3.3415Y1.0556
G1X3.3297Y1.0465
G1X3.3006Y1.0264
G1X3.2882Y1.0188
G1X3.2523Y0.9993
G1X3.2399Y0.9935
G1X3.1901Y0.9747
G1X3.1782Y0.9712
G1X3.1250Y0.9600
G1X3.1195Y0.9593
G1X3.0723Y0.9563
G1X3.0671Y0.9563
G2X3.0071Y0.9617I0.0015J0.3510
G1X3.0004Y0.9629
G2X2.9381Y0.9800I0.0615J0.3456
G1X2.9321Y0.9823
G2X2.8742Y1.0104I0.1238J0.3284
G1X2.8689Y1.0136
G2X2.8206Y1.0488I0.1817J0.3003
G1X2.8159Y1.0529
G1X2.7789Y1.0901
G1X2.7748Y1.0949
G1X2.7483Y1.1303
G1X2.7399Y1.1432
G0Z0.2000
G0X3.2778Y2.3204
G1Z-0.1000F40.0
G1X3.3001Y2.3375F120.0
G1X3.2788Y2.3434
G1X3.2778Y2.3204
G0Z0.2000
G0X3.3372Y3.3075
G1Z-0.1000F40.0
G1X3.3340Y3.2761F120.0
G1X3.3302Y3.2518
G1X3.3255Y3.2275
G1X3.3197Y3.2035
G1X3.3131Y3.1796
G1X3.3001Y3.1414
G1X3.3308Y3.1440
G1X3.3531Y3.1476
G1X3.3658Y3.1513
G1X3.3819Y3.1575
G1X3.3969Y3.1647
G1X3.4128Y3.1738
G1X3.4297Y3.1847
G1X3.4563Y3.2043
G1X3.4243Y3.2261
G1X3.3974Y3.2481
G1X3.3720Y3.2715
G1X3.3476Y3.2962
G1X3.3372Y3.3075
G0Z0.2000
G0X0.7687Y4.6867
G1Z-0.1000F40.0
G1X0.8199Y4.7506F120.0
G1X0.7494
G1Y4.6591
G1X0.7687Y4.6867
G1X0.8498Y4.6288
G2X0.9009Y4.6917I0.5288J-0.3777
G1X0.9084Y4.6998
G2X0.9778Y4.7648I0.4776J-0.4406
G1X0.9861Y4.7715
G2X1.0750Y4.8318I0.4082J-0.5056
G1X1.1088Y4.8502
G1X0.6498
G1Y4.2449
G1X0.6726Y4.2640
G1X0.7073Y4.2903
G1X0.7136Y4.3228
G1X0.7264Y4.3719
G1X0.7409Y4.4181
G1X0.7523Y4.4484
G1X0.7699Y4.4905
G1X0.7753Y4.5023
G1X0.8006Y4.5518
G1X0.8067Y4.5624
G1X0.8430Y4.6193
G1X0.8498Y4.6288
G1X0.9308Y4.5709
G1X0.9741Y4.6241
G1X0.9816Y4.6323
G2X1.0404Y4.6873I0.4044J-0.3730
G1X1.0487Y4.6940
G2X1.1239Y4.7451I0.3456J-0.4281
G1X1.1330Y4.7502
G2X1.2217Y4.7904I0.2704J-0.4792
G1X1.2318Y4.7939
G2X1.3265Y4.8178I0.1817J-0.5193
G1X1.3375Y4.8196
G2X1.4291Y4.8265I0.0869J-0.5433
G1X1.4411Y4.8264
G2X1.5227Y4.8196I-0.0047J-0.5502
G1X1.5357Y4.8175
G1X1.6043Y4.8021
G1X1.6268Y4.7954
G1X1.6776Y4.8113
G1X1.7300Y4.8248
G1X1.7836Y4.8357
G1X1.8382Y4.8438
G1X1.8937Y4.8490
G1X1.9498Y4.8513
G1X1.9663Y4.8510
G1X1.9859Y4.8684
G1X2.0289Y4.9017
G1X2.0745Y4.9325
G1X2.1041Y4.9498
G1X0.5502
G1Y3.9965
G1X0.5768Y4.0310
G1X0.6146Y4.0745
G1X0.6538Y4.1148
G1X0.6939Y4.1520
G1X0.7347Y4.1861
G1X0.7757Y4.2172
G1X0.7982Y4.2328
G1X0.8028Y4.2597
G1X0.8108Y4.3007
G1X0.8222Y4.3445
G1X0.8351Y4.3857
G1X0.8523Y4.4314
G1X0.8658Y4.4607
G1X0.8872Y4.5026
G1X0.8933Y4.5133
G1X0.9241Y4.5615
G1X0.9308Y4.5709
G0Z0.2000
G0X3.8914Y4.7452
G1Z-0.1000F40.0
G1X3.8931Y4.7506F120.0
G1X3.2651
G1X3.2921Y4.7319
G1X3.3313Y4.7298
G1X3.3905Y4.7242
G1X3.4940Y4.7111
G1X3.5540Y4.7109
G1X3.6308Y4.7064
G1X3.7066Y4.6978
G1X3.7810Y4.6853
G1X3.8343Y4.6734
G1X3.8712Y4.6642
G1X3.8719Y4.6650
G1X3.8914Y4.7452
G1X3.9868Y4.7164
G1X3.9884Y4.7219
G2X4.0428Y4.8502I0.6220J-0.1880
G1X3.0419
G1X3.0646Y4.8135
G2X3.1037Y4.7352I-0.5605J-0.3288
G1X3.1047Y4.7330
G1X3.1599Y4.7004
G1X3.2207Y4.6606
G1X3.2579Y4.6336
G1X3.3239Y4.6304
G1X3.3795Y4.6252
G1X3.4884Y4.6116
G1X3.5509Y4.6113
G1X3.6223Y4.6071
G1X3.6927Y4.5992
G1X3.7618Y4.5875
G1X3.8292Y4.5725
G1X3.8786Y4.5587
G1X3.9056Y4.5505
G1X3.9401Y4.5922
G1X3.9653Y4.6191
G2X3.9868Y4.7164I0.6434J-0.0907
G1X4.0821Y4.6876
G1X4.0838Y4.6931
G2X4.1424Y4.8232I0.5267J-0.1592
G1X4.1457Y4.8284
G2X4.2296Y4.9331I0.4680J-0.2893
G1X4.2471Y4.9498
G1X2.8070
G1X2.8625Y4.9059
G1X2.8663Y4.9025
G2X2.9259Y4.8396I-0.3683J-0.4087
G1X2.9292Y4.8354
G2X2.9758Y4.7680I-0.4280J-0.3458
G1X2.9787Y4.7632
G2X3.0118Y4.6968I-0.4746J-0.2784
G1X3.0250Y4.6630
G1X3.0507Y4.6492
G1X3.1073Y4.6158
G1X3.1641Y4.5786
G1X3.2251Y4.5338
G1X3.2733Y4.5334
G1X3.3166Y4.5311
G1X3.3685Y4.5261
G1X3.4807Y4.5122
G1X3.5477Y4.5117
G1X3.6138Y4.5078
G1X3.6789Y4.5005
G1X3.7427Y4.4898
G1X3.8049Y4.4758
G1X3.8653Y4.4590
G1X3.9237Y4.4394
G1X3.9428Y4.4319
G1X3.9551Y4.4506
G1X3.9833Y4.4885
G1X4.0147Y4.5262
G1X4.0378Y4.5508
G1X4.0604Y4.5735
G2X4.0821Y4.6876I0.5483J-0.0451
G1X4.1774Y4.6587
G1X4.1791Y4.6643
G2X4.2271Y4.7708I0.4313J-0.1304
G1X4.2304Y4.7761
G2X4.2991Y4.8618I0.3833J-0.2369
G1X4.3042Y4.8667
G2X4.3750Y4.9231I0.3146J-0.3226
G1X4.3821Y4.9276
G2X4.4431Y4.9605I0.2437J-0.3790
G1X4.4525Y4.9647
G1X4.5009Y4.9829
G1X4.5105Y4.9859
G1X4.5513Y4.9966
G1X4.5607Y4.9986
G1X4.6047Y5.0057
G1X4.6138Y5.0067
G1X4.6600Y5.0094
G1X4.6689Y5.0095
G1X4.7158Y5.0074
G1X4.7244Y5.0066
G1X4.7705Y4.9997
G1X4.7788Y4.9980
G1X4.8226Y4.9868
G1X4.8307Y4.9843
G1X4.8711Y4.9696
G1X4.8789Y4.9663
G1X4.9152Y4.9492
G1X4.9391Y4.9366
G1X4.9761Y4.9130
G1X5.0088Y4.8886
G1X5.0272Y4.8728
G1X5.0559Y4.8460
G1X5.0691Y4.8325
G1X5.0977Y4.8004
G1X5.1168Y4.7767
G1X5.1489Y4.7330
G1X5.1778Y4.6910
G1X5.2062Y4.6465
G1X5.2339Y4.5991
G1X5.2604Y4.5485
G1X5.2852Y4.4946
G1X5.3077Y4.4371
G1X5.3260Y4.3798
G1X5.3353Y4.3442
G1X5.3427Y4.3114
G1X5.3489Y4.2777
G1X5.3539Y4.2433
G1X5.3576Y4.2082
G1X5.3599Y4.1725
G1X5.3606Y4.1363
G1X5.3598Y4.0996
G1X5.3574Y4.0628
G1X5.3534Y4.0257
G1X5.3480Y3.9906
G1X5.3913Y4.0069
G1X5.4331Y4.0200
G1X5.4757Y4.0311
G1X5.5190Y4.0400
G1X5.5631Y4.0467
G1X5.6076Y4.0509
G1X5.6526Y4.0527
G1X5.6978Y4.0519
G1X5.7430Y4.0484
G1X5.7880Y4.0423
G1X5.8327Y4.0335
G1X5.8767Y4.0221
G1X5.9200Y4.0082
G1X5.9622Y3.9917
G1X6.0032Y3.9728
G1X6.0429Y3.9517
G1X6.0811Y3.9284
G1X6.1177Y3.9032
G1X6.1526Y3.8762
G1X6.1858Y3.8476
G1X6.2171Y3.8175
G1X6.2467Y3.7860
G1X6.2745Y3.7533
G1X6.3005Y3.7195
G1X6.3247Y3.6848
G1X6.3473Y3.6491
G1X6.3541Y3.6371
G1X6.3862Y3.6217
G1X6.4125Y3.6063
G1X6.4463Y3.5845
G1X6.4567Y3.5772
G1X6.4919Y3.5494
G1X6.5016Y3.5410
G1X6.5365Y3.5070
G1X6.5494Y3.4930
G1Y5.0494
G1X0.4506
G1Y3.5416
G1X0.4625Y3.5894
G1X0.4721Y3.6222
G1X0.4827Y3.6551
G1X0.4945Y3.6878
G1X0.5075Y3.7205
G1X0.5216Y3.7531
G1X0.5370Y3.7854
G1X0.5537Y3.8176
G1X0.5717Y3.8495
G1X0.5924Y3.8833
G1X0.6214Y3.9258
G1X0.6539Y3.9678
G1X0.6880Y4.0071
G1X0.7234Y4.0435
G1X0.7598Y4.0772
G1X0.7968Y4.1082
G1X0.8342Y4.1365
G1X0.8717Y4.1624
G1X0.8914Y4.1749
G1X0.8977Y4.2260
G1X0.9079Y4.2785
G1X0.9180Y4.3170
G1X0.9293Y4.3532
G1X0.9443Y4.3930
G1X0.9563Y4.4191
G1X0.9739Y4.4534
G1X0.9799Y4.4641
G1X1.0051Y4.5036
G1X1.0119Y4.5130
G1X1.0473Y4.5566
G1X1.0548Y4.5647
G1X1.1029Y4.6098
G1X1.1112Y4.6165
G2X1.1729Y4.6583I0.2831J-0.3506
G1X1.1820Y4.6635
G2X1.2546Y4.6964I0.2214J-0.3924
G1X1.2647Y4.6999
G2X1.3422Y4.7195I0.1488J-0.4253
G1X1.3532Y4.7212
G2X1.4283Y4.7269I0.0712J-0.4449
G1X1.4403Y4.7268
G2X1.5071Y4.7212I-0.0039J-0.4506
G1X1.5201Y4.7192
G1X1.5763Y4.7065
G1X1.5904Y4.7024
G1X1.6272Y4.6898
G1X1.6582Y4.7011
G1X1.7047Y4.7155
G1X1.7523Y4.7277
G1X1.8009Y4.7375
G1X1.8503Y4.7449
G1X1.9004Y4.7496
G1X1.9510Y4.7516
G1X2.0043Y4.7505
G1X2.0247Y4.7697
G1X2.0495Y4.7916
G1X2.0874Y4.8210
G1X2.1275Y4.8482
G1X2.1698Y4.8728
G1X2.2137Y4.8947
G1X2.2589Y4.9137
G1X2.2920Y4.9252
G1X2.3319Y4.9370
G1X2.3445Y4.9401
G1X2.3910Y4.9490
G1X2.4031Y4.9507
G2X2.4703Y4.9548I0.0613J-0.4464
G1X2.4814Y4.9547
G2X2.5486Y4.9488I-0.0059J-0.4506
G1X2.5538Y4.9479
G1X2.6072Y4.9358
G1X2.6121Y4.9343
G1X2.6705Y4.9128
G1X2.6750Y4.9107
G2X2.7350Y4.8781I-0.1849J-0.4109
G1X2.7391Y4.8754
G2X2.7958Y4.8319I-0.2449J-0.3782
G1X2.7996Y4.8285
G2X2.8484Y4.7770I-0.3016J-0.3347
G1X2.8518Y4.7728
G2X2.8899Y4.7176I-0.3505J-0.2832
G1X2.8928Y4.7128
G1X2.9199Y4.6584
G1X2.9223Y4.6527
G1X2.9399Y4.6024
G1X2.9421Y4.5948
G1X3.0017Y4.5625
G1X3.0547Y4.5312
G1X3.1076Y4.4966
G1X3.1575Y4.4603
G1X3.1930Y4.4318
G1X3.2056Y4.4329
G1X3.2680Y4.4339
G1X3.3092Y4.4317
G1X3.3575Y4.4271
G1X3.4722Y4.4130
G1X3.4958Y4.4123
G1X3.5446Y4.4121
G1X3.6053Y4.4086
G1X3.6651Y4.4018
G1X3.7236Y4.3920
G1X3.7806Y4.3792
G1X3.8361Y4.3637
G1X3.8897Y4.3457
G1X3.9414Y4.3255
G1X3.9840Y4.3065
G1X3.9943Y4.3259
G1X4.0143Y4.3596
G1X4.0367Y4.3933
G1X4.0616Y4.4269
G1X4.0894Y4.4602
G1X4.1201Y4.4929
G1X4.1579Y4.5278
G1X4.1589Y4.5545
G2X4.1774Y4.6587I0.4498J-0.0262
G0Z0.2000
G0X5.7965Y4.5433
G1Z-0.1000F40.0
G1X5.8417Y4.5376F120.0
G1X5.8970Y4.5284
G1X5.9154Y4.5248
G1X5.9704Y4.5123
G1X5.9885Y4.5076
G1X6.0427Y4.4919
G1X6.0514Y4.4890
G1Y4.5514
G1X5.7939
G1X5.7965Y4.5433
G1X5.7849Y4.4448
G1X5.8532Y4.4355
G1X5.9210Y4.4222
G1X5.9880Y4.4049
G1X6.0538Y4.3836
G1X6.1180Y4.3586
G1X6.1510Y4.3434
G1Y4.6510
G1X5.6514
G1X5.6734Y4.5957
G1X5.6916Y4.5446
G1X5.7086Y4.4912
G1X5.7196Y4.4495
G1X5.7849Y4.4448
G1X5.7744Y4.3457
G1X5.8369Y4.3372
G1X5.8989Y4.3250
G1X5.9602Y4.3092
G1X6.0203Y4.2897
G1X6.0790Y4.2668
G1X6.1360Y4.2406
G1X6.1909Y4.2114
G1X6.2506Y4.1744
G1Y4.7506
G1X5.4913
G1X5.5286Y4.6803
G1X5.5603Y4.6115
G1X5.5894Y4.5371
G1X5.6129Y4.4634
G1X5.6257Y4.4150
G1X5.6355Y4.3714
G1X5.6392Y4.3511
G1X5.7118Y4.3505
G1X5.7744Y4.3457
G1X5.7639Y4.2466
G1X5.8206Y4.2389
G1X5.8768Y4.2279
G1X5.9324Y4.2135
G1X5.9869Y4.1959
G1X6.0401Y4.1751
G1X6.0917Y4.1514
G1X6.1416Y4.1248
G1X6.1895Y4.0957
G1X6.2353Y4.0642
G1X6.2788Y4.0305
G1X6.3200Y3.9949
G1X6.3502Y3.9658
G1Y4.8502
G1X5.3099
G1X5.3438Y4.8012
G1X5.3763Y4.7503
G1X5.4082Y4.6955
G1X5.4392Y4.6364
G1X5.4686Y4.5725
G1X5.4955Y4.5037
G1X5.5173Y4.4355
G1X5.5289Y4.3914
G1X5.5379Y4.3514
G1X5.5455Y4.3102
G1X5.5516Y4.2680
G1X5.5540Y4.2459
G1X5.5943Y4.2498
G1X5.6505Y4.2519
G1X5.7071Y4.2509
G1X5.7639Y4.2466
G1X5.7534Y4.1475
G1X5.8043Y4.1406
G1X5.8547Y4.1307
G1X5.9045Y4.1178
G1X5.9534Y4.1020
G1X6.0011Y4.0834
G1X6.0475Y4.0621
G1X6.0923Y4.0382
G1X6.1353Y4.0121
G1X6.1765Y3.9837
G1X6.2157Y3.9534
G1X6.2529Y3.9212
G1X6.2880Y3.8875
G1X6.3210Y3.8524
G1X6.3519Y3.8160
G1X6.3808Y3.7784
G1X6.4077Y3.7399
G1X6.4242Y3.7138
G1X6.4498Y3.6999
G1Y4.9498
G1X5.0904
G1X5.0920Y4.9484
G1X5.1270Y4.9157
G1X5.1403Y4.9022
G1X5.1752Y4.8630
G1X5.1958Y4.8375
G1X5.2301Y4.7907
G1X5.2608Y4.7461
G1X5.2912Y4.6984
G1X5.3211Y4.6473
G1X5.3498Y4.5924
G1X5.3769Y4.5336
G1X5.4016Y4.4704
G1X5.4216Y4.4077
G1X5.4321Y4.3678
G1X5.4403Y4.3314
G1X5.4472Y4.2940
G1X5.4528Y4.2557
G1X5.4569Y4.2165
G1X5.4594Y4.1767
G1X5.4601Y4.1296
G1X5.5016Y4.1381
G1X5.5509Y4.1456
G1X5.6010Y4.1503
G1X5.6515Y4.1523
G1X5.7024Y4.1514
G1X5.7534Y4.1475
G0Z0.2000
G0X5.4515Y2.5978
G1Z-0.1000F40.0
G1X5.4962Y2.5761F120.0
G1X5.4672Y2.6369
G1X5.4266Y2.6083
G1X5.4515Y2.5978
G1X5.4109Y2.5069
G1X5.4155Y2.5048
G2X5.5131Y2.4486I-0.2244J-0.5024
G1X5.5170Y2.4457
G2X5.6029Y2.3688I-0.3221J-0.4461
G1X5.6061Y2.3653
G2X5.6706Y2.2782I-0.4080J-0.3692
G1X5.6731Y2.2740
G2X5.7145Y2.1888I-0.4724J-0.2821
G1X5.7163Y2.1839
G2X5.7392Y2.1083I-0.5138J-0.1969
G1X5.7405Y2.1028
G1X5.7510Y2.0393
G1X5.7516Y2.0332
G1X5.7546Y1.9812
G1X5.7547Y1.9746
G1X5.7520Y1.9144
G1X5.7505Y1.8996
G1X5.7445Y1.8565
G1X5.7397Y1.8296
G1X5.7303Y1.7893
G1X5.7185Y1.7487
G1X5.7043Y1.7082
G1X5.6875Y1.6680
G1X5.6682Y1.6286
G1X5.6466Y1.5904
G1X5.6228Y1.5536
G1X5.5971Y1.5188
G1X5.5801Y1.4984
G1X5.5483Y1.4634
G1X5.5341Y1.4491
G1X5.4905Y1.4096
G1X5.4750Y1.3970
G1X5.4328Y1.3659
G1X5.4161Y1.3548
G1X5.3776Y1.3314
G1X5.3434Y1.3124
G1X5.2940Y1.2893
G1X5.2496Y1.2715
G1X5.2080Y1.2567
G1X5.1510Y1.2391
G1X5.0678Y1.2156
G1X5.0265Y1.2061
G1X4.9657Y1.1953
G1X4.9114Y1.1883
G1X4.8240Y1.1792
G1X4.8168Y1.1778
G1X4.8067Y1.1440
G1X4.7839Y1.0820
G1X4.7584Y1.0238
G1X4.7309Y0.9693
G1X4.7018Y0.9182
G1X4.6716Y0.8703
G1X4.6407Y0.8253
G1X4.6092Y0.7831
G1X4.5775Y0.7433
G1X4.5458Y0.7058
G1X4.5142Y0.6704
G1X4.4566Y0.6094
G1X4.4177Y0.5726
G1X4.3913Y0.5502
G1X6.4498
G1Y2.4419
G1X6.4207Y2.4217
G1X6.4026Y2.4103
G1X6.3520Y2.3820
G1X6.3448Y2.3785
G2X6.2532Y2.3432I-0.2426J0.4938
G1X6.2459Y2.3411
G2X6.1426Y2.3221I-0.1510J0.5291
G1X6.1389Y2.3217
G2X6.0525Y2.3210I-0.0477J0.5481
G1X6.0488Y2.3213
G2X5.9548Y2.3362I0.0387J0.5488
G1X5.9512Y2.3371
G2X5.8587Y2.3690I0.1327J0.5340
G1X5.8551Y2.3707
G2X5.7731Y2.4162I0.2252J0.5020
G1X5.7695Y2.4186
G2X5.7033Y2.4709I0.3071J0.4565
G1X5.6998Y2.4742
G1X5.6514Y2.5249
G1X5.6478Y2.5292
G2X5.5990Y2.5974I0.4216J0.3535
G1X5.5966Y2.6014
G2X5.5516Y2.6942I0.4705J0.2853
G1X5.5502Y2.6980
G2X5.5236Y2.7956I0.5154J0.1925
G1X5.4867Y2.7711
G1X5.4179Y2.7240
G1X5.3483Y2.6749
G1X5.2087Y2.5738
G1X5.2351Y2.5534
G2X5.3092Y2.5409I-0.0540J-0.5475
G1X5.3146Y2.5396
G2X5.4109Y2.5069I-0.1281J-0.5351
G0Z0.2000
G0X5.8878Y1.0986
G1Z-0.1000F40.0
G1X5.8342Y1.0482F120.0
G1X5.9518
G1Y1.1668
G1X5.9020Y1.1129
G1X5.8878Y1.0986
G1X5.8171Y1.1687
G2X5.7419Y1.1005I-0.6737J0.6678
G1X5.7264Y1.0879
G1X5.6537Y1.0343
G1X5.6369Y1.0232
G1X5.5706Y0.9828
G1X5.5528Y0.9730
G1X5.5057Y0.9486
G1X6.0514
G1Y1.5064
G1X6.0334Y1.4685
G1X6.0069Y1.4181
G1X6.0016Y1.4087
G1X5.9718Y1.3596
G1X5.9661Y1.3508
G1X5.9335Y1.3038
G1X5.9274Y1.2954
G1X5.8926Y1.2511
G1X5.8861Y1.2433
G1X5.8312Y1.1830
G1X5.8171Y1.1687
G1X5.7463Y1.2388
G1X5.6790Y1.1778
G1X5.6635Y1.1652
G1X5.5985Y1.1172
G1X5.5817Y1.1061
G1X5.5223Y1.0699
G1X5.5045Y1.0601
G1X5.4529Y1.0338
G1X5.4131Y1.0152
G1X5.3553Y0.9919
G1X5.3021Y0.9731
G1X5.2367Y0.9528
G1X5.1405Y0.9257
G1X5.0861Y0.9132
G1X5.0318Y0.9036
G1X5.0048Y0.8490
G1X6.1510
G1Y2.0230
G2X6.0522Y2.0218I-0.0598J0.8469
G1X6.0535Y1.9777
G2X6.0494Y1.8849I-0.8489J-0.0089
G1X6.0479Y1.8700
G1X6.0386Y1.8035
G1X6.0324Y1.7692
G1X6.0195Y1.7137
G1X6.0032Y1.6575
G1X5.9833Y1.6010
G1X5.9598Y1.5447
G1X5.9327Y1.4893
G1X5.9022Y1.4354
G1X5.8686Y1.3835
G1X5.8323Y1.3343
G1X5.8096Y1.3070
G1X5.7605Y1.2531
G1X5.7463Y1.2388
G1X5.6756Y1.3089
G1X5.6162Y1.2551
G1X5.6007Y1.2425
G1X5.5432Y1.2001
G1X5.5265Y1.1890
G1X5.4741Y1.1571
G1X5.4563Y1.1472
G1X5.4108Y1.1240
G1X5.3734Y1.1065
G1X5.3201Y1.0851
G1X5.2707Y1.0676
G1X5.2081Y1.0483
G1X5.1163Y1.0223
G1X5.0662Y1.0108
G1X4.9958Y0.9983
G1X4.9628Y0.9941
G1X4.9387Y0.9389
G1X4.9065Y0.8751
G1X4.8727Y0.8158
G1X4.8302Y0.7494
G1X6.2506
G1Y2.1372
G2X6.1598Y2.1236I-0.1557J0.7330
G1X6.1561Y2.1233
G2X6.0385Y2.1223I-0.0649J0.7466
G1X6.0348Y2.1226
G2X5.9371Y2.1360I0.0527J0.7475
G1X5.9491Y2.0602
G1X5.9497Y2.0541
G1X5.9538Y1.9833
G1X5.9539Y1.9766
G1X5.9502Y1.8947
G1X5.9488Y1.8799
G1X5.9406Y1.8211
G1X5.9348Y1.7893
G1X5.9231Y1.7389
G1X5.9083Y1.6879
G1X5.8903Y1.6367
G1X5.8691Y1.5858
G1X5.8446Y1.5357
G1X5.8170Y1.4870
G1X5.7866Y1.4402
G1X5.7539Y1.3958
G1X5.7331Y1.3708
G1X5.6898Y1.3232
G1X5.6756Y1.3089
G1X5.6049Y1.3790
G1X5.5533Y1.3323
G1X5.5378Y1.3197
G1X5.4880Y1.2830
G1X5.4713Y1.2719
G1X5.4258Y1.2442
G1X5.3886Y1.2236
G1X5.3337Y1.1979
G1X5.2849Y1.1783
G1X5.2394Y1.1622
G1X5.1796Y1.1437
G1X5.0921Y1.1189
G1X5.0464Y1.1085
G1X4.9808Y1.0968
G1X4.9228Y1.0894
G1X4.8916Y1.0862
G1X4.8763Y1.0447
G1X4.8485Y0.9814
G1X4.8187Y0.9222
G1X4.7873Y0.8670
G1X4.7548Y0.8155
G1X4.7217Y0.7673
G1X4.6882Y0.7223
G1X4.6545Y0.6801
G1X4.6289Y0.6498
G1X6.3502
G1Y2.2717
G1X6.2805Y2.2474
G1X6.2732Y2.2453
G2X6.1512Y2.2228I-0.1783J0.6248
G1X6.1475Y2.2225
G2X6.0455Y2.2217I-0.0563J0.6474
G1X6.0418Y2.2219
G2X5.9308Y2.2395I0.0457J0.6482
G1X5.9272Y2.2404
G2X5.8179Y2.2782I0.1567J0.6306
G1X5.8143Y2.2798
G1X5.7727Y2.3003
G2X5.8075Y2.2245I-0.5720J-0.3084
G1X5.8093Y2.2196
G2X5.8364Y2.1303I-0.6068J-0.2325
G1X5.8376Y2.1248
G1X5.8500Y2.0498
G1X5.8507Y2.0437
G1X5.8542Y1.9822
G1X5.8543Y1.9756
G1X5.8511Y1.9046
G1X5.8497Y1.8897
G1X5.8426Y1.8388
G1X5.8373Y1.8095
G1X5.8267Y1.7641
G1X5.8134Y1.7183
G1X5.7973Y1.6724
G1X5.7783Y1.6269
G1X5.7564Y1.5822
G1X5.7318Y1.5387
G1X5.7047Y1.4969
G1X5.6755Y1.4573
G1X5.6566Y1.4346
G1X5.6190Y1.3933
G1X5.6049Y1.3790
G0Z0.2000
G0X2.2747Y2.3382
G1Z-0.1000F40.0
G1X2.2657Y2.2927F120.0
G1X2.2616Y2.2752
G1X2.2797Y2.2804
G1X2.3042Y2.2888
G1X2.3273Y2.2980
G1X2.3490Y2.3082
G1X2.3792Y2.3254
G1X2.3978Y2.3384
G1X2.4154Y2.3528
G1X2.4323Y2.3691
G1X2.4430Y2.3810
G1X2.4511Y2.3940
G1X2.4595Y2.4140
G1X2.4663Y2.4398
G1X2.4704Y2.4695
G1X2.4711Y2.5026
G1X2.4685Y2.5329
G1X2.4626Y2.5624
G1X2.4542Y2.5877
G1X2.4517Y2.5934
G1X2.4049Y2.5925
G1X2.3685Y2.5890
G1X2.3471Y2.5845
G1X2.3372Y2.5803
G1X2.3308Y2.5710
G1X2.3220Y2.5515
G1X2.3140Y2.5279
G1X2.3062Y2.4993
G1X2.2982Y2.4642
G1X2.2900Y2.4224
G1X2.2747Y2.3382
G0Z0.2000
G0X2.4215Y3.6017
G1Z-0.1000F40.0
G1X2.3910Y3.6259F120.0
G1X2.3589Y3.6476
G1X2.3421Y3.6575
G1X2.3248Y3.6668
G1X2.3069Y3.6755
G1X2.2882Y3.6836
G1X2.2688Y3.6910
G1X2.2485Y3.6978
G1X2.2271Y3.7040
G1X2.2068Y3.7090
G1X2.1869Y3.7130
G1X2.1594Y3.7172
G1X2.2418Y3.6260
G1X2.3080Y3.5489
G1X2.3725Y3.4711
G1X2.4356Y3.3926
G1X2.5074Y3.3016
G1X2.5174Y3.2908
G1X2.5275Y3.2812
G1X2.5377Y3.2726
G1X2.5480Y3.2650
G1X2.5584Y3.2582
G1X2.5804Y3.2468
G1X2.6044Y3.2380
G1X2.6311Y3.2316
G1X2.6612Y3.2278
G1X2.6928Y3.2269
G1X2.6231Y3.3440
G1X2.5976Y3.3850
G1X2.5721Y3.4242
G1X2.5462Y3.4616
G1X2.5193Y3.4976
G1X2.4927Y3.5300
G1X2.4650Y3.5606
G1X2.4362Y3.5886
G1X2.4215Y3.6017
G0Z0.2000
G0X2.7777Y3.8035
G1Z-0.1000F40.0
G1X2.8020Y3.7763F120.0
G1X2.8340Y3.7379
G1X2.8281Y3.7741
G1X2.8222Y3.8176
G1X2.8173Y3.8341
G1X2.8103Y3.8491
G1X2.8049Y3.8576
G1X2.7960Y3.8691
G1X2.7865Y3.8796
G1X2.7750Y3.8905
G1X2.7617Y3.9015
G1X2.7465Y3.9128
G1X2.7296Y3.9241
G1X2.6911Y3.9468
G1X2.6704Y3.9578
G1X2.6004Y3.9928
G1X2.5764Y4.0058
G1X2.5526Y4.0197
G1X2.5290Y4.0347
G1X2.5058Y4.0509
G1X2.4830Y4.0685
G1X2.4607Y4.0875
G1X2.4352Y4.1126
G1X2.4314Y4.0991
G1X2.4265Y4.0773
G1X2.4246Y4.0656
G1X2.4457Y4.0554
G1X2.4810Y4.0369
G1X2.5153Y4.0173
G1X2.5485Y3.9969
G1X2.5807Y3.9755
G1X2.6118Y3.9532
G1X2.6420Y3.9301
G1X2.6711Y3.9062
G1X2.6992Y3.8815
G1X2.7263Y3.8562
G1X2.7524Y3.8302
G1X2.7777Y3.8035
G0Z0.2000
G0X2.7718Y2.7909
G1Z-0.1000F40.0
G1X2.7734Y2.8304F120.0
G1X2.7715Y2.8410
G1X2.7626Y2.8301
G1X2.7592Y2.8240
G1X2.7632Y2.8118
G1X2.7718Y2.7909
G0Z0.2000
G0X2.6428Y1.9366
G1Z-0.1000F40.0
G1X2.6621Y1.9714F120.0
G1X2.6835Y2.0073
G1X2.7178Y2.0609
G1X2.6997Y2.0525
G1X2.6886Y2.0453
G1X2.6798Y2.0371
G1X2.6755Y2.0320
G1X2.6691Y2.0226
G1X2.6640Y2.0132
G1X2.6590Y2.0020
G1X2.6543Y1.9889
G1X2.6500Y1.9741
G1X2.6463Y1.9575
G1X2.6428Y1.9366
G0Z0.2000
(================================================)
( Program Complete )
( Tool used: #2 - Compression End Mill  1/4"  UP/DOWN CUT )
(================================================)
M5
G0Z0.8000
G0X0.0000Y0.0000
M2
