%
(VECTRIC POST REVISION)
(C1123243DDFB7F5640F9758EC44667F9)
(================================================)
( File: Rose2_Sheet 2_2-Rose Male )
( Date: Friday June 13 2025 Time: 10:39 AM )
(================================================)
( Material Size )
( X=7.000 Y=5.500 Z=0.250 )
(  )
(================================================)
( TOOL VERIFICATION - ENSURE CORRECT TOOL LOADED )
( Tool #1 - V-Bit  30.0° - 1/4"  )
( Spindle Speed:  S12000 RPM )
( FEED_RATE: F100.0 IPM )
( PLUNGE_RATE: 30 IPM )
( CUT_RATE: 100 IPM )
( Tools Used: 1 = V-Bit  30.0° - 1/4"  )
(================================================)
( Home X = X0.0000 )
( Home Y = Y0.0000 )
( Home Z = Z0.8000 )
( Safe Z = Z0.2000 )
(================================================)
( Minimum extent in X = 0.000 )
( Minimum extent in Y = 0.000 )
( Minimum extent in Z = -0.250 )
( Maximum extent in X = 7.000 )
( Maximum extent in Y = 5.500 )
( Maximum extent in Z = 0.000 )
( Length of material in X = 7.000 )
( Length of material in Y = 5.500 )
( Depth of material in Z = 0.250 )
(================================================)
( VERIFY: Check tool number, diameter, and type )
( before starting program execution )
(================================================)

T1
G0 G17 G20 G90 G40 G49 G64 P0.0001
G0Z0.8000
G0X0.0000Y0.0000
(================================================)
( Starting Tool #1 - V-Bit  30.0° - 1/4"  )
( Speed:  S12000 RPM )
(================================================)
M3 S12000
M0(MSG, Click 'Continue' when the spindle is up to speed)
G0X0.0268Y0.0268
G0Z0.2000
G1Z-0.1000F30.0
G1X6.9732F100.0
G1X7.0000Y0.0000Z0.0000
G1X6.9732Y0.0268Z-0.1000
G1Y5.4732
G1X7.0000Y5.5000Z0.0000
G1X6.9732Y5.4732Z-0.1000
G1X0.0268
G1X0.0000Y5.5000Z0.0000
G1X0.0268Y5.4732Z-0.1000
G1Y0.0268
G1X0.0000Y0.0000Z0.0000
G1X0.0268Y0.0268Z-0.1000
G0Z0.2000
G0X0.7284Y3.0209
G1Z-0.1000F30.0
G1X0.7299Y3.0354F100.0
G1X0.7324Y3.0497
G1X0.7361Y3.0637
G1X0.7406Y3.0775
G1X0.7461Y3.0911
G1X0.7524Y3.1043
G1X0.7672Y3.1297
G1X0.7845Y3.1536
G1X0.8014Y3.1738
G1X0.8136Y3.1914
G1X0.8231Y3.2098
G1X0.8270Y3.2190
G1X0.8336Y3.2392
G1X0.8384Y3.2602
G1X0.8420Y3.2824
G1X0.8463Y3.3307
G1X0.8505Y3.3726
G1X0.8569Y3.4144
G1X0.8658Y3.4564
G1X0.8772Y3.4975
G1X0.8910Y3.5380
G1X0.9074Y3.5775
G1X0.9265Y3.6158
G1X0.9483Y3.6530
G1X0.9645Y3.6766
G1X0.9818Y3.6991
G1X1.0002Y3.7203
G1X1.0196Y3.7402
G1X1.0398Y3.7590
G1X1.0609Y3.7766
G1X1.0827Y3.7932
G1X1.1052Y3.8087
G1X1.1283Y3.8233
G1X1.1519Y3.8369
G1X1.1761Y3.8498
G1X1.2006Y3.8618
G1X1.2508Y3.8839
G1X1.3222Y3.9117
G1X1.3375Y3.9192
G1X1.3470Y3.9258
G1X1.3513Y3.9307
G1X1.3528Y3.9350
G1X1.3527Y3.9430
G1X1.3487Y3.9574
G1X1.3389Y3.9790
G1X1.3284Y4.0030
G1X1.3203Y4.0286
G1X1.3151Y4.0541
G1X1.3123Y4.0802
G1X1.3116Y4.1065
G1X1.3131Y4.1327
G1X1.3164Y4.1587
G1X1.3213Y4.1844
G1X1.3302Y4.2152
G1X1.3356Y4.2296
G1X1.3419Y4.2432
G1X1.3492Y4.2561
G1X1.3577Y4.2680
G1X1.3676Y4.2788
G1X1.3792Y4.2881
G1X1.3923Y4.2956
G1X1.4069Y4.3006
G1X1.4224Y4.3031
G1X1.4386Y4.3030
G1X1.4553Y4.3003
G1X1.4725Y4.2953
G1X1.4902Y4.2880
G1X1.5230Y4.2706
G1X1.5371Y4.2642
G1X1.5512Y4.2589
G1X1.5652Y4.2548
G1X1.5791Y4.2517
G1X1.5931Y4.2496
G1X1.6071Y4.2485
G1X1.6212Y4.2484
G1X1.6354Y4.2492
G1X1.6498Y4.2509
G1X1.6643Y4.2534
G1X1.6940Y4.2610
G1X1.7244Y4.2719
G1X1.7666Y4.2895
G1X1.7933Y4.2992
G1X1.8202Y4.3076
G1X1.8472Y4.3145
G1X1.8743Y4.3200
G1X1.9015Y4.3240
G1X1.9287Y4.3266
G1X1.9561Y4.3277
G1X1.9834Y4.3273
G1X2.0107Y4.3253
G1X2.0380Y4.3218
G1X2.0652Y4.3167
G1X2.0924Y4.3101
G1X2.1194Y4.3018
G1X2.1463Y4.2920
G1X2.1861Y4.2751
G1X2.1951Y4.2731
G1X2.1965Y4.2702Z-0.0886
G1X2.1951Y4.2731Z-0.1000
G1X2.1980Y4.2772
G1X2.2020Y4.2854
G1X2.2146Y4.3173
G1X2.2231Y4.3363
G1X2.2323Y4.3547
G1X2.2423Y4.3725
G1X2.2530Y4.3898
G1X2.2646Y4.4063
G1X2.2771Y4.4222
G1X2.2904Y4.4373
G1X2.3047Y4.4516
G1X2.3200Y4.4651
G1X2.3361Y4.4776
G1X2.3533Y4.4892
G1X2.3714Y4.4998
G1X2.3905Y4.5093
G1X2.4106Y4.5178
G1X2.4321Y4.5252
G1X2.4473Y4.5290
G1X2.4627Y4.5311
G1X2.4779Y4.5309
G1X2.4866Y4.5295
G1X2.4948Y4.5271
G1X2.5029Y4.5234
G1X2.5106Y4.5185
G1X2.5175Y4.5123
G1X2.5234Y4.5049
G1X2.5282Y4.4968
G1X2.5319Y4.4879
G1X2.5345Y4.4785
G1X2.5405Y4.4452
G1X2.5463Y4.4230
G1X2.5534Y4.4024
G1X2.5620Y4.3830
G1X2.5718Y4.3649
G1X2.5829Y4.3477
G1X2.5952Y4.3316
G1X2.6087Y4.3162
G1X2.6234Y4.3016
G1X2.6391Y4.2877
G1X2.6560Y4.2744
G1X2.6739Y4.2616
G1X2.6927Y4.2492
G1X2.7123Y4.2374
G1X2.7932Y4.1934
G1X2.8308Y4.1712
G1X2.8669Y4.1476
G1X2.9012Y4.1227
G1X2.9339Y4.0959
G1X2.9645Y4.0676
G1X2.9929Y4.0375
G1X3.0062Y4.0218
G1X3.0188Y4.0056
G1X3.0308Y3.9888
G1X3.0421Y3.9716
G1X3.0527Y3.9538
G1X3.0626Y3.9356
G1X3.0717Y3.9168
G1X3.0801Y3.8974
G1X3.0876Y3.8776
G1X3.0943Y3.8571
G1X3.1001Y3.8362
G1X3.1051Y3.8147
G1X3.1092Y3.7926
G1X3.1123Y3.7700
G1X3.1145Y3.7468
G1X3.1158Y3.7230
G1X3.1161Y3.6987
G1X3.1157Y3.6682
G1X3.1180Y3.6596
G1X3.1219Y3.6505
G1X3.1488Y3.6029
G1X3.1675Y3.5644
G1X3.1831Y3.5257
G1X3.1956Y3.4870
G1X3.2049Y3.4481
G1X3.2083Y3.4286
G1X3.2110Y3.4092
G1X3.2128Y3.3897
G1X3.2139Y3.3702
G1X3.2141Y3.3508
G1X3.2136Y3.3314
G1X3.2122Y3.3120
G1X3.2100Y3.2926
G1X3.2070Y3.2733
G1X3.2033Y3.2540
G1X3.1933Y3.2156
G1X3.1803Y3.1775
G1X3.1640Y3.1396
G1X3.1447Y3.1021
G1X3.1223Y3.0649
G1X3.0969Y3.0282
G1X3.0808Y3.0062
G1X3.0744Y2.9941
G1X3.0724Y2.9881
G1X3.0713Y2.9815
G1X3.0710Y2.9731
G1X3.0736Y2.9199
G1X3.0783Y2.8713
G1X3.0852Y2.8274
G1X3.0895Y2.8072
G1X3.0945Y2.7882
G1X3.1000Y2.7703
G1X3.1061Y2.7535
G1X3.1128Y2.7377
G1X3.1202Y2.7230
G1X3.1281Y2.7093
G1X3.1368Y2.6965
G1X3.1461Y2.6846
G1X3.1561Y2.6735
G1X3.1669Y2.6632
G1X3.1786Y2.6536
G1X3.1911Y2.6447
G1X3.2045Y2.6365
G1X3.2189Y2.6289
G1X3.2344Y2.6219
G1X3.2510Y2.6155
G1X3.2687Y2.6098
G1X3.2875Y2.6046
G1X3.3076Y2.6001
G1X3.3513Y2.5928
G1X3.4000Y2.5879
G1X3.4538Y2.5852
G1X3.4990Y2.5846
G1X3.5437Y2.5852
G1X3.5879Y2.5869
G1X3.6316Y2.5899
G1X3.6749Y2.5940
G1X3.7177Y2.5992
G1X3.7601Y2.6056
G1X3.8020Y2.6131
G1X3.8435Y2.6217
G1X3.8846Y2.6313
G1X3.9253Y2.6420
G1X3.9655Y2.6538
G1X4.0054Y2.6666
G1X4.0449Y2.6804
G1X4.0839Y2.6952
G1X4.1226Y2.7110
G1X4.1609Y2.7278
G1X4.1989Y2.7455
G1X4.2365Y2.7641
G1X4.2737Y2.7837
G1X4.3106Y2.8042
G1X4.3471Y2.8256
G1X4.3834Y2.8478
G1X4.4192Y2.8709
G1X4.4548Y2.8949
G1X4.4900Y2.9197
G1X4.5250Y2.9453
G1X4.5596Y2.9717
G1X4.6280Y3.0269
G1X4.6827Y3.0740
G1X4.6952Y3.0781Z-0.0807
G1X4.7002Y3.0794Z-0.0716
G1X4.7107Y3.0821Z-0.0467
G1X4.7286Y3.0873Z0.0000
G1X4.7043Y3.0803Z-0.0627
G1X4.6994Y3.0792Z-0.0732
G1X4.6952Y3.0781Z-0.0807
G1X4.6827Y3.0740Z-0.1000
G1X4.6612Y3.0760
G1X4.6259Y3.0812
G1X4.5913Y3.0884
G1X4.5573Y3.0976
G1X4.5238Y3.1086
G1X4.4910Y3.1215
G1X4.4586Y3.1362
G1X4.4213Y3.1554
G1X4.4123Y3.1585
G1X4.4091Y3.1590
G1X4.4064Y3.1636Z-0.0823
G1X4.4091Y3.1590Z-0.1000
G1X4.4070Y3.1495
G1X4.4066Y3.1246
G1X4.4059Y3.1124
G1X4.4044Y3.1003
G1X4.4022Y3.0886
G1X4.3992Y3.0771
G1X4.3954Y3.0660
G1X4.3908Y3.0553
G1X4.3855Y3.0449
G1X4.3795Y3.0350
G1X4.3727Y3.0255
G1X4.3573Y3.0078
G1X4.3395Y2.9919
G1X4.3200Y2.9782
G1X4.2811Y2.9527
G1X4.2433Y2.9261
G1X4.2060Y2.8985
G1X4.1692Y2.8701
G1X4.0239Y2.7539
G1X4.0098Y2.7433
G1X3.9954Y2.7336
G1X3.9809Y2.7250
G1X3.9664Y2.7174
G1X3.9519Y2.7108
G1X3.9374Y2.7051
G1X3.9085Y2.6964
G1X3.8796Y2.6908
G1X3.8516Y2.6878
G1X3.8238Y2.6869
G1X3.7964Y2.6875
G1X3.6924Y2.6955
G1X3.6678Y2.6967
G1X3.6437Y2.6968
G1X3.6201Y2.6953
G1X3.5825Y2.6899
G1X3.5683Y2.6888
G1X3.5545Y2.6887
G1X3.5409Y2.6897
G1X3.5276Y2.6915
G1X3.5144Y2.6942
G1X3.4900Y2.7013
G1X3.4664Y2.7107
G1X3.4438Y2.7216
G1X3.3605Y2.7686
G1X3.3407Y2.7787
G1X3.3210Y2.7873
G1X3.3009Y2.7941
G1X3.2815Y2.7985
G1X3.2614Y2.8004
G1X3.2511Y2.8004
G1X3.2387Y2.7994
G1X3.2243Y2.7993
G1X3.2088Y2.8026
G1X3.1948Y2.8091
G1X3.1827Y2.8181
G1X3.1727Y2.8289
G1X3.1646Y2.8411
G1X3.1583Y2.8543
G1X3.1537Y2.8685
G1X3.1510Y2.8834
G1X3.1508Y2.8981
G1X3.1533Y2.9123
G1X3.1584Y2.9254
G1X3.1656Y2.9371
G1X3.1746Y2.9470
G1X3.1849Y2.9554
G1X3.2553Y2.9959
G1X3.2720Y3.0040
G1X3.2894Y3.0109
G1X3.3073Y3.0158
G1X3.3265Y3.0184
G1X3.3557Y3.0210
G1X3.3822Y3.0260
G1X3.4072Y3.0332
G1X3.4317Y3.0427
G1X3.4550Y3.0540
G1X3.4777Y3.0669
G1X3.4999Y3.0813
G1X3.5217Y3.0968
G1X3.5655Y3.1309
G1X3.6322Y3.1842
G1X3.6571Y3.2026
G1X3.6716Y3.2030Z-0.0705
G1X3.6889Y3.2048Z-0.0395
G1X3.7034Y3.2071Z-0.0183
G1X3.7186Y3.2106Z0.0000
G1X3.7026Y3.2069Z-0.0194
G1X3.6861Y3.2044Z-0.0442
G1X3.6682Y3.2028Z-0.0772
G1X3.6571Y3.2026Z-0.1000
G1X3.6531Y3.2052
G1X3.6413Y3.2149
G1X3.6310Y3.2255
G1X3.6144Y3.2459
G1X3.5931Y3.2736
G1X3.5865Y3.2805
G1X3.5802Y3.2861
G1X3.5738Y3.2903
G1X3.5672Y3.2933
G1X3.5492Y3.2978
G1X3.5392Y3.3016
G1X3.5293Y3.3064
G1X3.5192Y3.3123
G1X3.4997Y3.3258
G1X3.4795Y3.3424
G1X3.4589Y3.3615
G1X3.4380Y3.3825
G1X3.4173Y3.4051
G1X3.3969Y3.4287
G1X3.3772Y3.4530
G1X3.3585Y3.4774
G1X3.3411Y3.5016
G1X3.3254Y3.5250
G1X3.3116Y3.5473
G1X3.3000Y3.5681
G1X3.2910Y3.5873
G1X3.2850Y3.6043
G1X3.2801Y3.6257
G1X3.2761Y3.6466
G1X3.2645Y3.7280
G1X3.2581Y3.7673
G1X3.2541Y3.7860
G1X3.2493Y3.8042
G1X3.2436Y3.8218
G1X3.2367Y3.8388
G1X3.2285Y3.8552
G1X3.2189Y3.8708
G1X3.2075Y3.8859
G1X3.1872Y3.9083
G1X3.1814Y3.9177
G1X3.1773Y3.9274
G1X3.1744Y3.9372
G1X3.1726Y3.9471
G1X3.1718Y3.9569
G1X3.1721Y3.9666
G1X3.1732Y3.9744
G1X3.1771Y3.9851
G1X3.1787Y3.9875
G1X3.1865Y3.9954
G1X3.1927Y3.9996
G1X3.2091Y4.0056
G1X3.2269Y4.0094
G1X3.2437Y4.0108
G1X3.2779Y4.0090
G1X3.3108Y4.0059
G1X3.4060Y3.9938
G1X3.4360Y3.9907
G1X3.4648Y3.9887
G1X3.5313Y3.9884
G1X3.5692Y3.9861
G1X3.6061Y3.9820
G1X3.6421Y3.9759
G1X3.6773Y3.9681
G1X3.7115Y3.9585
G1X3.7450Y3.9473
G1X3.7776Y3.9345
G1X3.8094Y3.9203
G1X3.8405Y3.9047
G1X3.8708Y3.8878
G1X3.9005Y3.8697
G1X3.9296Y3.8504
G1X3.9581Y3.8302
G1X3.9860Y3.8089
G1X4.0135Y3.7868
G1X4.0594Y3.7469
G1X4.0816Y3.7260
G1X4.1033Y3.7046
G1X4.1244Y3.6825
G1X4.1450Y3.6598
G1X4.1650Y3.6366
G1X4.1843Y3.6127
G1X4.2029Y3.5883
G1X4.2208Y3.5632
G1X4.2380Y3.5375
G1X4.2545Y3.5113
G1X4.2701Y3.4844
G1X4.2850Y3.4570
G1X4.2989Y3.4289
G1X4.3129Y3.3992
G1X4.3184Y3.3942
G1X4.3297Y3.3873
G1X4.3363Y3.3736Z-0.0677
G1X4.3395Y3.3548Z-0.0131
G1X4.3397Y3.3506Z0.0000
G1X4.3381Y3.3643Z-0.0411
G1X4.3361Y3.3741Z-0.0691
G1X4.3389Y3.3732Z-0.0584
G1X4.3361Y3.3741Z-0.0691
G1X4.3297Y3.3873Z-0.1000
G1X4.3381Y3.4446
G1X4.3408Y3.4670
G1X4.3418Y3.4888
G1X4.3407Y3.5088
G1X4.3369Y3.5281
G1X4.3338Y3.5376
G1X4.3174Y3.5757
G1X4.3072Y3.6047
G1X4.2990Y3.6338
G1X4.2929Y3.6629
G1X4.2887Y3.6919
G1X4.2861Y3.7209
G1X4.2851Y3.7497
G1X4.2854Y3.7785
G1X4.2870Y3.8070
G1X4.2896Y3.8354
G1X4.2974Y3.8916
G1X4.3076Y3.9466
G1X4.3191Y4.0011
G1X4.3281Y4.0345
G1X4.3401Y4.0683
G1X4.3551Y4.1017
G1X4.3638Y4.1180
G1X4.3733Y4.1340
G1X4.3836Y4.1496
G1X4.3948Y4.1647
G1X4.4069Y4.1793
G1X4.4199Y4.1931
G1X4.4338Y4.2061
G1X4.4487Y4.2183
G1X4.4644Y4.2295
G1X4.4974Y4.2494
G1X4.5118Y4.2597
G1X4.5246Y4.2706
G1X4.5359Y4.2821
G1X4.5458Y4.2941
G1X4.5546Y4.3066
G1X4.5624Y4.3198
G1X4.5692Y4.3336
G1X4.5751Y4.3480
G1X4.5803Y4.3630
G1X4.5886Y4.3946
G1X4.5949Y4.4286
G1X4.5996Y4.4644
G1X4.5962Y4.4756
G1X4.5853Y4.5022
G1X4.5828Y4.5115
G1X4.5815Y4.5217
G1X4.5822Y4.5331
G1X4.5858Y4.5450
G1X4.5926Y4.5560
G1X4.6020Y4.5652
G1X4.6131Y4.5723
G1X4.6258Y4.5780
G1X4.6381Y4.5818
G1X4.6500Y4.5843
G1X4.6618Y4.5856
G1X4.6734Y4.5857
G1X4.6848Y4.5846
G1X4.6957Y4.5824
G1X4.7063Y4.5791
G1X4.7164Y4.5749
G1X4.7260Y4.5698
G1X4.7352Y4.5640
G1X4.7523Y4.5502
G1X4.7673Y4.5350
G1X4.7809Y4.5181
G1X4.8033Y4.4875
G1X4.8245Y4.4568
G1X4.8445Y4.4256
G1X4.8630Y4.3938
G1X4.8799Y4.3615
G1X4.8950Y4.3287
G1X4.9081Y4.2952
G1X4.9189Y4.2613
G1X4.9275Y4.2263
G1X4.9333Y4.1908
G1X4.9363Y4.1547
G1X4.9363Y4.1179
G1X4.9351Y4.0993
G1X4.9331Y4.0805
G1X4.9302Y4.0616
G1X4.9264Y4.0426
G1X4.9218Y4.0234
G1X4.9163Y4.0041
G1X4.9098Y3.9846
G1X4.9024Y3.9651
G1X4.8887Y3.9331
G1X4.8744Y3.9016
G1X4.8589Y3.8703
G1X4.8422Y3.8393
G1X4.8240Y3.8088
G1X4.8041Y3.7788
G1X4.7825Y3.7494
G1X4.7588Y3.7208
G1X4.7426Y3.7032
G1X4.7257Y3.6868
G1X4.7082Y3.6717
G1X4.6903Y3.6575
G1X4.6536Y3.6316
G1X4.6167Y3.6083
G1X4.5441Y3.5638
G1X4.5101Y3.5408
G1X4.4939Y3.5286
G1X4.4751Y3.5127
G1X4.4643Y3.4982
G1X4.4574Y3.4855
G1X4.4511Y3.4707
G1X4.4456Y3.4543
G1X4.4410Y3.4367
G1X4.4374Y3.4185
G1X4.4348Y3.3999
G1X4.4334Y3.3814
G1X4.4332Y3.3636
G1X4.4341Y3.3467
G1X4.4361Y3.3314
G1X4.4392Y3.3181
G1X4.4451Y3.3030
G1X4.4513Y3.2948
G1X4.4591Y3.2883
G1X4.4791Y3.2751
G1X4.5036Y3.2626
G1X4.5320Y3.2511
G1X4.5471Y3.2459
G1X4.5800Y3.2364
G1X4.6148Y3.2285
G1X4.6511Y3.2222
G1X4.6881Y3.2176
G1X4.7252Y3.2147
G1X4.7619Y3.2138
G1X4.7975Y3.2147
G1X4.8315Y3.2176
G1X4.8626Y3.2225
G1X4.8907Y3.2292
G1X4.9149Y3.2378
G1X4.9252Y3.2426
G1X4.9349Y3.2481
G1X5.0599Y3.3275
G1X5.2482Y3.4495
G1X5.3117Y3.4894
G1X5.3759Y3.5284
G1X5.4411Y3.5663
G1X5.4629Y3.5779
G1X5.4848Y3.5884
G1X5.5067Y3.5977
G1X5.5285Y3.6058
G1X5.5502Y3.6126
G1X5.5719Y3.6182
G1X5.5934Y3.6227
G1X5.6148Y3.6259
G1X5.6360Y3.6279
G1X5.6570Y3.6287
G1X5.6778Y3.6284
G1X5.6984Y3.6268
G1X5.7187Y3.6240
G1X5.7387Y3.6201
G1X5.7583Y3.6150
G1X5.7776Y3.6088
G1X5.7965Y3.6014
G1X5.8150Y3.5929
G1X5.8330Y3.5833
G1X5.8506Y3.5726
G1X5.8677Y3.5609
G1X5.8842Y3.5480
G1X5.9002Y3.5342
G1X5.9157Y3.5193
G1X5.9306Y3.5035
G1X5.9449Y3.4867
G1X5.9586Y3.4689
G1X5.9717Y3.4501
G1X5.9841Y3.4304
G1X5.9959Y3.4098
G1X6.0071Y3.3883
G1X6.0175Y3.3660
G1X6.0314Y3.3338
G1X6.0382Y3.3194
G1X6.0459Y3.3065
G1X6.0537Y3.2965
G1X6.0628Y3.2885
G1X6.0738Y3.2823
G1X6.0805Y3.2799
G1X6.1170Y3.2719
G1X6.1452Y3.2643
G1X6.1595Y3.2594
G1X6.1734Y3.2538
G1X6.1869Y3.2473
G1X6.1999Y3.2397
G1X6.2124Y3.2308
G1X6.2241Y3.2206
G1X6.2349Y3.2090
G1X6.2445Y3.1958
G1X6.2528Y3.1812
G1X6.2596Y3.1652
G1X6.2648Y3.1478
G1X6.2684Y3.1292
G1X6.2709Y3.1082
G1X6.2719Y3.0879
G1X6.2715Y3.0681
G1X6.2696Y3.0488
G1X6.2662Y3.0301
G1X6.2615Y3.0119
G1X6.2553Y2.9944
G1X6.2478Y2.9775
G1X6.2389Y2.9613
G1X6.2288Y2.9457
G1X6.2175Y2.9309
G1X6.2050Y2.9168
G1X6.1914Y2.9034
G1X6.1767Y2.8906
G1X6.1610Y2.8785
G1X6.1225Y2.8524
G1X6.1119Y2.8472
G1X6.0998Y2.8437
G1X6.0914Y2.8430
G1X6.0833Y2.8436
G1X6.0751Y2.8456
G1X6.0672Y2.8492
G1X6.0599Y2.8540
G1X6.0536Y2.8599
G1X6.0476Y2.8670
G1X6.0428Y2.8750
G1X6.0395Y2.8839
G1X6.0381Y2.8934
G1X6.0389Y2.9026
G1X6.0415Y2.9117
G1X6.0484Y2.9236
G1X6.0675Y2.9432
G1X6.0706Y2.9469
G1X6.0866Y2.9707
G1X6.1002Y2.9943
G1X6.1054Y3.0054
G1X6.1093Y3.0158
G1X6.1119Y3.0253
G1X6.1130Y3.0337
G1X6.1129Y3.0408
G1X6.1107Y3.0498
G1X6.1055Y3.0582
G1X6.0992Y3.0642
G1X6.0903Y3.0703
G1X6.0771Y3.0768
G1X6.0452Y3.0881
G1X6.0305Y3.0939
G1X6.0165Y3.1003
G1X6.0032Y3.1072
G1X5.9906Y3.1148
G1X5.9786Y3.1228
G1X5.9566Y3.1405
G1X5.9366Y3.1603
G1X5.9191Y3.1814
G1X5.9032Y3.2042
G1X5.8634Y3.2717
G1X5.8390Y3.3092
G1X5.8150Y3.3416
G1X5.8031Y3.3559
G1X5.7912Y3.3688
G1X5.7794Y3.3805
G1X5.7676Y3.3909
G1X5.7559Y3.4001
G1X5.7441Y3.4082
G1X5.7323Y3.4151
G1X5.7204Y3.4209
G1X5.7084Y3.4257
G1X5.6962Y3.4294
G1X5.6837Y3.4322
G1X5.6708Y3.4340
G1X5.6575Y3.4348
G1X5.6437Y3.4346
G1X5.6292Y3.4335
G1X5.6142Y3.4313
G1X5.5985Y3.4281
G1X5.5821Y3.4238
G1X5.5651Y3.4184
G1X5.5287Y3.4045
G1X5.4894Y3.3862
G1X5.4686Y3.3756
G1X5.4243Y3.3508
G1X5.3466Y3.3040
G1X5.2700Y3.2553
G1X5.1942Y3.2052
G1X5.1193Y3.1538
G1X5.0449Y3.1014
G1X4.9709Y3.0483
G1X4.6756Y2.8331
G1X4.6010Y2.7799
G1X4.5258Y2.7275
G1X4.4498Y2.6761
G1X4.3728Y2.6260
G1X4.2948Y2.5775
G1X4.1992Y2.5210
G1X4.1837Y2.5107
G1X4.1689Y2.4999
G1X4.1551Y2.4886
G1X4.1422Y2.4767
G1X4.1305Y2.4644
G1X4.1200Y2.4515
G1X4.1109Y2.4380
G1X4.1030Y2.4240
G1X4.0967Y2.4094
G1X4.0918Y2.3941
G1X4.0885Y2.3779
G1X4.0868Y2.3609
G1X4.0870Y2.3427
G1X4.0892Y2.3234
G1X4.0990Y2.2804
G1X4.1048Y2.2623
G1X4.1098Y2.2535
G1X4.1152Y2.2487
G1X4.1204Y2.2464
G1X4.1269Y2.2458
G1X4.1311Y2.2501
G1X4.1399Y2.2650
G1X4.1455Y2.2755
G1X4.1522Y2.2860
G1X4.1695Y2.3072
G1X4.1883Y2.3259
G1X4.2092Y2.3432
G1X4.2317Y2.3587
G1X4.2555Y2.3725
G1X4.2802Y2.3845
G1X4.3056Y2.3947
G1X4.3314Y2.4031
G1X4.3574Y2.4095
G1X4.3833Y2.4139
G1X4.4088Y2.4162
G1X4.4338Y2.4162
G1X4.4575Y2.4138
G1X4.4810Y2.4087
G1X4.4920Y2.4051
G1X4.5027Y2.4007
G1X4.5130Y2.3954
G1X4.5519Y2.3701
G1X4.5819Y2.3518
G1X4.7074Y2.2806
G1X4.7390Y2.2617
G1X4.7699Y2.2419
G1X4.8539Y2.1852
G1X4.8817Y2.1650
G1X4.9091Y2.1439
G1X4.9356Y2.1217
G1X4.9611Y2.0981
G1X4.9945Y2.0630
G1X5.0125Y2.0462
G1X5.0302Y2.0334
G1X5.0475Y2.0243
G1X5.0561Y2.0211
G1X5.0647Y2.0187
G1X5.0735Y2.0171
G1X5.0825Y2.0163
G1X5.0917Y2.0162
G1X5.1013Y2.0170
G1X5.1114Y2.0187
G1X5.1219Y2.0213
G1X5.1442Y2.0284
G1X5.1548Y2.0310
G1X5.1652Y2.0326
G1X5.1753Y2.0331
G1X5.1853Y2.0324
G1X5.1951Y2.0300
G1X5.2045Y2.0258
G1X5.2130Y2.0197
G1X5.2198Y2.0121
G1X5.2249Y2.0037
G1X5.2283Y1.9948
G1X5.2303Y1.9859
G1X5.2312Y1.9770
G1X5.2313Y1.9676
G1X5.2296Y1.9502
G1X5.2237Y1.9217
G1X5.2155Y1.8960
G1X5.2049Y1.8726
G1X5.1922Y1.8517
G1X5.1774Y1.8327
G1X5.1614Y1.8166
G1X5.1437Y1.8023
G1X5.1250Y1.7898
G1X5.1055Y1.7790
G1X5.0853Y1.7695
G1X5.0645Y1.7612
G1X5.0433Y1.7537
G1X5.0010Y1.7406
G1X4.9404Y1.7233
G1X4.9222Y1.7192
G1X4.8867Y1.7129
G1X4.8514Y1.7083
G1X4.7828Y1.7014
G1X4.7498Y1.6974
G1X4.7176Y1.6921
G1X4.6659Y1.6797
G1X4.6444Y1.6759
G1X4.6224Y1.6734
G1X4.6001Y1.6722
G1X4.5775Y1.6722
G1X4.5547Y1.6733
G1X4.5317Y1.6756
G1X4.5087Y1.6789
G1X4.4856Y1.6833
G1X4.4625Y1.6887
G1X4.4395Y1.6951
G1X4.4167Y1.7024
G1X4.3941Y1.7107
G1X4.3719Y1.7198
G1X4.3499Y1.7298
G1X4.3284Y1.7407
G1X4.3074Y1.7523
G1X4.2870Y1.7648
G1X4.2671Y1.7779
G1X4.2480Y1.7919
G1X4.2296Y1.8065
G1X4.2140Y1.8202
G1X4.1975Y1.8407Z-0.0872
G1X4.1836Y1.8587Z-0.0792
G1X4.1703Y1.8766Z-0.0743
G1X4.1559Y1.8969Z-0.0725
G1X4.1456Y1.9127Z-0.0722
G1X4.1427Y1.9176Z-0.0728
G1X4.1349Y1.9314Z-0.0725
G1X4.1312Y1.9385Z-0.0734
G1X4.1254Y1.9506Z-0.0735
G1X4.1212Y1.9602Z-0.0749
G1X4.1171Y1.9702Z-0.0755
G1X4.1099Y1.9903Z-0.0791
G1X4.1044Y2.0090Z-0.0841
G1X4.0988Y2.0287Z-0.0881
G1X4.0935Y2.0457Z-0.0880
G1X4.0874Y2.0632Z-0.0855
G1X4.0807Y2.0806Z-0.0809
G1X4.0637Y2.1214Z-0.0638
G1X4.0433Y2.1672Z-0.0441
G1X4.0327Y2.1899Z-0.0367
G1X4.0248Y2.2071Z-0.0340
G1X4.0165Y2.2254Z-0.0342
G1X4.0122Y2.2357Z-0.0359
G1X4.0084Y2.2441Z-0.0383
G1X4.0028Y2.2576Z-0.0440
G1X4.0019Y2.2602Z-0.0443
G1X4.0014Y2.2636Z-0.0428
G1X4.0012Y2.2680Z-0.0401
G1X4.0014Y2.2740Z-0.0350
G1X4.0024Y2.2849Z-0.0231
G1X4.0031Y2.2894Z-0.0189
G1X4.0064Y2.3062Z0.0000
G1X4.0031Y2.2894Z-0.0189
G1X4.0024Y2.2843Z-0.0237
G1X4.0014Y2.2740Z-0.0350
G1X4.0012Y2.2680Z-0.0401
G1X4.0015Y2.2626Z-0.0433
G1X4.0019Y2.2602Z-0.0443
G1X4.0028Y2.2576Z-0.0440
G1X4.0087Y2.2434Z-0.0381
G1X4.0124Y2.2352Z-0.0358
G1X4.0168Y2.2249Z-0.0342
G1X4.0248Y2.2071Z-0.0340
G1X4.0334Y2.1885Z-0.0371
G1X4.0435Y2.1667Z-0.0443
G1X4.0659Y2.1165Z-0.0662
G1X4.0807Y2.0806Z-0.0809
G1X4.0874Y2.0632Z-0.0855
G1X4.0935Y2.0457Z-0.0880
G1X4.0990Y2.0280Z-0.0880
G1X4.1054Y2.0055Z-0.0833
G1X4.1105Y1.9887Z-0.0788
G1X4.1176Y1.9688Z-0.0753
G1X4.1212Y1.9602Z-0.0749
G1X4.1260Y1.9493Z-0.0734
G1X4.1312Y1.9385Z-0.0734
G1X4.1355Y1.9303Z-0.0725
G1X4.1427Y1.9176Z-0.0728
G1X4.1463Y1.9117Z-0.0721
G1X4.1582Y1.8935Z-0.0725
G1X4.1726Y1.8735Z-0.0749
G1X4.1843Y1.8578Z-0.0795
G1X4.1983Y1.8398Z-0.0877
G1X4.2140Y1.8202Z-0.1000
G1X4.2388Y1.7763
G1X4.2524Y1.7500
G1X4.2653Y1.7233
G1X4.2773Y1.6964
G1X4.2883Y1.6692
G1X4.2984Y1.6419
G1X4.3074Y1.6143
G1X4.3152Y1.5867
G1X4.3218Y1.5589
G1X4.3270Y1.5311
G1X4.3308Y1.5032
G1X4.3331Y1.4756
G1X4.3337Y1.4412
G1X4.3315Y1.4073
G1X4.3266Y1.3738
G1X4.3193Y1.3413
G1X4.3098Y1.3092
G1X4.2982Y1.2777
G1X4.2847Y1.2469
G1X4.2694Y1.2167
G1X4.2526Y1.1872
G1X4.2344Y1.1583
G1X4.2150Y1.1300
G1X4.1945Y1.1024
G1X4.1730Y1.0755
G1X4.1508Y1.0493
G1X4.1280Y1.0237
G1X4.0871Y0.9804
G1X4.0682Y0.9625
G1X4.0483Y0.9456
G1X4.0272Y0.9297
G1X4.0142Y0.9215
G1X4.0002Y0.9161
G1X3.9914Y0.9144
G1X3.9831Y0.9142
G1X3.9745Y0.9153
G1X3.9661Y0.9181
G1X3.9582Y0.9225
G1X3.9514Y0.9283
G1X3.9459Y0.9351
G1X3.9417Y0.9426
G1X3.9386Y0.9506
G1X3.9365Y0.9594
G1X3.9344Y0.9852
G1X3.9327Y0.9936
G1X3.9298Y1.0018
G1X3.9261Y1.0098
G1X3.9149Y1.0283
G1X3.8827Y1.0785
G1X3.8644Y1.1089
G1X3.8470Y1.1397
G1X3.8305Y1.1709
G1X3.8153Y1.2026
G1X3.8014Y1.2348
G1X3.7891Y1.2675
G1X3.7785Y1.3007
G1X3.7699Y1.3346
G1X3.7634Y1.3689
G1X3.7592Y1.4043
G1X3.7575Y1.4401
G1X3.7586Y1.4765
G1X3.7625Y1.5136
G1X3.7695Y1.5513
G1X3.7797Y1.5896
G1X3.7874Y1.6129
G1X3.7960Y1.6357
G1X3.8054Y1.6580
G1X3.8156Y1.6799
G1X3.8365Y1.7199Z-0.0997
G1X3.8680Y1.7669Z-0.0854
G1X3.9000Y1.8145Z-0.0759
G1X3.9157Y1.8388Z-0.0732
G1X3.9309Y1.8636Z-0.0720
G1X3.9392Y1.8778Z-0.0728
G1X3.9455Y1.8890Z-0.0727
G1X3.9592Y1.9151Z-0.0755
G1X3.9678Y1.9338Z-0.0786
G1X3.9716Y1.9423Z-0.0794
G1X3.9791Y1.9621Z-0.0828
G1X3.9832Y1.9746Z-0.0838
G1X3.9863Y1.9860Z-0.0843
G1X3.9891Y1.9994Z-0.0834
G1X3.9901Y2.0060Z-0.0827
G1X3.9910Y2.0159Z-0.0797
G1X3.9912Y2.0235Z-0.0766
G1X3.9910Y2.0320Z-0.0715
G1X3.9900Y2.0408Z-0.0651
G1X3.9884Y2.0501Z-0.0566
G1X3.9849Y2.0642Z-0.0411
G1X3.9795Y2.0803Z-0.0213
G1X3.9730Y2.0962Z0.0000
G1X3.9796Y2.0800Z-0.0216
G1X3.9849Y2.0642Z-0.0411
G1X3.9884Y2.0501Z-0.0566
G1X3.9900Y2.0408Z-0.0651
G1X3.9910Y2.0310Z-0.0721
G1X3.9912Y2.0235Z-0.0766
G1X3.9910Y2.0150Z-0.0801
G1X3.9901Y2.0060Z-0.0827
G1X3.9886Y1.9965Z-0.0840
G1X3.9859Y1.9842Z-0.0841
G1X3.9819Y1.9703Z-0.0832
G1X3.9791Y1.9621Z-0.0828
G1X3.9716Y1.9423Z-0.0794
G1X3.9606Y1.9180Z-0.0762
G1X3.9586Y1.9140Z-0.0753
G1X3.9450Y1.8880Z-0.0726
G1X3.9392Y1.8778Z-0.0728
G1X3.9305Y1.8628Z-0.0720
G1X3.9153Y1.8382Z-0.0732
G1X3.8996Y1.8138Z-0.0760
G1X3.8638Y1.7608Z-0.0870
G1X3.8360Y1.7192Z-0.1000
G1X3.7906Y1.6586
G1X3.7766Y1.6414
G1X3.7619Y1.6247
G1X3.7463Y1.6086
G1X3.7299Y1.5930
G1X3.7126Y1.5782
G1X3.6946Y1.5640
G1X3.6757Y1.5507
G1X3.6561Y1.5383
G1X3.6356Y1.5268
G1X3.6144Y1.5163
G1X3.5923Y1.5069
G1X3.5696Y1.4987
G1X3.5460Y1.4918
G1X3.5218Y1.4861
G1X3.4967Y1.4818
G1X3.4481Y1.4769
G1X3.3766Y1.4711
G1X3.3538Y1.4684
G1X3.3318Y1.4649
G1X3.3106Y1.4603
G1X3.2904Y1.4544
G1X3.2709Y1.4468
G1X3.2532Y1.4378
G1X3.2362Y1.4265
G1X3.2202Y1.4129
G1X3.2052Y1.3964
G1X3.1912Y1.3768
G1X3.1774Y1.3517
G1X3.1690Y1.3385
G1X3.1579Y1.3255
G1X3.1451Y1.3135
G1X3.1312Y1.3028
G1X3.1163Y1.2937
G1X3.1007Y1.2863
G1X3.0849Y1.2817
G1X3.0755Y1.2805
G1X3.0662Y1.2805
G1X3.0548Y1.2825
G1X3.0441Y1.2865
G1X3.0347Y1.2922
G1X3.0267Y1.2991
G1X3.0202Y1.3068
G1X3.0146Y1.3154
G1X3.0071Y1.3314
G1X3.0020Y1.3483
G1X2.9985Y1.3649
G1X2.9942Y1.3940
G1X2.9912Y1.4227
G1X2.9900Y1.4515
G1X2.9904Y1.4800
G1X2.9922Y1.5081
G1X2.9951Y1.5359
G1X2.9991Y1.5636
G1X3.0090Y1.6177
G1X3.0321Y1.7238
G1X3.0423Y1.7762
G1X3.0464Y1.8021
G1X3.0499Y1.8289
G1X3.0546Y1.8581
G1X3.0617Y1.8868
G1X3.0711Y1.9144
G1X3.0824Y1.9409
G1X3.0955Y1.9663
G1X3.1103Y1.9906
G1X3.1264Y2.0139
G1X3.1439Y2.0362
G1X3.1624Y2.0577
G1X3.1818Y2.0782
G1X3.2020Y2.0980
G1X3.2228Y2.1170
G1X3.2658Y2.1530
G1X3.3683Y2.2325
G1X3.4002Y2.2560
G1X3.4172Y2.2674
G1X3.4347Y2.2780
G1X3.4530Y2.2879
G1X3.4721Y2.2966
G1X3.4921Y2.3041
G1X3.5130Y2.3099
G1X3.5347Y2.3140
G1X3.5574Y2.3159
G1X3.5810Y2.3155
G1X3.6227Y2.3099
G1X3.6565Y2.3064
G1X3.6891Y2.3053
G1X3.7204Y2.3067
G1X3.7506Y2.3104
G1X3.7796Y2.3165
G1X3.8074Y2.3250
G1X3.8342Y2.3359
G1X3.8598Y2.3491
G1X3.8844Y2.3648
G1X3.9080Y2.3830
G1X3.9306Y2.4037
G1X3.9521Y2.4270
G1X3.9726Y2.4529
G1X3.9868Y2.4735
G1X4.0107Y2.4913Z-0.0595
G1X4.0430Y2.5173Z0.0000
G1X4.0107Y2.4913Z-0.0595
G1X3.9868Y2.4735Z-0.1000
G1X3.9579Y2.4658
G1X3.9113Y2.4548
G1X3.8647Y2.4452
G1X3.8181Y2.4371
G1X3.7714Y2.4306
G1X3.7247Y2.4256
G1X3.6780Y2.4223
G1X3.6313Y2.4208
G1X3.5845Y2.4212
G1X3.5377Y2.4234
G1X3.4910Y2.4277
G1X3.4442Y2.4340
G1X3.3975Y2.4425
G1X3.3508Y2.4531
G1X3.2804Y2.4724
G1X3.2579Y2.4776
G1X3.2373Y2.4813
G1X3.2189Y2.4834
G1X3.2029Y2.4839
G1X3.1889Y2.4828
G1X3.1786Y2.4804
G1X3.1703Y2.4769
G1X3.1640Y2.4723
G1X3.1587Y2.4662
G1X3.1542Y2.4575
G1X3.1504Y2.4454
G1X3.1481Y2.4294
G1X3.1475Y2.4097
G1X3.1491Y2.3853
G1X3.1530Y2.3556
G1X3.1539Y2.3438
G1X3.1533Y2.3315
G1X3.1518Y2.3195
G1X3.1494Y2.3077
G1X3.1374Y2.2657
G1X3.1192Y2.2146
G1X3.0986Y2.1648
G1X3.0760Y2.1165
G1X3.0518Y2.0691
G1X3.0263Y2.0227
G1X2.9998Y1.9769
G1X2.8910Y1.7974
G1X2.8648Y1.7525
G1X2.8396Y1.7073
G1X2.8157Y1.6616
G1X2.7933Y1.6151
G1X2.7731Y1.5679
G1X2.7547Y1.5188
G1X2.7498Y1.5067
G1X2.7428Y1.4948
G1X2.7342Y1.4846
G1X2.7242Y1.4762
G1X2.7131Y1.4699
G1X2.7015Y1.4657
G1X2.6896Y1.4635
G1X2.6778Y1.4628
G1X2.6662Y1.4635
G1X2.6548Y1.4654
G1X2.6435Y1.4682
G1X2.6322Y1.4719
G1X2.6113Y1.4810
G1X2.5916Y1.4920
G1X2.5559Y1.5152
G1X2.5224Y1.5401
G1X2.4910Y1.5672
G1X2.4762Y1.5816
G1X2.4619Y1.5965
G1X2.4482Y1.6121
G1X2.4352Y1.6282
G1X2.4228Y1.6449
G1X2.4111Y1.6623
G1X2.4002Y1.6803
G1X2.3899Y1.6989
G1X2.3804Y1.7182
G1X2.3637Y1.7553
G1X2.3629Y1.7563
G1X2.3645Y1.7624Z-0.0780
G1X2.3629Y1.7563Z-0.1000
G1X2.3574Y1.7555
G1X2.2670Y1.7316
G1X2.2077Y1.7131
G1X2.1789Y1.7028
G1X2.1507Y1.6917
G1X2.1232Y1.6795
G1X2.0965Y1.6663
G1X2.0708Y1.6519
G1X2.0460Y1.6361
G1X2.0223Y1.6189
G1X1.9997Y1.6001
G1X1.9781Y1.5794
G1X1.9581Y1.5572
G1X1.9232Y1.5120
G1X1.9072Y1.4943
G1X1.8911Y1.4795
G1X1.8745Y1.4676
G1X1.8575Y1.4585
G1X1.8400Y1.4525
G1X1.8224Y1.4496
G1X1.8048Y1.4498
G1X1.7879Y1.4530
G1X1.7717Y1.4586
G1X1.7563Y1.4663
G1X1.7417Y1.4757
G1X1.7277Y1.4866
G1X1.7140Y1.4987
G1X1.7007Y1.5119
G1X1.6742Y1.5415
G1X1.6608Y1.5586
G1X1.6480Y1.5770
G1X1.6363Y1.5965
G1X1.6264Y1.6166
G1X1.6185Y1.6380
G1X1.6157Y1.6489
G1X1.6137Y1.6600
G1X1.6127Y1.6713
G1X1.6138Y1.7084
G1X1.6127Y1.7310
G1X1.6098Y1.7492
G1X1.6055Y1.7644
G1X1.5999Y1.7767
G1X1.5931Y1.7866
G1X1.5852Y1.7949
G1X1.5762Y1.8017
G1X1.5645Y1.8080
G1X1.5513Y1.8133
G1X1.5361Y1.8178
G1X1.5191Y1.8215
G1X1.4799Y1.8271
G1X1.4115Y1.8342
G1X1.3877Y1.8376
G1X1.3637Y1.8419
G1X1.3396Y1.8473
G1X1.3158Y1.8541
G1X1.2923Y1.8622
G1X1.2693Y1.8721
G1X1.2472Y1.8837
G1X1.2263Y1.8971
G1X1.2062Y1.9131
G1X1.1878Y1.9313
G1X1.1714Y1.9518
G1X1.1640Y1.9630
G1X1.1571Y1.9749
G1X1.1509Y1.9873
G1X1.1453Y2.0004
G1X1.1404Y2.0141
G1X1.1361Y2.0284
G1X1.1326Y2.0433
G1X1.1275Y2.0731
G1X1.1250Y2.0841
G1X1.1224Y2.0917
G1X1.1199Y2.0965
G1X1.1171Y2.0999
G1X1.1129Y2.1031
G1X1.1059Y2.1067
G1X1.0633Y2.1213
G1X1.0330Y2.1338
G1X1.0046Y2.1481
G1X0.9779Y2.1641
G1X0.9530Y2.1818
G1X0.9299Y2.2011
G1X0.9086Y2.2219
G1X0.8891Y2.2442
G1X0.8714Y2.2679
G1X0.8555Y2.2929
G1X0.8414Y2.3192
G1X0.8289Y2.3467
G1X0.8181Y2.3753
G1X0.8090Y2.4050
G1X0.8015Y2.4357
G1X0.7955Y2.4674
G1X0.7912Y2.4989
G1X0.7881Y2.5302
G1X0.7846Y2.5924
G1X0.7814Y2.7150
G1X0.7781Y2.7749
G1X0.7752Y2.8045
G1X0.7712Y2.8338
G1X0.7660Y2.8628
G1X0.7592Y2.8916
G1X0.7508Y2.9201
G1X0.7353Y2.9624
G1X0.7315Y2.9770
G1X0.7291Y2.9916
G1X0.7281Y3.0063
G1X0.7284Y3.0209
G0Z0.2000
G0X0.0518Y0.0518
G1Z-0.1000F30.0
G1Y0.0544F100.0
G1X0.0544Y0.0518
G1X0.0518
G1X0.0468Y0.0468
G1Y0.0674
G1X0.0494Y0.0638
G1X0.0638Y0.0494
G1X0.0674Y0.0468
G1X0.0468
G1X0.0418Y0.0418
G1Y0.0825
G1X0.0532Y0.0670
G1X0.0670Y0.0532
G1X0.0825Y0.0418
G1X0.0418
G1X0.0368Y0.0368
G1Y0.1031
G1X0.0373Y0.1016
G1X0.0459Y0.0854
G1X0.0570Y0.0703
G1X0.0703Y0.0570
G1X0.0854Y0.0459
G1X0.1031Y0.0368
G1X0.0368
G1X0.0318Y0.0318
G1Y0.1518
G3X0.0669Y0.0669I0.1200J0.0000
G3X0.1518Y0.0318I0.0849J0.0849
G1X0.0318
G0Z0.2000
G0X1.1145Y2.0795
G1Z-0.1000F30.0
G1X1.1012Y2.0953F100.0
G1X1.0961Y2.0996
G1X1.0995Y2.0984
G1X1.1092Y2.0933
G1X1.1126Y2.0888
G1X1.1157Y2.0800
G1X1.1166Y2.0761
G1X1.1145Y2.0795
G1X1.1104Y2.0766
G1X1.0976Y2.0918
G1X1.0825Y2.1046
G1X1.0657Y2.1146
G1X1.0586Y2.1174
G1X1.0588Y2.1177
G1X1.0612Y2.1167
G1X1.1055Y2.1013
G1X1.1123Y2.0973
G1X1.1164Y2.0923
G1X1.1202Y2.0827
G1X1.1250Y2.0574
G1X1.1296Y2.0343
G1X1.1293Y2.0342
G1X1.1275Y2.0422
G1X1.1205Y2.0599
G1X1.1104Y2.0766
G0Z0.2000
G0X1.5731Y1.7916
G1Z-0.1000F30.0
G1X1.5821Y1.7840F100.0
G1X1.5898Y1.7739
G1X1.5938Y1.7664
G1X1.5902Y1.7725
G1X1.5769Y1.7882
G1X1.5715Y1.7927
G1X1.5731Y1.7916
G1X1.5777Y1.7945
G1X1.5875Y1.7855
G1X1.5955Y1.7742
G1X1.6016Y1.7602
G1X1.6061Y1.7421
G1X1.6081Y1.7234
G1X1.6087Y1.7033
G1X1.6084Y1.6957
G1X1.6082Y1.6958
G1X1.6085Y1.6998
G3X1.5799Y1.7775I-0.1199J-0.0001
G3X1.5078Y1.8181I-0.0913J-0.0777
G1X1.5078Y1.8182
G1X1.5153Y1.8170
G1X1.5382Y1.8119
G1X1.5534Y1.8071
G1X1.5664Y1.8013
G1X1.5777Y1.7945
G0Z0.2000
G0X2.3514Y1.7333
G1Z-0.1000F30.0
G1X2.3519Y1.7334F100.0
G1X2.3520Y1.7330
G1X2.3514Y1.7333
G1X2.3489Y1.7290
G1X2.3346Y1.7341
G1X2.3547Y1.7393
G1X2.3581Y1.7316
G1X2.3624Y1.7218
G1X2.3489Y1.7290
G1X2.3518Y1.7221
G1X2.3334Y1.7294
G1X2.3132Y1.7337
G1X2.3576Y1.7452
G1X2.3627Y1.7336
G1X2.3747Y1.7071
G1X2.3693Y1.7117
G1X2.3518Y1.7221
G1X2.3552Y1.7145
G3X2.2967Y1.7300I-0.0589J-0.1043
G1X2.2793Y1.7287
G1X2.2624Y1.7249
G1X2.2624Y1.7250
G1X2.3242Y1.7417
G1X2.3604Y1.7509
G1X2.3613Y1.7493
G1X2.3758Y1.7161
G1X2.3858Y1.6960
G1X2.3991Y1.6725
G1X2.3987Y1.6723
G3X2.3552Y1.7145I-0.1024J-0.0621
G0Z0.2000
G0X2.9248Y1.6542
G1Z-0.1000F30.0
G1X2.9149Y1.6572F100.0
G1X2.9322Y1.6886
G1X2.9264Y1.6617
G1X2.9248Y1.6542
G1X2.9286Y1.6479
G1X2.9075Y1.6538
G1X2.9442Y1.7199
G1X2.9418Y1.7091
G1X2.9286Y1.6479
G1X2.9323Y1.6415
G1X2.9090Y1.6485
G1X2.8999Y1.6501
G1X2.9244Y1.6951
G1X2.9555Y1.7491
G1X2.9537Y1.7401
G1X2.9323Y1.6415
G1X2.9296Y1.6372
G1X2.9078Y1.6436
G1X2.8923Y1.6463
G1X2.9057Y1.6719
G1X2.9300Y1.7154
G1X2.9659Y1.7761
G1X2.9620Y1.7564
G1X2.9359Y1.6345
G1X2.9296Y1.6372
G1X2.9332Y1.6305
G1X2.9103Y1.6379
G1X2.8846Y1.6423
G1X2.9013Y1.6743
G1X2.9257Y1.7179
G1X2.9686Y1.7903
G1X2.9755Y1.8015
G1X2.9734Y1.7885
G1X2.9635Y1.7379
G1X2.9396Y1.6275
G1X2.9332Y1.6305
G1X2.9314Y1.6259
G1X2.9090Y1.6331
G1X2.8868Y1.6372
G1X2.8766Y1.6378
G1X2.8970Y1.6767
G1X2.9214Y1.7204
G1X2.9644Y1.7929
G1X2.9838Y1.8249
G1X2.9821Y1.8113
G1X2.9783Y1.7875
G1X2.9684Y1.7368
G1X2.9434Y1.6202
G1X2.9314Y1.6259
G1X2.9295Y1.6212
G1X2.9078Y1.6282
G1X2.8862Y1.6322
G1X2.8686Y1.6333
G1X2.8926Y1.6792
G1X2.9170Y1.7230
G1X2.9601Y1.7954
G1X2.9922Y1.8484
G1X2.9905Y1.8375
G1X2.9870Y1.8104
G1X2.9832Y1.7865
G1X2.9733Y1.7358
G1X2.9501Y1.6294
G1X2.9471Y1.6129
G1X2.9295Y1.6212
G1X2.9095Y1.6225
G3X2.8651Y1.6285I-0.0447J-0.1639
G1X2.8607Y1.6282
G1X2.8882Y1.6816
G1X2.9127Y1.7255
G1X2.9558Y1.7980
G1X3.0018Y1.8739
G1X3.0007Y1.8691
G1X2.9954Y1.8368
G1X2.9920Y1.8097
G1X2.9881Y1.7855
G1X2.9782Y1.7347
G1X2.9550Y1.6284
G1X2.9508Y1.6051
G3X2.9095Y1.6225I-0.0860J-0.1465
G1X2.9116Y1.6166
G3X2.8651Y1.6235I-0.0472J-0.1579
G1X2.8525Y1.6227
G1X2.8716Y1.6607
G1X2.8982Y1.7097
G1X2.9341Y1.7719
G1X3.0156Y1.9063
G1X3.0137Y1.9009
G1X3.0056Y1.8681
G1X3.0004Y1.8360
G1X2.9969Y1.8089
G1X2.9930Y1.7846
G1X2.9830Y1.7336
G1X2.9599Y1.6275
G1X2.9543Y1.5968
G3X2.9116Y1.6166I-0.0899J-0.1382
G1X2.9138Y1.6108
G3X2.8651Y1.6185I-0.0491J-0.1522
G1X2.8546Y1.6181
G1X2.8442Y1.6170
G1X2.8563Y1.6423
G1X2.8795Y1.6865
G1X2.9041Y1.7305
G1X2.9473Y1.8032
G1X3.0406Y1.9575
G1X3.0392Y1.9544
G1X3.0290Y1.9305
G1X3.0185Y1.8995
G1X3.0105Y1.8671
G1X3.0053Y1.8353
G1X3.0018Y1.8081
G1X2.9979Y1.7836
G1X2.9879Y1.7325
G1X2.9649Y1.6265
G1X2.9579Y1.5886
G3X2.9138Y1.6108I-0.0932J-0.1299
G0Z0.2000
G0X3.1731Y2.1743
G1Z-0.1000F30.0
G1X3.1825Y2.1681F100.0
G1X3.1632Y2.1506
G1X3.1731Y2.1743
G1X3.1723Y2.1808
G1X3.1908Y2.1686
G1X3.1559Y2.1368
G1X3.1482Y2.1293
G1X3.1708Y2.1821
G1X3.1723Y2.1808
G1X3.1753Y2.1848
G1X3.1947Y2.1721
G1X3.1997Y2.1697
G1X3.1614Y2.1352
G1X3.1426Y2.1168
G1X3.1313Y2.1049
G1X3.1515Y2.1487
G1X3.1688Y2.1904
G1X3.1753Y2.1848
G1X3.1783Y2.1888
G1X3.1971Y2.1764
G1X3.2088Y2.1709
G1X3.1838Y2.1491
G1X3.1629Y2.1297
G1X3.1461Y2.1133
G1X3.1241Y2.0899
G1X3.1106Y2.0742
G1X3.1216Y2.0958
G1X3.1469Y2.1507
G1X3.1667Y2.1989
G1X3.1783Y2.1888
G1X3.1813Y2.1928
G1X3.1996Y2.1808
G1X3.2180Y2.1721
G1X3.1872Y2.1454
G1X3.1664Y2.1261
G1X3.1497Y2.1098
G1X3.1279Y2.0866
G1X3.1091Y2.0648
G1X3.0902Y2.0406
G1X3.0772Y2.0219
G1X3.1015Y2.0675
G1X3.1170Y2.0979
G1X3.1423Y2.1526
G1X3.1635Y2.2047
G1X3.1645Y2.2074
G1X3.1647Y2.2072
G1X3.1813Y2.1928
G1X3.1768Y2.2028
G1X3.1954Y2.1891
G1X3.2156Y2.1784
G1X3.2282Y2.1739
G1X3.1906Y2.1417
G1X3.1699Y2.1225
G1X3.1533Y2.1063
G1X3.1317Y2.0834
G1X3.1129Y2.0616
G1X3.0942Y2.0376
G1X3.0767Y2.0124
G1X3.0596Y1.9838
G1X3.0438Y1.9524
G1X3.0337Y1.9287
G1X3.0233Y1.8981
G1X3.0154Y1.8661
G1X3.0103Y1.8346
G1X3.0068Y1.8073
G1X3.0028Y1.7827
G1X2.9928Y1.7315
G1X2.9698Y1.6255
G1X2.9613Y1.5796
G3X2.9161Y1.6047I-0.0967J-0.1209
G3X2.8651Y1.6135I-0.0515J-0.1460
G1X2.8502Y1.6126
G1X2.8354Y1.6103
G1X2.8519Y1.6446
G1X2.8751Y1.6889
G1X2.8998Y1.7331
G1X2.9430Y1.8058
G1X3.0390Y1.9647
G1X3.0699Y2.0190
G1X3.0872Y2.0504
G1X3.1125Y2.1000
G1X3.1377Y2.1546
G1X3.1588Y2.2064
G1X3.1627Y2.2169
G1X3.1768Y2.2028
G1X3.1800Y2.2066
G1X3.1981Y2.1933
G1X3.2176Y2.1830
G1X3.2382Y2.1757
G1X3.1956Y2.1395
G1X3.1734Y2.1189
G1X3.1568Y2.1028
G1X3.1355Y2.0801
G1X3.1168Y2.0585
G1X3.0982Y2.0346
G1X3.0809Y2.0096
G1X3.0640Y1.9815
G1X3.0484Y1.9504
G1X3.0384Y1.9269
G1X3.0281Y1.8967
G1X3.0203Y1.8651
G1X3.0152Y1.8339
G1X3.0117Y1.8065
G1X3.0077Y1.7817
G1X2.9977Y1.7304
G1X2.9747Y1.6245
G1X2.9647Y1.5704
G3X2.9184Y1.5986I-0.0998J-0.1118
G3X2.8651Y1.6085I-0.0535J-0.1400
G1X2.8457Y1.6072
G1X2.8266Y1.6034
G1X2.8475Y1.6469
G1X2.8708Y1.6914
G1X2.8955Y1.7356
G1X2.9387Y1.8084
G1X3.0346Y1.9672
G1X3.0655Y2.0214
G1X3.0827Y2.0527
G1X3.1080Y2.1021
G1X3.1331Y2.1566
G1X3.1542Y2.2082
G1X3.1610Y2.2267
G1X3.1641Y2.2226
G1X3.1800Y2.2066
G1X3.1833Y2.2104
G1X3.2007Y2.1975
G1X3.2196Y2.1876
G1X3.2392Y2.1806
G1X3.2496Y2.1785
G1X3.2179Y2.1523
G1X3.1814Y2.1198
G1X3.1604Y2.0993
G1X3.1393Y2.0768
G1X3.1207Y2.0553
G1X3.1023Y2.0317
G1X3.0851Y2.0069
G1X3.0685Y1.9792
G1X3.0530Y1.9485
G1X3.0431Y1.9251
G1X3.0329Y1.8952
G1X3.0252Y1.8641
G1X3.0202Y1.8332
G1X3.0166Y1.8057
G1X3.0126Y1.7808
G1X3.0026Y1.7293
G1X2.9796Y1.6235
G1X2.9682Y1.5599
G3X2.9211Y1.5921I-0.1036J-0.1012
G3X2.8651Y1.6035I-0.0564J-0.1334
G1X2.8408Y1.6013
G1X2.8173Y1.5950
G1X2.8431Y1.6492
G1X2.8664Y1.6938
G1X2.8911Y1.7381
G1X2.9344Y1.8110
G1X3.0303Y1.9697
G1X3.0612Y2.0238
G1X3.0783Y2.0551
G1X3.1034Y2.1042
G1X3.1285Y2.1585
G1X3.1495Y2.2099
G1X3.1594Y2.2373
G1X3.1679Y2.2258
G1X3.1833Y2.2104
G1X3.1865Y2.2142
G1X3.2034Y2.2018
G1X3.2216Y2.1921
G1X3.2405Y2.1854
G1X3.2617Y2.1814
G1X3.2212Y2.1485
G1X3.1848Y2.1162
G1X3.1640Y2.0958
G1X3.1431Y2.0736
G1X3.1245Y2.0521
G1X3.1063Y2.0287
G1X3.0893Y2.0042
G1X3.0729Y1.9769
G1X3.0576Y1.9465
G1X3.0477Y1.9233
G1X3.0377Y1.8938
G1X3.0301Y1.8631
G1X3.0251Y1.8325
G1X3.0216Y1.8049
G1X3.0175Y1.7798
G1X3.0075Y1.7283
G1X2.9845Y1.6226
G1X2.9730Y1.5583
G1X2.9717Y1.5491
G3X2.9239Y1.5855I-0.1067J-0.0906
G3X2.8651Y1.5985I-0.0588J-0.1270
G1X2.8359Y1.5954
G1X2.8079Y1.5862
G1X2.8225Y1.6181
G1X2.8386Y1.6515
G1X2.8620Y1.6962
G1X2.8868Y1.7406
G1X2.9302Y1.8136
G1X3.0260Y1.9722
G1X3.0568Y2.0262
G1X3.0739Y2.0574
G1X3.0989Y2.1064
G1X3.1239Y2.1605
G1X3.1448Y2.2117
G1X3.1579Y2.2484
G1X3.1592Y2.2459
G1X3.1717Y2.2291
G1X3.1865Y2.2142
G1X3.1898Y2.2180
G1X3.2061Y2.2060
G1X3.2236Y2.1967
G1X3.2418Y2.1903
G1X3.2601Y2.1865
G1X3.2752Y2.1855
G1X3.2455Y2.1623
G1X3.2041Y2.1270
G1X3.1839Y2.1082
G1X3.1675Y2.0923
G1X3.1468Y2.0703
G1X3.1284Y2.0489
G1X3.1103Y2.0258
G1X3.0935Y2.0015
G1X3.0774Y1.9746
G1X3.0622Y1.9445
G1X3.0524Y1.9215
G1X3.0425Y1.8924
G1X3.0350Y1.8621
G1X3.0301Y1.8318
G1X3.0265Y1.8041
G1X3.0224Y1.7788
G1X3.0123Y1.7272
G1X2.9894Y1.6216
G1X2.9780Y1.5576
G1X2.9750Y1.5363
G3X2.9270Y1.5783I-0.1103J-0.0776
G3X2.8651Y1.5935I-0.0623J-0.1196
G1X2.8302Y1.5888
G1X2.7978Y1.5752
G1X2.8180Y1.6203
G1X2.8342Y1.6539
G1X2.8577Y1.6987
G1X2.8825Y1.7432
G1X2.9259Y1.8162
G1X3.0217Y1.9747
G1X3.0524Y2.0286
G1X3.0695Y2.0598
G1X3.0944Y2.1085
G1X3.1193Y2.1625
G1X3.1401Y2.2134
G1X3.1569Y2.2610
G1X3.1635Y2.2486
G1X3.1755Y2.2324
G1X3.1898Y2.2180
G1X3.2036Y2.2138
G3X3.2778Y2.1904I0.0745J0.1064
G1X3.2907Y2.1912
G1X3.2487Y2.1585
G1X3.2074Y2.1233
G1X3.1873Y2.1046
G1X3.1711Y2.0887
G1X3.1506Y2.0670
G1X3.1323Y2.0458
G1X3.1143Y2.0228
G1X3.0977Y1.9988
G1X3.0818Y1.9723
G1X3.0663Y1.9413
G1X3.0571Y1.9197
G1X3.0473Y1.8910
G1X3.0399Y1.8611
G1X3.0350Y1.8310
G1X3.0315Y1.8033
G1X3.0274Y1.7779
G1X3.0172Y1.7261
G1X2.9943Y1.6206
G1X2.9829Y1.5569
G1X2.9785Y1.5214
G3X2.9309Y1.5704I-0.1137J-0.0628
G3X2.8651Y1.5885I-0.0661J-0.1117
G3X2.8238Y1.5816I0.0005J-0.1298
G3X2.7868Y1.5618I0.0418J-0.1229
G1X2.8076Y1.6100
G1X2.8298Y1.6562
G1X2.8533Y1.7011
G1X2.8782Y1.7457
G1X2.9216Y1.8188
G1X3.0173Y1.9772
G1X3.0480Y2.0310
G1X3.0748Y2.0811
G1X3.0898Y2.1106
G1X3.1147Y2.1644
G1X3.1354Y2.2151
G1X3.1517Y2.2611
G1X3.1561Y2.2756
G3X3.2036Y2.2138I0.1219J0.0446
G1X3.1996Y2.2231
G3X3.2778Y2.1954I0.0784J0.0971
G1X3.2942Y2.1966
G1X3.3102Y2.1999
G1X3.2519Y2.1546
G1X3.2108Y2.1196
G1X3.1908Y2.1011
G1X3.1747Y2.0852
G1X3.1544Y2.0637
G1X3.1361Y2.0426
G1X3.1184Y2.0198
G1X3.1019Y1.9960
G1X3.0862Y1.9701
G1X3.0709Y1.9393
G1X3.0617Y1.9180
G1X3.0521Y1.8896
G1X3.0448Y1.8601
G1X3.0400Y1.8303
G1X3.0364Y1.8026
G1X3.0323Y1.7769
G1X3.0221Y1.7250
G1X2.9992Y1.6196
G1X2.9879Y1.5562
G1X2.9828Y1.5143
G1X2.9818Y1.5023
G3X2.9361Y1.5611I-0.1169J-0.0436
G3X2.8651Y1.5835I-0.0713J-0.1024
G3X2.8159Y1.5733I0.0003J-0.1249
G3X2.7747Y1.5445I0.0494J-0.1147
G1X2.7943Y1.5926
G1X2.8090Y1.6246
G1X2.8253Y1.6585
G1X2.8489Y1.7036
G1X2.8739Y1.7482
G1X2.9173Y1.8214
G1X3.0130Y1.9797
G1X3.0436Y2.0334
G1X3.0704Y2.0834
G1X3.0853Y2.1127
G1X3.1101Y2.1664
G1X3.1316Y2.2193
G1X3.1469Y2.2626
G1X3.1561Y2.2938
G3X3.1996Y2.2231I0.1220J0.0264
G1X3.1930Y2.2355
G3X3.2778Y2.2004I0.0849J0.0849
G3X3.3169Y2.2071I-0.0005J0.1198
G3X3.3517Y2.2262I-0.0396J0.1131
G1X3.3519Y2.2259
G1X3.2550Y2.1507
G1X3.2142Y2.1159
G1X3.1943Y2.0975
G1X3.1782Y2.0817
G1X3.1582Y2.0605
G1X3.1400Y2.0394
G1X3.1224Y2.0169
G1X3.1061Y1.9933
G1X3.0907Y1.9678
G1X3.0755Y1.9374
G1X3.0664Y1.9162
G1X3.0569Y1.8882
G1X3.0497Y1.8591
G1X3.0449Y1.8296
G1X3.0413Y1.8018
G1X3.0372Y1.7760
G1X3.0270Y1.7240
G1X3.0041Y1.6186
G1X2.9928Y1.5555
G1X2.9877Y1.5138
G1X2.9854Y1.4768
G1X2.9851Y1.4569
G1X2.9850Y1.4569
G1X2.9851Y1.4585
G3X2.9500Y1.5434I-0.1200J0.0000
G3X2.8651Y1.5785I-0.0849J-0.0849
G3X2.7993Y1.5586I0.0002J-0.1198
G3X2.7552Y1.5059I0.0661J-0.1000
G1X2.7549Y1.5060
G1X2.7734Y1.5549
G1X2.7897Y1.5946
G1X2.8045Y1.6268
G1X2.8209Y1.6608
G1X2.8446Y1.7060
G1X2.8696Y1.7508
G1X2.9131Y1.8240
G1X3.0087Y1.9822
G1X3.0392Y2.0358
G1X3.0659Y2.0857
G1X3.0808Y2.1148
G1X3.1055Y2.1684
G1X3.1269Y2.2211
G1X3.1422Y2.2642
G1X3.1508Y2.2935
G1X3.1543Y2.3066
G1X3.1581Y2.3297
G1X3.1583Y2.3310
G1X3.1586Y2.3310
G1X3.1578Y2.3204
G3X3.1930Y2.2355I0.1200J0.0000
G0Z0.2000
G0X3.1876Y2.4495
G1Z-0.1000F30.0
G1X3.1742Y2.4361F100.0
G1X3.1773Y2.4480
G1X3.1809Y2.4538
G1X3.1869Y2.4568
G1X3.1960Y2.4583
G1X3.1999Y2.4586
G1X3.1876Y2.4495
G1X3.1908Y2.4458
G1X3.1765Y2.4314
G1X3.1676Y2.4193
G1X3.1691Y2.4361
G1X3.1727Y2.4499
G1X3.1770Y2.4570
G1X3.1829Y2.4607
G1X3.1929Y2.4631
G1X3.2054Y2.4639
G1X3.2178Y2.4634
G1X3.2071Y2.4577
G1X3.1908Y2.4458
G1X3.1941Y2.4420
G1X3.1802Y2.4281
G1X3.1687Y2.4125
G1X3.1630Y2.4018
G1X3.1626Y2.4208
G1X3.1641Y2.4370
G1X3.1676Y2.4507
G1X3.1720Y2.4588
G1X3.1768Y2.4632
G1X3.1848Y2.4666
G1X3.1952Y2.4683
G1X3.2056Y2.4688
G1X3.2252Y2.4676
G1X3.2370Y2.4661
G1X3.2266Y2.4624
G1X3.2097Y2.4535
G1X3.1941Y2.4420
G1X3.1904Y2.4318
G1X3.1771Y2.4160
G1X3.1667Y2.3985
G1X3.1597Y2.3810
G1X3.1575Y2.4120
G1X3.1588Y2.4350
G1X3.1617Y2.4490
G1X3.1663Y2.4593
G1X3.1708Y2.4649
G1X3.1781Y2.4696
G1X3.1902Y2.4729
G1X3.2057Y2.4738
G1X3.2206Y2.4732
G1X3.2380Y2.4710
G1X3.2599Y2.4669
G1X3.2421Y2.4629
G1X3.2237Y2.4556
G1X3.2062Y2.4451
G1X3.1904Y2.4318
G1X3.1940Y2.4283
G3X3.1588Y2.3435I0.0848J-0.0849
G1X3.1577Y2.3587
G1X3.1538Y2.3887
G1X3.1525Y2.4173
G1X3.1540Y2.4372
G1X3.1575Y2.4520
G1X3.1620Y2.4619
G1X3.1674Y2.4686
G1X3.1747Y2.4735
G1X3.1847Y2.4769
G1X3.2030Y2.4789
G1X3.2059Y2.4788
G1X3.2212Y2.4782
G1X3.2389Y2.4759
G1X3.2588Y2.4722
G1X3.2998Y2.4621
G1X3.3109Y2.4590
G1X3.3109Y2.4588
G1X3.2950Y2.4622
G1X3.2788Y2.4634
G3X3.1940Y2.4283I0.0000J-0.1200
G0Z0.2000
G0X3.4733Y2.3611
G1Z-0.1000F30.0
G1X3.4717Y2.3697F100.0
G1X3.4764Y2.3691
G1X3.4946Y2.3671
G1X3.4733Y2.3611
G1X3.4750Y2.3564
G1X3.4691Y2.3542
G1X3.4656Y2.3756
G1X3.4696Y2.3751
G1X3.5038Y2.3713
G1X3.5309Y2.3688
G1X3.5005Y2.3636
G1X3.4750Y2.3564
G0Z0.2000
G0X3.6205Y2.3659
G1Z-0.1000F30.0
G1X3.6454Y2.3626F100.0
G1X3.6793Y2.3605
G1X3.7026Y2.3607
G1X3.7320Y2.3633
G1X3.7540Y2.3670
G1X3.7801Y2.3739
G1X3.7917Y2.3779
G1X3.7281Y2.3707
G1X3.6747Y2.3672
G1X3.6205Y2.3659
G0Z0.2000
G0X3.8020Y2.3765
G1Z-0.1000F30.0
G1X3.7787Y2.3682F100.0
G1X3.7548Y2.3621
G1X3.7293Y2.3579
G1X3.7026Y2.3557
G1X3.6744Y2.3556
G1X3.6448Y2.3576
G1X3.6112Y2.3623
G1X3.5804Y2.3655
G1X3.5557Y2.3659
G1X3.5281Y2.3636
G1X3.5016Y2.3587
G1X3.4766Y2.3517
G1X3.4645Y2.3472
G1X3.4639Y2.3573
G1X3.4601Y2.3778
G1X3.4589Y2.3816
G1X3.4965Y2.3770
G1X3.5343Y2.3735
G1X3.5886Y2.3711
G1X3.6319Y2.3708
G1X3.6882Y2.3729
G1X3.7401Y2.3769
G1X3.7882Y2.3824
G1X3.8263Y2.3878
G1X3.8248Y2.3870
G1X3.8020Y2.3765
G1X3.8038Y2.3718
G1X3.7800Y2.3634
G1X3.7557Y2.3572
G1X3.7298Y2.3529
G1X3.7027Y2.3507
G1X3.6741Y2.3506
G1X3.6442Y2.3527
G1X3.6105Y2.3573
G1X3.5803Y2.3605
G1X3.5559Y2.3609
G1X3.5287Y2.3586
G1X3.5028Y2.3538
G1X3.4781Y2.3469
G1X3.4599Y2.3401
G1X3.4589Y2.3567
G1X3.4553Y2.3765
G1X3.4517Y2.3876
G1X3.4970Y2.3820
G1X3.5346Y2.3785
G1X3.5886Y2.3761
G1X3.6318Y2.3758
G1X3.6878Y2.3779
G1X3.7395Y2.3819
G1X3.7875Y2.3874
G1X3.8351Y2.3944
G1X3.8522Y2.3974
G1X3.8481Y2.3946
G1X3.8263Y2.3821
G1X3.8038Y2.3718
G1X3.8056Y2.3671
G1X3.7814Y2.3586
G1X3.7566Y2.3523
G1X3.7303Y2.3479
G1X3.7028Y2.3457
G1X3.6739Y2.3456
G1X3.6436Y2.3477
G1X3.6098Y2.3524
G1X3.5803Y2.3555
G1X3.5561Y2.3559
G1X3.5294Y2.3537
G1X3.5039Y2.3489
G1X3.4797Y2.3421
G1X3.4548Y2.3327
G1X3.4551Y2.3375
G1X3.4523Y2.3661
G1X3.4442Y2.3936
G1X3.4974Y2.3869
G1X3.5350Y2.3835
G1X3.5887Y2.3811
G1X3.6318Y2.3808
G1X3.6875Y2.3829
G1X3.7390Y2.3869
G1X3.7868Y2.3923
G1X3.8342Y2.3993
G1X3.8729Y2.4061
G1X3.8719Y2.4053
G1X3.8506Y2.3903
G1X3.8285Y2.3776
G1X3.8056Y2.3671
G1X3.8192Y2.3675
G1X3.7953Y2.3579
G1X3.7704Y2.3503
G1X3.7444Y2.3449
G1X3.7171Y2.3415
G1X3.6885Y2.3404
G1X3.6585Y2.3414
G1X3.6271Y2.3446
G1X3.5846Y2.3503
G1X3.5562Y2.3509
G1X3.5301Y2.3487
G1X3.5050Y2.3441
G1X3.4812Y2.3374
G1X3.4587Y2.3290
G1X3.4492Y2.3247
G1X3.4501Y2.3375
G1X3.4466Y2.3694
G1X3.4363Y2.3999
G1X3.4870Y2.3929
G1X3.5353Y2.3885
G1X3.5887Y2.3861
G1X3.6317Y2.3858
G1X3.6871Y2.3879
G1X3.7385Y2.3919
G1X3.7861Y2.3973
G1X3.8334Y2.4043
G1X3.8837Y2.4134
G1X3.8914Y2.4150
G1X3.8855Y2.4098
G1X3.8641Y2.3934
G1X3.8421Y2.3793
G1X3.8192Y2.3675
G1X3.8329Y2.3687
G1X3.8091Y2.3578
G1X3.7841Y2.3490
G1X3.7585Y2.3424
G1X3.7313Y2.3380
G1X3.7030Y2.3357
G1X3.6734Y2.3356
G1X3.6424Y2.3378
G1X3.6085Y2.3425
G1X3.5801Y2.3455
G1X3.5564Y2.3459
G1X3.5307Y2.3437
G1X3.5062Y2.3392
G1X3.4828Y2.3326
G1X3.4606Y2.3244
G1X3.4434Y2.3165
G1X3.4446Y2.3270
G1X3.4451Y2.3375
G1X3.4404Y2.3732
G1X3.4271Y2.4066
G1X3.4539Y2.4024
G1X3.4983Y2.3969
G1X3.5357Y2.3935
G1X3.5888Y2.3911
G1X3.6316Y2.3908
G1X3.6868Y2.3929
G1X3.7379Y2.3968
G1X3.7854Y2.4022
G1X3.8325Y2.4092
G1X3.8827Y2.4183
G1X3.9079Y2.4235
G1X3.8992Y2.4152
G1X3.8775Y2.3970
G1X3.8558Y2.3818
G1X3.8329Y2.3687
G1X3.8351Y2.3642
G1X3.8109Y2.3531
G1X3.7854Y2.3441
G1X3.7594Y2.3375
G1X3.7319Y2.3330
G1X3.7032Y2.3307
G1X3.6731Y2.3306
G1X3.6418Y2.3328
G1X3.6078Y2.3375
G1X3.5800Y2.3405
G1X3.5566Y2.3409
G1X3.5314Y2.3388
G1X3.5073Y2.3343
G1X3.4843Y2.3279
G1X3.4625Y2.3198
G1X3.4365Y2.3074
G1X3.4391Y2.3223
G1X3.4401Y2.3375
G3X3.4343Y2.3771I-0.1399J-0.0002
G3X3.4175Y2.4134I-0.1342J-0.0398
G1X3.4475Y2.4083
G1X3.4988Y2.4019
G1X3.5360Y2.3985
G1X3.5888Y2.3961
G1X3.6446Y2.3962
G1X3.6864Y2.3979
G1X3.7374Y2.4018
G1X3.7847Y2.4072
G1X3.8317Y2.4141
G1X3.8817Y2.4232
G1X3.9230Y2.4319
G1X3.9191Y2.4278
G1X3.9024Y2.4113
G1X3.8804Y2.3929
G1X3.8584Y2.3775
G1X3.8351Y2.3642
G1X3.8493Y2.3662
G1X3.8251Y2.3538
G1X3.8000Y2.3436
G1X3.7738Y2.3357
G1X3.7465Y2.3300
G1X3.7180Y2.3266
G1X3.6882Y2.3254
G1X3.6572Y2.3264
G1X3.6248Y2.3298
G1X3.5833Y2.3354
G1X3.5567Y2.3359
G1X3.5321Y2.3338
G1X3.5084Y2.3294
G1X3.4859Y2.3231
G1X3.4644Y2.3151
G1X3.4441Y2.3058
G1X3.4288Y2.2976
G1X3.4335Y2.3173
G1X3.4351Y2.3375
G3X3.4276Y2.3815I-0.1348J-0.0005
G3X3.4061Y2.4206I-0.1273J-0.0444
G1X3.4481Y2.4133
G1X3.4992Y2.4069
G1X3.5363Y2.4035
G1X3.5888Y2.4011
G1X3.6444Y2.4012
G1X3.6861Y2.4028
G1X3.7369Y2.4068
G1X3.7840Y2.4121
G1X3.8308Y2.4190
G1X3.8807Y2.4281
G1X3.9373Y2.4404
G1X3.9369Y2.4400
G1X3.9163Y2.4177
G1X3.8948Y2.3981
G1X3.8725Y2.3809
G1X3.8493Y2.3662
G1X3.8517Y2.3618
G1X3.8271Y2.3492
G1X3.8016Y2.3389
G1X3.7750Y2.3309
G1X3.7472Y2.3251
G1X3.7183Y2.3216
G1X3.6882Y2.3204
G1X3.6568Y2.3214
G1X3.6241Y2.3249
G1X3.5828Y2.3304
G1X3.5569Y2.3309
G1X3.5327Y2.3288
G1X3.5096Y2.3246
G1X3.4874Y2.3184
G1X3.4664Y2.3105
G1X3.4463Y2.3013
G1X3.4195Y2.2864
G1X3.4274Y2.3114
G1X3.4301Y2.3375
G3X3.4203Y2.3865I-0.1298J-0.0004
G3X3.3927Y2.4282I-0.1200J-0.0494
G1X3.4488Y2.4182
G1X3.4997Y2.4118
G1X3.5367Y2.4085
G1X3.5889Y2.4061
G1X3.6442Y2.4062
G1X3.6857Y2.4078
G1X3.7364Y2.4117
G1X3.7833Y2.4171
G1X3.8299Y2.4240
G1X3.8797Y2.4330
G1X3.9356Y2.4451
G1X3.9505Y2.4487
G1X3.9408Y2.4368
G1X3.9198Y2.4141
G1X3.8980Y2.3942
G1X3.8753Y2.3768
G1X3.8517Y2.3618
G1X3.8541Y2.3574
G1X3.8291Y2.3446
G1X3.8031Y2.3341
G1X3.7761Y2.3260
G1X3.7480Y2.3201
G1X3.7186Y2.3166
G1X3.6881Y2.3154
G1X3.6563Y2.3165
G1X3.6233Y2.3199
G1X3.5824Y2.3254
G1X3.5571Y2.3259
G1X3.5334Y2.3239
G1X3.5107Y2.3197
G1X3.4890Y2.3136
G1X3.4683Y2.3059
G1X3.4485Y2.2968
G1X3.4241Y2.2833
G1X3.4061Y2.2720
G1X3.4201Y2.3034
G1X3.4251Y2.3375
G3X3.4118Y2.3934I-0.1249J-0.0002
G3X3.3749Y2.4374I-0.1116J-0.0561
G1X3.4079Y2.4304
G1X3.4495Y2.4232
G1X3.5001Y2.4168
G1X3.5370Y2.4135
G1X3.5889Y2.4111
G1X3.6441Y2.4112
G1X3.6854Y2.4128
G1X3.7358Y2.4167
G1X3.7826Y2.4220
G1X3.8291Y2.4289
G1X3.8787Y2.4379
G1X3.9344Y2.4500
G1X3.9631Y2.4568
G1X3.9616Y2.4550
G1X3.9444Y2.4333
G1X3.9232Y2.4105
G1X3.9011Y2.3903
G1X3.8781Y2.3726
G1X3.8541Y2.3574
G1X3.8565Y2.3530
G1X3.8311Y2.3400
G1X3.8047Y2.3294
G1X3.7772Y2.3211
G1X3.7487Y2.3152
G1X3.7189Y2.3116
G1X3.6880Y2.3104
G1X3.6559Y2.3115
G1X3.6225Y2.3150
G1X3.5820Y2.3204
G1X3.5573Y2.3209
G1X3.5341Y2.3189
G1X3.5118Y2.3148
G1X3.4905Y2.3088
G1X3.4702Y2.3013
G1X3.4508Y2.2924
G1X3.4267Y2.2790
G1X3.3973Y2.2601
G1X3.3713Y2.2409
G1X3.3712Y2.2410
G3X3.4072Y2.2834I-0.0711J0.0966
G3X3.4201Y2.3375I-0.1070J0.0542
G3X3.3956Y2.4100I-0.1199J-0.0001
G3X3.3321Y2.4529I-0.0954J-0.0727
G1X3.3322Y2.4531
G1X3.3638Y2.4450
G1X3.4028Y2.4364
G1X3.4502Y2.4282
G1X3.5006Y2.4218
G1X3.5374Y2.4184
G1X3.5889Y2.4161
G1X3.6439Y2.4162
G1X3.6850Y2.4178
G1X3.7353Y2.4217
G1X3.7819Y2.4270
G1X3.8282Y2.4338
G1X3.8776Y2.4428
G1X3.9333Y2.4549
G1X3.9752Y2.4652
G1X3.9686Y2.4559
G1X3.9481Y2.4300
G1X3.9267Y2.4069
G1X3.9042Y2.3864
G1X3.8808Y2.3684
G1X3.8565Y2.3530
G0Z0.2000
G0X4.2842Y2.4719
G1Z-0.1000F30.0
G1X4.2518Y2.4593F100.0
G1X4.2825Y2.4772
G1X4.2840Y2.4722
G1X4.2842Y2.4719
G1X4.2887Y2.4739
G1X4.2909Y2.4688
G1X4.2800Y2.4653
G1X4.2497Y2.4531
G1X4.2169Y2.4368
G1X4.1970Y2.4253
G1X4.2149Y2.4406
G1X4.2394Y2.4577
G1X4.2855Y2.4848
G1X4.2887Y2.4739
G1X4.2954Y2.4703
G1X4.2976Y2.4657
G1X4.2817Y2.4606
G1X4.2457Y2.4456
G1X4.2195Y2.4325
G1X4.1911Y2.4157
G1X4.1708Y2.4017
G1X4.1762Y2.4096
G1X4.1862Y2.4214
G1X4.2011Y2.4358
G1X4.2239Y2.4534
G1X4.2513Y2.4707
G1X4.2884Y2.4922
G1X4.2954Y2.4703
G1X4.3001Y2.4722
G1X4.3046Y2.4627
G1X4.2834Y2.4559
G1X4.2479Y2.4411
G1X4.2220Y2.4282
G1X4.1939Y2.4116
G1X4.1658Y2.3916
G1X4.1569Y2.3842
G1X4.1622Y2.3967
G1X4.1664Y2.4041
G1X4.1724Y2.4128
G1X4.1826Y2.4248
G1X4.1980Y2.4397
G1X4.2208Y2.4574
G1X4.2488Y2.4750
G1X4.2919Y2.5000
G1X4.2929Y2.4945
G1X4.3001Y2.4722
G1X4.3047Y2.4740
G1X4.3115Y2.4597
G1X4.2851Y2.4512
G1X4.2501Y2.4366
G1X4.2245Y2.4239
G1X4.1968Y2.4075
G1X4.1690Y2.3877
G1X4.1482Y2.3705
G1X4.1500Y2.3790
G1X4.1530Y2.3885
G1X4.1578Y2.3991
G1X4.1623Y2.4069
G1X4.1685Y2.4159
G1X4.1790Y2.4283
G1X4.1948Y2.4436
G1X4.2180Y2.4615
G1X4.2463Y2.4793
G1X4.2955Y2.5080
G1X4.2977Y2.4957
G1X4.3047Y2.4740
G1X4.3094Y2.4759
G1X4.3186Y2.4566
G1X4.2868Y2.4465
G1X4.2523Y2.4321
G1X4.2270Y2.4195
G1X4.1996Y2.4034
G1X4.1722Y2.3839
G1X4.1486Y2.3641
G1X4.1419Y2.3573
G1X4.1430Y2.3700
G1X4.1452Y2.3806
G1X4.1484Y2.3905
G1X4.1535Y2.4015
G1X4.1581Y2.4098
G1X4.1646Y2.4191
G1X4.1753Y2.4317
G1X4.1917Y2.4475
G1X4.2147Y2.4653
G1X4.2438Y2.4837
G1X4.2990Y2.5160
G1X4.3026Y2.4969
G1X4.3094Y2.4759
G1X4.3140Y2.4777
G1X4.3235Y2.4577
G1X4.3264Y2.4533
G1X4.3079Y2.4480
G1X4.2885Y2.4418
G1X4.2544Y2.4276
G1X4.2295Y2.4152
G1X4.2025Y2.3992
G1X4.1753Y2.3800
G1X4.1522Y2.3605
G1X4.1370Y2.3455
G1X4.1369Y2.3590
G1X4.1381Y2.3710
G1X4.1404Y2.3821
G1X4.1438Y2.3925
G1X4.1491Y2.4040
G1X4.1540Y2.4126
G1X4.1607Y2.4222
G1X4.1717Y2.4351
G1X4.1885Y2.4513
G1X4.2117Y2.4693
G1X4.2413Y2.4880
G1X4.3033Y2.5243
G1X4.3036Y2.5186
G1X4.3074Y2.4982
G1X4.3140Y2.4777
G1X4.3187Y2.4795
G1X4.3279Y2.4602
G1X4.3344Y2.4502
G1X4.3191Y2.4464
G1X4.2902Y2.4371
G1X4.2566Y2.4231
G1X4.2320Y2.4109
G1X4.2053Y2.3951
G1X4.1785Y2.3762
G1X4.1557Y2.3570
G1X4.1332Y2.3341
G1X4.1320Y2.3457
G1X4.1319Y2.3595
G1X4.1332Y2.3720
G1X4.1357Y2.3836
G1X4.1393Y2.3945
G1X4.1447Y2.4064
G1X4.1499Y2.4154
G1X4.1568Y2.4254
G1X4.1681Y2.4386
G1X4.1853Y2.4552
G1X4.2030Y2.4691
G1X4.2267Y2.4850
G1X4.3078Y2.5328
G1X4.3086Y2.5192
G1X4.3123Y2.4994
G1X4.3187Y2.4795
G1X4.3203Y2.4903
G3X4.3428Y2.4471I0.1469J0.0488
G1X4.3204Y2.4416
G1X4.2919Y2.4323
G1X4.2588Y2.4186
G1X4.2345Y2.4066
G1X4.2081Y2.3910
G1X4.1817Y2.3723
G1X4.1592Y2.3534
G1X4.1402Y2.3345
G1X4.1301Y2.3229
G1X4.1280Y2.3358
G1X4.1270Y2.3457
G1X4.1269Y2.3600
G1X4.1283Y2.3730
G1X4.1309Y2.3851
G1X4.1347Y2.3965
G1X4.1404Y2.4088
G1X4.1458Y2.4182
G1X4.1530Y2.4286
G1X4.1644Y2.4420
G1X4.1813Y2.4584
G1X4.2001Y2.4732
G1X4.2241Y2.4893
G1X4.3127Y2.5416
G1X4.3124Y2.5384
G3X4.3203Y2.4903I0.1548J0.0007
G1X4.3262Y2.4883
G3X4.3513Y2.4439I0.1411J0.0505
G1X4.3218Y2.4368
G1X4.2936Y2.4276
G1X4.2610Y2.4141
G1X4.2370Y2.4022
G1X4.2074Y2.3844
G1X4.1849Y2.3684
G1X4.1627Y2.3499
G1X4.1439Y2.3311
G1X4.1275Y2.3113
G1X4.1237Y2.3293
G1X4.1220Y2.3456
G1X4.1220Y2.3604
G1X4.1234Y2.3740
G1X4.1261Y2.3866
G1X4.1301Y2.3985
G1X4.1360Y2.4113
G1X4.1416Y2.4210
G1X4.1491Y2.4317
G1X4.1608Y2.4454
G1X4.1780Y2.4622
G1X4.1971Y2.4772
G1X4.2215Y2.4936
G1X4.3183Y2.5509
G1X4.3174Y2.5384
G3X4.3262Y2.4883I0.1499J0.0004
G1X4.3325Y2.4859
G3X4.3609Y2.4405I0.1348J0.0529
G1X4.3492Y2.4384
G1X4.3232Y2.4319
G1X4.2953Y2.4229
G1X4.2632Y2.4096
G1X4.2395Y2.3979
G1X4.2103Y2.3803
G1X4.1880Y2.3646
G1X4.1663Y2.3463
G1X4.1475Y2.3277
G1X4.1306Y2.3071
G1X4.1252Y2.2994
G1X4.1187Y2.3288
G1X4.1170Y2.3456
G1X4.1170Y2.3609
G1X4.1185Y2.3750
G1X4.1214Y2.3882
G1X4.1255Y2.4005
G1X4.1316Y2.4137
G1X4.1375Y2.4239
G1X4.1452Y2.4349
G1X4.1572Y2.4489
G1X4.1748Y2.4659
G1X4.1942Y2.4812
G1X4.2190Y2.4979
G1X4.3108Y2.5521
G1X4.3243Y2.5605
G1X4.3230Y2.5495
G1X4.3224Y2.5384
G3X4.3325Y2.4859I0.1449J0.0004
G1X4.3389Y2.4833
G3X4.3712Y2.4372I0.1283J0.0555
G1X4.3504Y2.4335
G1X4.3245Y2.4271
G1X4.2970Y2.4182
G1X4.2654Y2.4051
G1X4.2421Y2.3936
G1X4.2131Y2.3762
G1X4.1912Y2.3607
G1X4.1698Y2.3428
G1X4.1512Y2.3243
G1X4.1345Y2.3040
G1X4.1232Y2.2867
G1X4.1139Y2.3274
G1X4.1120Y2.3455
G1X4.1120Y2.3614
G1X4.1136Y2.3760
G1X4.1166Y2.3897
G1X4.1209Y2.4025
G1X4.1273Y2.4161
G1X4.1334Y2.4267
G1X4.1413Y2.4380
G1X4.1535Y2.4523
G1X4.1715Y2.4697
G1X4.1912Y2.4853
G1X4.2164Y2.5022
G1X4.3082Y2.5564
G1X4.3315Y2.5709
G1X4.3285Y2.5548
G1X4.3274Y2.5384
G3X4.3389Y2.4833I0.1398J0.0004
G1X4.3456Y2.4805
G3X4.3824Y2.4339I0.1217J0.0581
G1X4.3516Y2.4287
G1X4.3259Y2.4223
G1X4.2988Y2.4135
G1X4.2676Y2.4006
G1X4.2446Y2.3893
G1X4.2160Y2.3721
G1X4.1944Y2.3569
G1X4.1733Y2.3392
G1X4.1549Y2.3209
G1X4.1385Y2.3010
G1X4.1274Y2.2840
G1X4.1219Y2.2737
G1X4.1150Y2.2989
G1X4.1088Y2.3277
G1X4.1070Y2.3455
G1X4.1070Y2.3619
G1X4.1087Y2.3770
G1X4.1118Y2.3912
G1X4.1163Y2.4045
G1X4.1229Y2.4186
G1X4.1292Y2.4295
G1X4.1374Y2.4412
G1X4.1499Y2.4558
G1X4.1670Y2.4723
G1X4.1883Y2.4893
G1X4.2138Y2.5064
G1X4.3055Y2.5606
G1X4.3401Y2.5821
G1X4.3344Y2.5606
G1X4.3324Y2.5384
G3X4.3456Y2.4805I0.1349J0.0002
G1X4.3530Y2.4769
G3X4.3960Y2.4301I0.1143J0.0617
G1X4.3813Y2.4288
G1X4.3528Y2.4238
G1X4.3273Y2.4175
G1X4.3005Y2.4088
G1X4.2698Y2.3961
G1X4.2471Y2.3850
G1X4.2188Y2.3680
G1X4.1976Y2.3530
G1X4.1768Y2.3357
G1X4.1585Y2.3175
G1X4.1424Y2.2979
G1X4.1318Y2.2817
G1X4.1215Y2.2628
G1X4.1169Y2.2728
G1X4.1082Y2.3058
G1X4.1038Y2.3271
G1X4.1020Y2.3454
G1X4.1020Y2.3623
G1X4.1038Y2.3780
G1X4.1071Y2.3927
G1X4.1118Y2.4065
G1X4.1185Y2.4210
G1X4.1251Y2.4323
G1X4.1336Y2.4443
G1X4.1463Y2.4592
G1X4.1636Y2.4760
G1X4.1853Y2.4933
G1X4.2112Y2.5107
G1X4.3029Y2.5649
G1X4.3504Y2.5944
G1X4.3408Y2.5671
G1X4.3374Y2.5384
G3X4.3530Y2.4769I0.1299J0.0002
G1X4.3614Y2.4723
G3X4.4125Y2.4262I0.1060J0.0662
G1X4.3820Y2.4238
G1X4.3540Y2.4190
G1X4.3287Y2.4127
G1X4.3022Y2.4041
G1X4.2720Y2.3916
G1X4.2496Y2.3806
G1X4.2216Y2.3639
G1X4.2008Y2.3491
G1X4.1804Y2.3321
G1X4.1622Y2.3141
G1X4.1464Y2.2949
G1X4.1362Y2.2793
G1X4.1232Y2.2562
G1X4.1231Y2.2561
G1X4.1184Y2.2588
G1X4.1137Y2.2669
G1X4.1086Y2.2832
G1X4.0990Y2.3250
G1X4.0970Y2.3454
G1X4.0971Y2.3628
G1X4.0989Y2.3791
G1X4.1023Y2.3942
G1X4.1072Y2.4085
G1X4.1142Y2.4235
G1X4.1210Y2.4351
G1X4.1297Y2.4475
G1X4.1426Y2.4626
G1X4.1512Y2.4714
G1X4.1632Y2.4823
G1X4.1824Y2.4974
G1X4.2086Y2.5150
G1X4.3002Y2.5691
G1X4.3645Y2.6091
G3X4.3481Y2.5754I0.1028J-0.0709
G3X4.3424Y2.5384I0.1192J-0.0373
G3X4.3614Y2.4723I0.1250J0.0000
G1X4.3785Y2.4580
G3X4.4556Y2.4193I0.0888J0.0806
G1X4.4555Y2.4190
G1X4.4324Y2.4212
G1X4.4086Y2.4212
G1X4.3826Y2.4188
G1X4.3552Y2.4141
G1X4.3300Y2.4079
G1X4.3039Y2.3994
G1X4.2741Y2.3871
G1X4.2521Y2.3763
G1X4.2245Y2.3598
G1X4.2039Y2.3453
G1X4.1839Y2.3286
G1X4.1658Y2.3107
G1X4.1481Y2.2889
G1X4.1406Y2.2770
G1X4.1282Y2.2547
G1X4.1249Y2.2507
G1X4.1177Y2.2530
G1X4.1131Y2.2574
G1X4.1091Y2.2651
G1X4.1037Y2.2820
G1X4.0941Y2.3242
G1X4.0920Y2.3453
G1X4.0921Y2.3633
G1X4.0940Y2.3801
G1X4.0976Y2.3957
G1X4.1026Y2.4105
G1X4.1098Y2.4259
G1X4.1169Y2.4380
G1X4.1258Y2.4506
G1X4.1390Y2.4661
G1X4.1478Y2.4751
G1X4.1600Y2.4862
G1X4.1794Y2.5014
G1X4.2060Y2.5193
G1X4.2976Y2.5734
G1X4.3852Y2.6281
G1X4.4020Y2.6390
G1X4.4022Y2.6387
G3X4.3621Y2.5955I0.0651J-0.1006
G3X4.3474Y2.5384I0.1052J-0.0574
G3X4.3785Y2.4580I0.1199J0.0002
G0Z0.2000
G0X4.4778Y3.0300
G1Z-0.1000F30.0
G1X4.4731Y3.0189F100.0
G1X4.4843Y3.0275
G1X4.4778Y3.0300
G1X4.4750Y3.0365
G1X4.4660Y3.0157
G1X4.4590Y3.0024
G1X4.4944Y3.0289
G1X4.4750Y3.0365
G1X4.4720Y3.0430
G1X4.4630Y3.0209
G1X4.4554Y3.0059
G1X4.4425Y2.9855
G1X4.4404Y2.9826
G1X4.5003Y3.0271
G1X4.5049Y3.0306
G1X4.4720Y3.0430
G1X4.4690Y3.0496
G1X4.4631Y3.0336
G1X4.4571Y3.0202
G1X4.4510Y3.0083
G1X4.4384Y2.9884
G1X4.4325Y2.9801
G1X4.4220Y2.9671
G1X4.4122Y2.9566
G1X4.4771Y3.0032
G1X4.5155Y3.0324
G1X4.4984Y3.0381
G1X4.4690Y3.0496
G1X4.4659Y3.0562
G1X4.4585Y3.0356
G1X4.4527Y3.0225
G1X4.4466Y3.0108
G1X4.4343Y2.9913
G1X4.4285Y2.9831
G1X4.4182Y2.9704
G1X4.4069Y2.9583
G1X4.3953Y2.9473
G1X4.3780Y2.9333
G1X4.3585Y2.9198
G1X4.3100Y2.8874
G1X4.2887Y2.8724
G1X4.3461Y2.9071
G1X4.4019Y2.9437
G1X4.4658Y2.9887
G1X4.5258Y3.0343
G1X4.5001Y3.0428
G1X4.4659Y3.0562
G1X4.4627Y3.0630
G1X4.4561Y3.0428
G1X4.4482Y3.0248
G1X4.4423Y3.0132
G1X4.4302Y2.9942
G1X4.4246Y2.9861
G1X4.4144Y2.9737
G1X4.4034Y2.9618
G1X4.3919Y2.9510
G1X4.3750Y2.9373
G1X4.3557Y2.9239
G1X4.3071Y2.8915
G1X4.2737Y2.8678
G1X4.2269Y2.8325
G1X4.2866Y2.8654
G1X4.3488Y2.9029
G1X4.4047Y2.9395
G1X4.4687Y2.9847
G1X4.5198Y3.0231
G1X4.5362Y3.0361
G1X4.5018Y3.0475
G1X4.4627Y3.0630
G1X4.4593Y3.0700
G1X4.4556Y3.0568
G1X4.4493Y3.0395
G1X4.4438Y3.0271
G1X4.4379Y3.0157
G1X4.4262Y2.9971
G1X4.4206Y2.9892
G1X4.4106Y2.9770
G1X4.3998Y2.9654
G1X4.3886Y2.9548
G1X4.3720Y2.9413
G1X4.3530Y2.9281
G1X4.3042Y2.8956
G1X4.2708Y2.8718
G1X4.2059Y2.8226
G1X4.1837Y2.8049
G1X4.2452Y2.8365
G1X4.2891Y2.8611
G1X4.3515Y2.8987
G1X4.4075Y2.9354
G1X4.4717Y2.9806
G1X4.5229Y3.0192
G1X4.5470Y3.0382
G1X4.5035Y3.0522
G1X4.4593Y3.0700
G1X4.4560Y3.0770
G1X4.4509Y3.0584
G1X4.4447Y3.0414
G1X4.4393Y3.0293
G1X4.4335Y3.0181
G1X4.4221Y3.0000
G1X4.4166Y2.9922
G1X4.4069Y2.9802
G1X4.3963Y2.9689
G1X4.3853Y2.9585
G1X4.3690Y2.9453
G1X4.3502Y2.9323
G1X4.3013Y2.8997
G1X4.2678Y2.8758
G1X4.2028Y2.8265
G1X4.1467Y2.7818
G1X4.1751Y2.7951
G1X4.2118Y2.8133
G1X4.2522Y2.8347
G1X4.2916Y2.8568
G1X4.3542Y2.8945
G1X4.4103Y2.9312
G1X4.4746Y2.9766
G1X4.5260Y3.0153
G1X4.5578Y3.0405
G1X4.5415Y3.0449
G1X4.5052Y3.0569
G1X4.4681Y3.0715
G1X4.4560Y3.0770
G1X4.4523Y3.0842
G1X4.4468Y3.0620
G1X4.4401Y3.0434
G1X4.4292Y3.0205
G1X4.4180Y3.0028
G1X4.4126Y2.9952
G1X4.4031Y2.9835
G1X4.3927Y2.9724
G1X4.3820Y2.9622
G1X4.3661Y2.9494
G1X4.3475Y2.9365
G1X4.2985Y2.9038
G1X4.2648Y2.8798
G1X4.1997Y2.8305
G1X4.1133Y2.7615
G1X4.1404Y2.7733
G1X4.1773Y2.7906
G1X4.2142Y2.8089
G1X4.2546Y2.8303
G1X4.2941Y2.8525
G1X4.3567Y2.8901
G1X4.4131Y2.9271
G1X4.4776Y2.9726
G1X4.5291Y3.0113
G1X4.5686Y3.0428
G1X4.5429Y3.0497
G1X4.5069Y3.0616
G1X4.4702Y3.0761
G1X4.4523Y3.0842
G1X4.4485Y3.0914
G1X4.4461Y3.0786
G1X4.4414Y3.0617
G1X4.4355Y3.0453
G1X4.4248Y3.0230
G1X4.4139Y3.0057
G1X4.3993Y2.9868
G1X4.3892Y2.9759
G1X4.3786Y2.9660
G1X4.3631Y2.9534
G1X4.3447Y2.9406
G1X4.2956Y2.9079
G1X4.2618Y2.8839
G1X4.1965Y2.8344
G1X4.0826Y2.7433
G1X4.1425Y2.7688
G1X4.1795Y2.7861
G1X4.2165Y2.8045
G1X4.2570Y2.8259
G1X4.2967Y2.8482
G1X4.3594Y2.8859
G1X4.4159Y2.9229
G1X4.4805Y2.9685
G1X4.5322Y3.0074
G1X4.5792Y3.0451
G1X4.5444Y3.0545
G1X4.5086Y3.0663
G1X4.4722Y3.0806
G1X4.4485Y3.0914
G1X4.4445Y3.0987
G1X4.4412Y3.0797
G1X4.4367Y3.0633
G1X4.4309Y3.0473
G1X4.4204Y3.0254
G1X4.4098Y3.0086
G1X4.3955Y2.9901
G1X4.3856Y2.9795
G1X4.3753Y2.9697
G1X4.3601Y2.9574
G1X4.3420Y2.9448
G1X4.2927Y2.9120
G1X4.2589Y2.8879
G1X4.1934Y2.8383
G1X4.0538Y2.7266
G1X4.1071Y2.7479
G1X4.1446Y2.7643
G1X4.1817Y2.7816
G1X4.2188Y2.8000
G1X4.2595Y2.8215
G1X4.2992Y2.8439
G1X4.3620Y2.8817
G1X4.4187Y2.9188
G1X4.4835Y2.9645
G1X4.5353Y3.0035
G1X4.5904Y3.0478
G1X4.5637Y3.0544
G1X4.5458Y3.0593
G1X4.5103Y3.0710
G1X4.4742Y3.0852
G1X4.4445Y3.0987
G1X4.4390Y3.0949
G1X4.4363Y3.0808
G1X4.4324Y3.0660
G1X4.4263Y3.0492
G1X4.4161Y3.0278
G1X4.4057Y3.0115
G1X4.3918Y2.9934
G1X4.3821Y2.9830
G1X4.3720Y2.9734
G1X4.3571Y2.9614
G1X4.3248Y2.9395
G1X4.2898Y2.9161
G1X4.2559Y2.8919
G1X4.1903Y2.8422
G1X4.0454Y2.7263
G1X4.0226Y2.7097
G1X4.0712Y2.7278
G1X4.1091Y2.7433
G1X4.1467Y2.7598
G1X4.1839Y2.7771
G1X4.2212Y2.7956
G1X4.2619Y2.8172
G1X4.3017Y2.8395
G1X4.3647Y2.8774
G1X4.4215Y2.9146
G1X4.4865Y2.9605
G1X4.5384Y2.9996
G1X4.6016Y3.0505
G1X4.5832Y3.0544
G1X4.5472Y3.0640
G1X4.5120Y3.0757
G1X4.4763Y3.0898
G1X4.4404Y3.1063
G1X4.4390Y3.0949
G1X4.4341Y3.0957
G1X4.4315Y3.0819
G1X4.4276Y3.0676
G1X4.4217Y3.0512
G1X4.4117Y3.0303
G1X4.4016Y3.0144
G1X4.3880Y2.9967
G1X4.3786Y2.9865
G1X4.3687Y2.9772
G1X4.3542Y2.9654
G1X4.3221Y2.9437
G1X4.2870Y2.9201
G1X4.2529Y2.8959
G1X4.1872Y2.8461
G1X4.0424Y2.7302
G1X4.0272Y2.7188
G1X4.0115Y2.7082
G1X3.9945Y2.6982
G1X3.9753Y2.6884
G1X4.0347Y2.7086
G1X4.0731Y2.7232
G1X4.1111Y2.7387
G1X4.1488Y2.7552
G1X4.1862Y2.7727
G1X4.2235Y2.7912
G1X4.2643Y2.8128
G1X4.3042Y2.8352
G1X4.3670Y2.8730
G1X4.4243Y2.9105
G1X4.4894Y2.9564
G1X4.5415Y2.9957
G1X4.6087Y3.0499
G1X4.6127Y3.0533
G1X4.5843Y3.0592
G1X4.5487Y3.0688
G1X4.5136Y3.0804
G1X4.4783Y3.0943
G1X4.4383Y3.1130
G1X4.4361Y3.1141
G1X4.4341Y3.0957
G0Z0.2000
G0X4.4385Y3.3768
G1Z-0.1000F30.0
G1X4.4384Y3.3751F100.0
G3X4.4583Y3.3092I0.1198J0.0003
G3X4.5113Y3.2651I0.0999J0.0662
G1X4.5112Y3.2648
G1X4.4851Y3.2775
G1X4.4695Y3.2871
G1X4.4547Y3.2985
G1X4.4495Y3.3054
G1X4.4440Y3.3195
G1X4.4406Y3.3356
G1X4.4389Y3.3507
G1X4.4383Y3.3734
G1X4.4384Y3.3768
G1X4.4385Y3.3768
G0Z0.2000
G0X4.4932Y3.5211
G1Z-0.1000F30.0
G1X4.4841Y3.5134F100.0
G1X4.4713Y3.4983
G1X4.4613Y3.4815
G1X4.4589Y3.4755
G1X4.4586Y3.4756
G1X4.4642Y3.4877
G1X4.4714Y3.4996
G1X4.4787Y3.5092
G1X4.4930Y3.5214
G1X4.4932Y3.5211
G0Z0.2000
G0X4.2335Y3.6550
G1Z-0.1000F30.0
G1X4.2355Y3.6445F100.0
G1X4.2249Y3.6578
G1X4.2326Y3.6611
G1X4.2335Y3.6550
G1X4.2384Y3.6557
G1X4.2449Y3.6238
G1X4.2165Y3.6604
G1X4.2253Y3.6632
G1X4.2365Y3.6685
G1X4.2384Y3.6557
G1X4.2436Y3.6548
G1X4.2511Y3.6195
G1X4.2569Y3.5987
G1X4.2413Y3.6204
G1X4.2080Y3.6629
G1X4.2235Y3.6679
G1X4.2405Y3.6759
G1X4.2436Y3.6548
G1X4.2485Y3.6557
G1X4.2559Y3.6209
G1X4.2650Y3.5889
G1X4.2731Y3.5660
G1X4.2568Y3.5903
G1X4.2373Y3.6174
G1X4.2172Y3.6435
G1X4.1993Y3.6656
G1X4.2217Y3.6725
G1X4.2410Y3.6817
G1X4.2444Y3.6839
G1X4.2485Y3.6557
G1X4.2540Y3.6538
G1X4.2607Y3.6222
G1X4.2697Y3.5905
G1X4.2811Y3.5589
G1X4.2963Y3.5236
G1X4.2991Y3.5142
G1X4.2741Y3.5553
G1X4.2527Y3.5874
G1X4.2333Y3.6143
G1X4.2133Y3.6404
G1X4.1899Y3.6690
G1X4.2041Y3.6719
G1X4.2250Y3.6793
G1X4.2452Y3.6900
G1X4.2485Y3.6924
G1X4.2489Y3.6877
G1X4.2540Y3.6538
G1X4.2589Y3.6549
G1X4.2656Y3.6235
G1X4.2745Y3.5922
G1X4.2857Y3.5609
G1X4.3011Y3.5251
G1X4.3048Y3.5117
G1X4.3066Y3.4967
G1X4.3067Y3.4903
G1X4.2844Y3.5294
G1X4.2669Y3.5574
G1X4.2487Y3.5844
G1X4.2293Y3.6113
G1X4.2094Y3.6372
G1X4.1803Y3.6724
G1X4.2028Y3.6767
G1X4.2230Y3.6839
G1X4.2425Y3.6942
G1X4.2527Y3.7017
G1X4.2539Y3.6882
G1X4.2589Y3.6549
G1X4.2637Y3.6559
G1X4.2704Y3.6249
G1X4.2792Y3.5939
G1X4.2903Y3.5629
G1X4.3058Y3.5267
G1X4.3097Y3.5125
G1X4.3116Y3.4969
G1X4.3118Y3.4889
G1X4.3110Y3.4719
G1X4.2888Y3.5120
G1X4.2627Y3.5546
G1X4.2446Y3.5815
G1X4.2254Y3.6083
G1X4.2056Y3.6341
G1X4.1700Y3.6768
G1X4.1818Y3.6775
G1X4.2014Y3.6815
G1X4.2210Y3.6885
G1X4.2398Y3.6985
G1X4.2569Y3.7110
G1X4.2588Y3.6888
G1X4.2637Y3.6559
G1X4.2686Y3.6569
G1X4.2752Y3.6262
G1X4.2839Y3.5955
G1X4.2949Y3.5649
G1X4.3106Y3.5282
G1X4.3147Y3.5132
G1X4.3166Y3.4970
G1X4.3168Y3.4887
G1X4.3158Y3.4689
G1X4.3141Y3.4545
G1X4.2914Y3.4976
G1X4.2759Y3.5242
G1X4.2586Y3.5518
G1X4.2405Y3.5786
G1X4.2214Y3.6052
G1X4.2017Y3.6310
G1X4.1814Y3.6558
G1X4.1591Y3.6815
G1X4.1628Y3.6813
G3X4.2159Y3.6920I-0.0005J0.1398
G3X4.2611Y3.7221I-0.0537J0.1291
G1X4.2611Y3.7196
G1X4.2642Y3.6869
G1X4.2686Y3.6569
G1X4.2735Y3.6579
G1X4.2800Y3.6276
G1X4.2886Y3.5972
G1X4.2994Y3.5669
G1X4.3154Y3.5298
G1X4.3196Y3.5140
G1X4.3216Y3.4971
G1X4.3218Y3.4884
G1X4.3208Y3.4683
G1X4.3169Y3.4378
G1X4.2941Y3.4821
G1X4.2716Y3.5216
G1X4.2544Y3.5490
G1X4.2365Y3.5757
G1X4.2174Y3.6022
G1X4.1978Y3.6278
G1X4.1776Y3.6525
G1X4.1471Y3.6873
G1X4.1628Y3.6863
G3X4.2194Y3.6988I-0.0001J0.1350
G3X4.2656Y3.7339I-0.0567J0.1225
G1X4.2661Y3.7199
G1X4.2691Y3.6876
G1X4.2735Y3.6579
G1X4.2784Y3.6590
G1X4.2848Y3.6289
G1X4.2933Y3.5989
G1X4.3040Y3.5689
G1X4.3201Y3.5313
G1X4.3245Y3.5148
G1X4.3266Y3.4973
G1X4.3268Y3.4882
G1X4.3257Y3.4677
G1X4.3216Y3.4360
G1X4.3193Y3.4205
G1X4.2983Y3.4639
G1X4.2758Y3.5044
G1X4.2503Y3.5462
G1X4.2324Y3.5728
G1X4.2134Y3.5992
G1X4.1939Y3.6247
G1X4.1738Y3.6493
G1X4.1532Y3.6731
G1X4.1333Y3.6949
G1X4.1479Y3.6923
G1X4.1628Y3.6913
G3X4.2235Y3.7065I-0.0003J0.1299
G3X4.2701Y3.7484I-0.0610J0.1146
G1X4.2702Y3.7470
G1X4.2713Y3.7176
G1X4.2740Y3.6883
G1X4.2784Y3.6590
G1X4.2833Y3.6600
G1X4.2896Y3.6303
G1X4.2980Y3.6005
G1X4.3086Y3.5709
G1X4.3249Y3.5328
G1X4.3293Y3.5166
G1X4.3316Y3.4974
G1X4.3317Y3.4880
G1X4.3307Y3.4671
G1X4.3266Y3.4352
G1X4.3220Y3.4042
G1X4.3201Y3.4066
G1X4.3036Y3.4419
G1X4.2817Y3.4841
G1X4.2630Y3.5165
G1X4.2461Y3.5435
G1X4.2283Y3.5699
G1X4.2095Y3.5962
G1X4.1900Y3.6215
G1X4.1700Y3.6460
G1X4.1495Y3.6697
G1X4.1160Y3.7058
G1X4.1389Y3.6988
G1X4.1628Y3.6963
G3X4.2292Y3.7154I-0.0001J0.1250
G3X4.2753Y3.7670I-0.0665J0.1058
G1X4.2751Y3.7498
G1X4.2763Y3.7181
G1X4.2790Y3.6890
G1X4.2833Y3.6600
G1X4.2882Y3.6610
G1X4.2945Y3.6316
G1X4.3027Y3.6022
G1X4.3132Y3.5729
G1X4.3296Y3.5344
G1X4.3342Y3.5176
G1X4.3366Y3.4975
G1X4.3367Y3.4877
G1X4.3357Y3.4666
G1X4.3315Y3.4344
G1X4.3258Y3.3953
G1X4.3173Y3.4018
G1X4.3035Y3.4311
G1X4.2809Y3.4750
G1X4.2587Y3.5139
G1X4.2419Y3.5407
G1X4.2243Y3.5670
G1X4.2055Y3.5931
G1X4.1861Y3.6184
G1X4.1662Y3.6428
G1X4.1458Y3.6664
G1X4.1066Y3.7084
G1X4.0806Y3.7338
G1X4.0808Y3.7340
G3X4.1187Y3.7098I0.0823J0.0872
G3X4.1628Y3.7013I0.0444J0.1113
G3X4.2435Y3.7327I-0.0002J0.1199
G3X4.2820Y3.8103I-0.0809J0.0884
G1X4.2823Y3.8102
G1X4.2804Y3.7762
G1X4.2802Y3.7473
G1X4.2813Y3.7185
G1X4.2839Y3.6898
G1X4.2882Y3.6610
G0Z0.2000
G0X3.6013Y3.2043
G1Z-0.1000F30.0
G1X3.6005Y3.2154F100.0
G1X3.6068Y3.2076
G1X3.6095Y3.2046
G1X3.6008Y3.1978
G1X3.6013Y3.2043
G1X3.5963
G1X3.5954Y3.2186
G1X3.5930Y3.2328
G1X3.5947Y3.2306
G1X3.6123Y3.2088
G1X3.6169Y3.2041
G1X3.5951Y3.1870
G1X3.5963Y3.2043
G1X3.5913
G1X3.5885Y3.2316
G1X3.5802Y3.2578
G1X3.5820Y3.2556
G1X3.6025Y3.2288
G1X3.6160Y3.2122
G1X3.6245Y3.2035
G1X3.5877Y3.1746
G1X3.5903Y3.1893
G1X3.5913Y3.2043
G1X3.5863
G3X3.5800Y3.2436I-0.1298J-0.0005
G3X3.5622Y3.2791I-0.1236J-0.0398
G1X3.5692Y3.2754
G1X3.5776Y3.2681
G1X3.5888Y3.2550
G1X3.6064Y3.2320
G1X3.6197Y3.2155
G1X3.6322Y3.2030
G1X3.5784Y3.1606
G1X3.5842Y3.1821
G1X3.5863Y3.2043
G1X3.5813
G3X3.5728Y3.2489I-0.1248J-0.0005
G3X3.5490Y3.2876I-0.1164J-0.0451
G1X3.5491Y3.2875
G1X3.5639Y3.2838
G1X3.5720Y3.2795
G1X3.5813Y3.2715
G1X3.5928Y3.2580
G1X3.6103Y3.2351
G1X3.6235Y3.2188
G1X3.6345Y3.2075
G1X3.6403Y3.2028
G1X3.5974Y3.1696
G1X3.5650Y3.1434
G1X3.5771Y3.1728
G1X3.5813Y3.2043
G1X3.5763
G3X3.5604Y3.2636I-0.1198J-0.0003
G3X3.5172Y3.3072I-0.1039J-0.0596
G1X3.5174Y3.3076
G1X3.5269Y3.3020
G1X3.5385Y3.2965
G1X3.5503Y3.2924
G1X3.5656Y3.2886
G1X3.5747Y3.2837
G1X3.5849Y3.2750
G1X3.5968Y3.2610
G1X3.6142Y3.2382
G1X3.6308Y3.2185
G1X3.6379Y3.2112
G1X3.6484Y3.2025
G1X3.6029Y3.1676
G1X3.5387Y3.1164
G1X3.5301Y3.1096
G1X3.5299Y3.1099
G3X3.5640Y3.1517I-0.0734J0.0947
G3X3.5763Y3.2043I-0.1075J0.0529
G0Z0.2000
G0X3.2696Y3.4797
G1Z-0.1000F30.0
G1X3.2687Y3.4838F100.0
G1X3.2698Y3.4822
G1X3.2712Y3.4802
G1X3.2696Y3.4797
G1X3.2709Y3.4749
G1X3.2661Y3.4726
G1X3.2559Y3.5122
G1X3.2549Y3.5155
G1X3.2567Y3.5125
G1X3.2790Y3.4775
G1X3.2709Y3.4749
G1X3.2728Y3.4702
G1X3.2625Y3.4654
G1X3.2534Y3.5031
G1X3.2411Y3.5416
G1X3.2308Y3.5689
G1X3.2131Y3.6087
G1X3.2008Y3.6329
G1X3.1758Y3.6771
G1X3.1758Y3.7250
G1X3.1742Y3.7530
G1X3.1711Y3.7828
G1X3.1671Y3.8094
G1X3.1622Y3.8339
G1X3.1583Y3.8508
G1X3.1595Y3.8495
G1X3.1693Y3.8368
G1X3.1762Y3.8257
G1X3.1841Y3.8087
G1X3.1918Y3.7870
G1X3.1992Y3.7559
G1X3.2080Y3.6982
G1X3.2173Y3.6346
G1X3.2218Y3.6115
G1X3.2289Y3.5831
G1X3.2373Y3.5604
G1X3.2466Y3.5407
G1X3.2661Y3.5068
G1X3.2869Y3.4748
G1X3.2728Y3.4702
G1X3.2746Y3.4656
G1X3.2590Y3.4581
G1X3.2528Y3.4855
G1X3.2421Y3.5232
G1X3.2275Y3.5636
G1X3.2171Y3.5884
G1X3.1969Y3.6297
G1X3.1712Y3.6752
G1X3.1705Y3.6785
G1X3.1709Y3.7168
G1X3.1692Y3.7526
G1X3.1661Y3.7821
G1X3.1621Y3.8085
G1X3.1574Y3.8328
G1X3.1495Y3.8639
G1X3.1479Y3.8697
G1X3.1523Y3.8647
G1X3.1654Y3.8504
G1X3.1764Y3.8349
G1X3.1806Y3.8280
G1X3.1888Y3.8106
G1X3.1967Y3.7882
G1X3.2041Y3.7567
G1X3.2129Y3.6989
G1X3.2222Y3.6356
G1X3.2266Y3.6127
G1X3.2336Y3.5848
G1X3.2418Y3.5625
G1X3.2511Y3.5430
G1X3.2703Y3.5094
G1X3.2947Y3.4720
G1X3.2746Y3.4656
G1X3.2765Y3.4609
G1X3.2552Y3.4506
G1X3.2480Y3.4843
G1X3.2374Y3.5217
G1X3.2229Y3.5618
G1X3.2125Y3.5863
G1X3.1925Y3.6273
G1X3.1668Y3.6726
G1X3.1654Y3.6758
G1X3.1661Y3.6983
G1X3.1658Y3.7247
G1X3.1642Y3.7521
G1X3.1612Y3.7814
G1X3.1572Y3.8076
G1X3.1525Y3.8317
G1X3.1447Y3.8625
G1X3.1329Y3.8991
G1X3.1208Y3.9292
G1X3.1250Y3.9294
G1X3.1257Y3.9257
G1X3.1319Y3.9063
G1X3.1397Y3.8901
G1X3.1506Y3.8742
G1X3.1694Y3.8535
G1X3.1807Y3.8375
G1X3.1851Y3.8302
G1X3.1934Y3.8125
G1X3.2015Y3.7895
G1X3.2089Y3.7581
G1X3.2179Y3.6995
G1X3.2271Y3.6365
G1X3.2315Y3.6138
G1X3.2383Y3.5864
G1X3.2464Y3.5647
G1X3.2555Y3.5452
G1X3.2746Y3.5121
G1X3.2991Y3.4744
G1X3.3032Y3.4687
G1X3.2969Y3.4675
G1X3.2765Y3.4609
G1X3.2783Y3.4563
G1X3.2589Y3.4471
G1X3.2516Y3.4423
G1X3.2440Y3.4795
G1X3.2355Y3.5106
G1X3.2255Y3.5411
G1X3.2087Y3.5827
G1X3.1881Y3.6249
G1X3.1623Y3.6704
G1X3.1604Y3.6756
G1X3.1611Y3.6983
G1X3.1608Y3.7245
G1X3.1593Y3.7516
G1X3.1562Y3.7807
G1X3.1523Y3.8067
G1X3.1476Y3.8306
G1X3.1399Y3.8612
G1X3.1282Y3.8974
G1X3.1166Y3.9265
G1X3.1134Y3.9337
G1X3.1291Y3.9348
G1X3.1306Y3.9268
G1X3.1365Y3.9083
G1X3.1440Y3.8927
G1X3.1544Y3.8775
G1X3.1734Y3.8565
G1X3.1821Y3.8447
G1X3.1896Y3.8324
G1X3.1981Y3.8143
G1X3.2061Y3.7915
G1X3.2139Y3.7590
G1X3.2229Y3.7002
G1X3.2320Y3.6374
G1X3.2364Y3.6149
G1X3.2430Y3.5881
G1X3.2509Y3.5668
G1X3.2600Y3.5475
G1X3.2788Y3.5147
G1X3.3033Y3.4772
G1X3.3119Y3.4652
G1X3.2981Y3.4627
G1X3.2783Y3.4563
G1X3.2749Y3.4495
G1X3.2548Y3.4388
G1X3.2480Y3.4338
G1X3.2441Y3.4559
G1X3.2383Y3.4818
G1X3.2279Y3.5186
G1X3.2135Y3.5583
G1X3.2035Y3.5820
G1X3.1837Y3.6225
G1X3.1578Y3.6682
G1X3.1554Y3.6745
G1X3.1561Y3.6984
G1X3.1558Y3.7243
G1X3.1543Y3.7511
G1X3.1513Y3.7801
G1X3.1474Y3.8058
G1X3.1427Y3.8294
G1X3.1351Y3.8599
G1X3.1236Y3.8956
G1X3.1120Y3.9245
G1X3.1056Y3.9387
G1X3.1088Y3.9385
G1X3.1210Y3.9391
G1X3.1332Y3.9406
G1X3.1334Y3.9394
G1X3.1355Y3.9280
G1X3.1411Y3.9102
G1X3.1483Y3.8953
G1X3.1589Y3.8799
G1X3.1774Y3.8595
G1X3.1864Y3.8473
G1X3.1940Y3.8347
G1X3.2027Y3.8162
G1X3.2109Y3.7929
G1X3.2186Y3.7607
G1X3.2273Y3.7049
G1X3.2369Y3.6384
G1X3.2412Y3.6161
G1X3.2478Y3.5897
G1X3.2554Y3.5689
G1X3.2644Y3.5498
G1X3.2831Y3.5173
G1X3.3074Y3.4800
G1X3.3208Y3.4614
G1X3.3168Y3.4612
G1X3.2959Y3.4569
G1X3.2749Y3.4495
G1X3.2770Y3.4449
G1X3.2575Y3.4346
G1X3.2442Y3.4248
G1X3.2392Y3.4549
G1X3.2334Y3.4805
G1X3.2231Y3.5171
G1X3.2089Y3.5565
G1X3.1989Y3.5799
G1X3.1789Y3.6209
G1X3.1533Y3.6660
G1X3.1504Y3.6741
G1X3.1511Y3.6984
G1X3.1508Y3.7242
G1X3.1493Y3.7507
G1X3.1463Y3.7794
G1X3.1425Y3.8049
G1X3.1379Y3.8283
G1X3.1302Y3.8585
G1X3.1189Y3.8938
G1X3.1074Y3.9225
G1X3.0973Y3.9442
G1X3.1088Y3.9435
G1X3.1233Y3.9443
G1X3.1376Y3.9466
G1X3.1376Y3.9456
G1X3.1403Y3.9291
G1X3.1457Y3.9122
G1X3.1525Y3.8979
G1X3.1626Y3.8832
G1X3.1814Y3.8625
G1X3.1906Y3.8499
G1X3.1985Y3.8369
G1X3.2073Y3.8181
G1X3.2154Y3.7953
G1X3.2202Y3.7770
G1X3.2245Y3.7562
G1X3.2328Y3.7015
G1X3.2419Y3.6393
G1X3.2461Y3.6172
G1X3.2525Y3.5913
G1X3.2599Y3.5711
G1X3.2689Y3.5521
G1X3.2873Y3.5200
G1X3.3116Y3.4828
G1X3.3301Y3.4570
G1X3.3175Y3.4562
G1X3.2972Y3.4521
G1X3.2770Y3.4449
G1X3.2854Y3.4428
G3X3.2404Y3.4152I0.0521J-0.1352
G1X3.2343Y3.4539
G1X3.2286Y3.4792
G1X3.2183Y3.5155
G1X3.2037Y3.5561
G1X3.1859Y3.5960
G1X3.1644Y3.6369
G1X3.1482Y3.6653
G1X3.1454Y3.6732
G1X3.1461Y3.6985
G1X3.1458Y3.7240
G1X3.1443Y3.7502
G1X3.1414Y3.7787
G1X3.1376Y3.8040
G1X3.1330Y3.8272
G1X3.1254Y3.8572
G1X3.1142Y3.8920
G1X3.1028Y3.9205
G1X3.0890Y3.9499
G1X3.0989Y3.9488
G1X3.1088Y3.9485
G1X3.1256Y3.9496
G1X3.1421Y3.9526
G1X3.1426Y3.9460
G1X3.1452Y3.9303
G1X3.1503Y3.9142
G1X3.1568Y3.9005
G1X3.1664Y3.8865
G1X3.1853Y3.8655
G1X3.1949Y3.8526
G1X3.2030Y3.8391
G1X3.2120Y3.8200
G1X3.2158Y3.8103
G1X3.2229Y3.7866
G1X3.2294Y3.7570
G1X3.2377Y3.7022
G1X3.2468Y3.6402
G1X3.2510Y3.6183
G1X3.2572Y3.5930
G1X3.2644Y3.5732
G1X3.2733Y3.5544
G1X3.2916Y3.5226
G1X3.3165Y3.4845
G1X3.3400Y3.4523
G1X3.3372Y3.4525
G3X3.2854Y3.4428I0.0003J-0.1449
G1X3.2825Y3.4362
G3X3.2366Y3.4043I0.0552J-0.1285
G1X3.2330Y3.4325
G1X3.2294Y3.4529
G1X3.2238Y3.4780
G1X3.2136Y3.5140
G1X3.1990Y3.5542
G1X3.1814Y3.5939
G1X3.1601Y3.6344
G1X3.1436Y3.6633
G1X3.1404Y3.6726
G1X3.1411Y3.6985
G1X3.1408Y3.7238
G1X3.1394Y3.7497
G1X3.1364Y3.7780
G1X3.1326Y3.8031
G1X3.1281Y3.8261
G1X3.1206Y3.8558
G1X3.1095Y3.8903
G1X3.0982Y3.9186
G1X3.0831Y3.9502
G1X3.0795Y3.9569
G1X3.0941Y3.9544
G1X3.1088Y3.9535
G1X3.1280Y3.9548
G1X3.1469Y3.9588
G1X3.1468Y3.9561
G1X3.1483Y3.9413
G1X3.1501Y3.9314
G1X3.1549Y3.9161
G1X3.1611Y3.9031
G1X3.1701Y3.8899
G1X3.1893Y3.8685
G1X3.1992Y3.8552
G1X3.2075Y3.8414
G1X3.2166Y3.8219
G1X3.2205Y3.8118
G1X3.2278Y3.7879
G1X3.2343Y3.7578
G1X3.2427Y3.7029
G1X3.2517Y3.6412
G1X3.2559Y3.6195
G1X3.2619Y3.5946
G1X3.2690Y3.5753
G1X3.2778Y3.5567
G1X3.2958Y3.5252
G1X3.3206Y3.4873
G1X3.3506Y3.4466
G1X3.3372Y3.4475
G3X3.2825Y3.4362I0.0004J-0.1398
G1X3.2793Y3.4293
G3X3.2327Y3.3926I0.0581J-0.1217
G1X3.2295Y3.4212
G1X3.2245Y3.4520
G1X3.2189Y3.4767
G1X3.2088Y3.5125
G1X3.1944Y3.5524
G1X3.1769Y3.5917
G1X3.1557Y3.6320
G1X3.1390Y3.6614
G1X3.1360Y3.6698
G1X3.1354Y3.6746
G1X3.1361Y3.6985
G1X3.1358Y3.7237
G1X3.1344Y3.7492
G1X3.1315Y3.7773
G1X3.1277Y3.8022
G1X3.1233Y3.8249
G1X3.1158Y3.8545
G1X3.1049Y3.8885
G1X3.0936Y3.9166
G1X3.0787Y3.9478
G1X3.0697Y3.9644
G1X3.0890Y3.9600
G1X3.1088Y3.9585
G1X3.1307Y3.9604
G1X3.1521Y3.9659
G1X3.1520Y3.9630
G1X3.1518Y3.9563
G1X3.1532Y3.9422
G1X3.1566Y3.9270
G1X3.1595Y3.9181
G1X3.1654Y3.9057
G1X3.1738Y3.8932
G1X3.1933Y3.8715
G1X3.2034Y3.8578
G1X3.2119Y3.8436
G1X3.2212Y3.8237
G1X3.2253Y3.8134
G1X3.2326Y3.7891
G1X3.2393Y3.7586
G1X3.2476Y3.7035
G1X3.2566Y3.6421
G1X3.2607Y3.6206
G1X3.2666Y3.5963
G1X3.2735Y3.5775
G1X3.2822Y3.5589
G1X3.3001Y3.5279
G1X3.3247Y3.4902
G1X3.3491Y3.4569
G1X3.3621Y3.4399
G1X3.3497Y3.4418
G1X3.3372Y3.4425
G3X3.2793Y3.4293I0.0002J-0.1349
G1X3.2754Y3.4218
G3X3.2285Y3.3785I0.0620J-0.1142
G1X3.2259Y3.4109
G1X3.2204Y3.4465
G1X3.2141Y3.4755
G1X3.2041Y3.5110
G1X3.1897Y3.5505
G1X3.1723Y3.5896
G1X3.1514Y3.6295
G1X3.1344Y3.6594
G1X3.1311Y3.6685
G1X3.1304Y3.6747
G1X3.1311Y3.6986
G1X3.1308Y3.7235
G1X3.1294Y3.7488
G1X3.1265Y3.7766
G1X3.1228Y3.8013
G1X3.1184Y3.8238
G1X3.1110Y3.8532
G1X3.1002Y3.8867
G1X3.0890Y3.9146
G1X3.0743Y3.9455
G1X3.0583Y3.9738
G1X3.0830Y3.9661
G1X3.1088Y3.9635
G1X3.1338Y3.9660
G1X3.1579Y3.9733
G1X3.1570Y3.9628
G1X3.1568Y3.9564
G1X3.1581Y3.9430
G1X3.1614Y3.9284
G1X3.1641Y3.9201
G1X3.1696Y3.9083
G1X3.1776Y3.8965
G1X3.1973Y3.8745
G1X3.2077Y3.8604
G1X3.2164Y3.8459
G1X3.2238Y3.8307
G1X3.2301Y3.8149
G1X3.2374Y3.7904
G1X3.2442Y3.7594
G1X3.2526Y3.7042
G1X3.2615Y3.6430
G1X3.2656Y3.6217
G1X3.2714Y3.5979
G1X3.2780Y3.5796
G1X3.2867Y3.5612
G1X3.3043Y3.5305
G1X3.3288Y3.4930
G1X3.3531Y3.4599
G1X3.3753Y3.4316
G1X3.3565Y3.4360
G1X3.3372Y3.4375
G3X3.2754Y3.4218I0.0001J-0.1299
G1X3.2700Y3.4128
G3X3.2240Y3.3601I0.0673J-0.1052
G1X3.2227Y3.3912
G1X3.2196Y3.4198
G1X3.2147Y3.4500
G1X3.2092Y3.4742
G1X3.1993Y3.5094
G1X3.1851Y3.5487
G1X3.1673Y3.5886
G1X3.1470Y3.6270
G1X3.1298Y3.6574
G1X3.1263Y3.6672
G1X3.1254Y3.6718
G1X3.1261Y3.6986
G1X3.1258Y3.7234
G1X3.1244Y3.7483
G1X3.1216Y3.7759
G1X3.1179Y3.8004
G1X3.1135Y3.8227
G1X3.1062Y3.8518
G1X3.0955Y3.8850
G1X3.0844Y3.9126
G1X3.0699Y3.9431
G1X3.0614Y3.9588
G1X3.0439Y3.9871
G1X3.0751Y3.9733
G1X3.1088Y3.9685
G1X3.1376Y3.9719
G1X3.1649Y3.9818
G1X3.1633Y3.9758
G1X3.1620Y3.9627
G1X3.1618Y3.9566
G1X3.1630Y3.9439
G1X3.1662Y3.9298
G1X3.1687Y3.9220
G1X3.1739Y3.9109
G1X3.1809Y3.9003
G1X3.2013Y3.8775
G1X3.2119Y3.8630
G1X3.2209Y3.8481
G1X3.2284Y3.8326
G1X3.2348Y3.8165
G1X3.2423Y3.7917
G1X3.2491Y3.7602
G1X3.2575Y3.7049
G1X3.2664Y3.6440
G1X3.2705Y3.6228
G1X3.2761Y3.5996
G1X3.2825Y3.5817
G1X3.2911Y3.5635
G1X3.3086Y3.5331
G1X3.3329Y3.4959
G1X3.3570Y3.4629
G1X3.3893Y3.4223
G1X3.3911Y3.4202
G1X3.3648Y3.4294
G1X3.3372Y3.4325
G3X3.2700Y3.4128I0.0001J-0.1249
G1X3.2555Y3.3952
G3X3.2178Y3.3159I0.0818J-0.0876
G1X3.2175Y3.3159
G1X3.2191Y3.3508
G1X3.2189Y3.3704
G1X3.2178Y3.3907
G1X3.2147Y3.4192
G1X3.2098Y3.4491
G1X3.2004Y3.4883
G1X3.1878Y3.5274
G1X3.1717Y3.5673
G1X3.1526Y3.6065
G1X3.1264Y3.6527
G1X3.1219Y3.6642
G1X3.1204Y3.6719
G1X3.1211Y3.6987
G1X3.1208Y3.7232
G1X3.1194Y3.7478
G1X3.1166Y3.7752
G1X3.1130Y3.7995
G1X3.1057Y3.8341
G1X3.0959Y3.8683
G1X3.0847Y3.8993
G1X3.0714Y3.9290
G1X3.0571Y3.9563
G1X3.0380Y3.9869
G1X3.0228Y4.0086
G1X3.0141Y4.0197
G1X3.0144Y4.0199
G3X3.0562Y3.9858I0.0947J0.0734
G3X3.1088Y3.9735I0.0529J0.1075
G3X3.1473Y3.9800I-0.0004J0.1199
G3X3.1818Y3.9985I-0.0390J0.1134
G1X3.1819Y3.9983
G1X3.1756Y3.9918
G1X3.1703Y3.9828
G1X3.1682Y3.9751
G1X3.1670Y3.9626
G1X3.1676Y3.9471
G1X3.1710Y3.9312
G1X3.1733Y3.9240
G1X3.1782Y3.9135
G1X3.1851Y3.9031
G1X3.2053Y3.8805
G1X3.2162Y3.8657
G1X3.2254Y3.8503
G1X3.2331Y3.8345
G1X3.2396Y3.8180
G1X3.2471Y3.7930
G1X3.2541Y3.7610
G1X3.2625Y3.7055
G1X3.2713Y3.6449
G1X3.2753Y3.6240
G1X3.2808Y3.6012
G1X3.2871Y3.5839
G1X3.2956Y3.5658
G1X3.3128Y3.5358
G1X3.3370Y3.4987
G1X3.3610Y3.4660
G1X3.3931Y3.4255
G1X3.4255Y3.3887
G1X3.4253Y3.3885
G3X3.3853Y3.4172I-0.0885J-0.0808
G3X3.3372Y3.4275I-0.0485J-0.1096
G3X3.2555Y3.3952I0.0002J-0.1198
G0Z0.2000
G0X3.1906Y3.6813
G1Z-0.1000F30.0
G1X3.1966Y3.6709F100.0
G1X3.1909Y3.7126
G1X3.1906Y3.6813
G1X3.1856Y3.6800
G1X3.2055Y3.6451
G1X3.1936Y3.7281
G1X3.1892Y3.7548
G1X3.1821Y3.7844
G1X3.1801Y3.7907
G1X3.1843Y3.7519
G1X3.1859Y3.7170
G1X3.1856Y3.6800
G1X3.1805Y3.6788
G1X3.2069Y3.6321
G1X3.2162Y3.6139
G1X3.2118Y3.6368
G1X3.1992Y3.7249
G1X3.1941Y3.7558
G1X3.1869Y3.7860
G1X3.1795Y3.8068
G1X3.1716Y3.8236
G1X3.1686Y3.8285
G1X3.1741Y3.7975
G1X3.1777Y3.7687
G1X3.1794Y3.7515
G1X3.1809Y3.7169
G1X3.1805Y3.6788
G0Z0.2000
G0X3.1750Y3.0192
G1Z-0.1000F30.0
G1X3.1564Y3.0083F100.0
G1X3.1687Y3.0264
G1X3.1750Y3.0192
G1X3.1799Y3.0212
G1X3.1833Y3.0182
G1X3.1532Y3.0005
G1X3.1366Y2.9870
G1X3.1273Y2.9767
G1X3.1581Y3.0196
G1X3.1682Y3.0346
G1X3.1799Y3.0212
G1X3.1835Y3.0247
G1X3.1919Y3.0174
G1X3.1561Y2.9964
G1X3.1401Y2.9834
G1X3.1287Y2.9707
G1X3.1216Y2.9609
G1X3.1213Y2.9764
G1X3.1511Y3.0180
G1X3.1677Y3.0432
G1X3.1685Y3.0418
G1X3.1835Y3.0247
G1X3.1870Y3.0282
G1X3.2004Y3.0165
G1X3.1589Y2.9923
G1X3.1435Y2.9798
G1X3.1325Y2.9674
G1X3.1215Y2.9513
G1X3.1175Y2.9438
G1X3.1162Y2.9773
G1X3.1237Y2.9888
G1X3.1498Y3.0251
G1X3.1676Y3.0524
G1X3.1725Y3.0448
G1X3.1870Y3.0282
G1X3.1826Y3.0403
G1X3.1991Y3.0238
G1X3.2097Y3.0160
G1X3.1618Y2.9882
G1X3.1470Y2.9761
G1X3.1363Y2.9642
G1X3.1304Y2.9562
G1X3.1224Y2.9433
G1X3.1148Y2.9224
G1X3.1138Y2.9185
G1X3.1111Y2.9773
G1X3.1142Y2.9841
G1X3.1457Y3.0279
G1X3.1674Y3.0617
G1X3.1688Y3.0590
G1X3.1826Y3.0403
G1X3.1864Y3.0436
G1X3.2023Y3.0276
G1X3.2188Y3.0155
G1X3.1647Y2.9841
G1X3.1504Y2.9725
G1X3.1401Y2.9609
G1X3.1347Y2.9535
G1X3.1269Y2.9411
G1X3.1196Y2.9211
G1X3.1168Y2.9066
G1X3.1159Y2.8953
G1X3.1167Y2.8762
G1X3.1196Y2.8600
G1X3.1257Y2.8413
G1X3.1340Y2.8239
G1X3.1457Y2.8068
G1X3.1561Y2.7953
G1X3.1657Y2.7871
G1X3.1758Y2.7799
G1X3.1940Y2.7710
G1X3.2042Y2.7678
G1X3.2222Y2.7645
G1X3.2436Y2.7647
G1X3.2604Y2.7654
G1X3.2776Y2.7636
G1X3.2930Y2.7598
G1X3.3105Y2.7537
G1X3.3348Y2.7424
G1X3.4276Y2.6905
G1X3.4524Y2.6786
G1X3.4786Y2.6682
G1X3.5086Y2.6596
G1X3.5218Y2.6569
G1X3.5434Y2.6544
G1X3.5533Y2.6537
G1X3.5720Y2.6540
G1X3.5865Y2.6551
G1X3.6262Y2.6606
G1X3.6453Y2.6618
G1X3.6701Y2.6616
G1X3.7123Y2.6587
G1X3.7963Y2.6525
G1X3.8173Y2.6520
G1X3.7935Y2.6471
G1X3.7413Y2.6382
G1X3.6910Y2.6312
G1X3.6285Y2.6248
G1X3.5682Y2.6212
G1X3.5164Y2.6198
G1X3.4543Y2.6202
G1X3.4021Y2.6228
G1X3.3540Y2.6278
G1X3.3136Y2.6346
G1X3.2787Y2.6433
G1X3.2506Y2.6532
G1X3.2296Y2.6628
G1X3.2104Y2.6739
G1X3.1985Y2.6825
G1X3.1891Y2.6905
G1X3.1772Y2.7023
G1X3.1645Y2.7181
G1X3.1552Y2.7324
G1X3.1443Y2.7530
G1X3.1377Y2.7690
G1X3.1281Y2.7979
G1X3.1196Y2.8342
G1X3.1130Y2.8757
G1X3.1085Y2.9223
G1X3.1061Y2.9778
G1X3.1085Y2.9843
G1X3.1286Y3.0123
G1X3.1517Y3.0459
G1X3.1676Y3.0719
G1X3.1731Y3.0616
G1X3.1864Y3.0436
G1X3.1902Y3.0468
G1X3.2056Y3.0314
G1X3.2231Y3.0185
G1X3.2289Y3.0154
G1X3.1676Y2.9800
G1X3.1539Y2.9689
G1X3.1439Y2.9577
G1X3.1314Y2.9388
G1X3.1244Y2.9198
G1X3.1217Y2.9058
G1X3.1209Y2.8953
G1X3.1217Y2.8770
G1X3.1245Y2.8612
G1X3.1304Y2.8431
G1X3.1383Y2.8264
G1X3.1496Y2.8099
G1X3.1597Y2.7988
G1X3.1687Y2.7911
G1X3.1784Y2.7841
G1X3.1959Y2.7756
G1X3.2099Y2.7717
G1X3.2226Y2.7695
G1X3.2432Y2.7697
G1X3.2606Y2.7704
G1X3.2786Y2.7685
G1X3.2946Y2.7646
G1X3.3125Y2.7583
G1X3.3371Y2.7469
G1X3.3872Y2.7188
G1X3.4299Y2.6950
G1X3.4544Y2.6832
G1X3.4802Y2.6729
G1X3.5096Y2.6645
G1X3.5226Y2.6619
G1X3.5438Y2.6594
G1X3.5535Y2.6587
G1X3.5716Y2.6589
G1X3.5859Y2.6600
G1X3.6259Y2.6656
G1X3.6453Y2.6668
G1X3.6704Y2.6665
G1X3.7127Y2.6637
G1X3.7964Y2.6574
G1X3.8240Y2.6569
G1X3.8537Y2.6579
G1X3.8769Y2.6603
G1X3.8232Y2.6481
G1X3.7943Y2.6422
G1X3.7420Y2.6332
G1X3.6916Y2.6263
G1X3.6289Y2.6198
G1X3.5684Y2.6162
G1X3.5164Y2.6148
G1X3.4541Y2.6152
G1X3.4017Y2.6179
G1X3.3533Y2.6229
G1X3.3125Y2.6298
G1X3.2787Y2.6381
G1X3.2522Y2.6472
G1X3.2273Y2.6584
G1X3.2076Y2.6697
G1X3.1954Y2.6786
G1X3.1856Y2.6868
G1X3.1735Y2.6990
G1X3.1603Y2.7153
G1X3.1509Y2.7299
G1X3.1397Y2.7510
G1X3.1330Y2.7673
G1X3.1232Y2.7967
G1X3.1146Y2.8333
G1X3.1080Y2.8752
G1X3.1035Y2.9221
G1X3.1012Y2.9784
G1X3.1037Y2.9859
G1X3.1116Y2.9978
G1X3.1373Y3.0335
G1X3.1596Y3.0680
G1X3.1678Y3.0822
G1X3.1773Y3.0643
G1X3.1902Y3.0468
G1X3.1940Y3.0501
G1X3.2089Y3.0352
G1X3.2257Y3.0228
G1X3.2393Y3.0156
G1X3.1705Y2.9759
G1X3.1574Y2.9652
G1X3.1477Y2.9545
G1X3.1359Y2.9366
G1X3.1293Y2.9185
G1X3.1259Y2.8982
G1X3.1266Y2.8778
G1X3.1294Y2.8624
G1X3.1350Y2.8450
G1X3.1427Y2.8288
G1X3.1535Y2.8130
G1X3.1633Y2.8023
G1X3.1777Y2.7907
G1X3.1887Y2.7844
G1X3.2035Y2.7783
G1X3.2229Y2.7745
G1X3.2428Y2.7746
G1X3.2607Y2.7754
G1X3.2795Y2.7734
G1X3.2962Y2.7693
G1X3.3145Y2.7628
G1X3.3394Y2.7513
G1X3.3728Y2.7328
G1X3.4322Y2.6994
G1X3.4564Y2.6878
G1X3.4819Y2.6776
G1X3.5106Y2.6694
G1X3.5235Y2.6668
G1X3.5441Y2.6644
G1X3.5536Y2.6637
G1X3.5712Y2.6639
G1X3.5853Y2.6650
G1X3.6256Y2.6706
G1X3.6453Y2.6718
G1X3.6706Y2.6715
G1X3.7132Y2.6687
G1X3.7965Y2.6624
G1X3.8240Y2.6619
G1X3.8534Y2.6629
G1X3.8830Y2.6660
G1X3.9143Y2.6721
G1X3.9314Y2.6768
G1X3.9556Y2.6854
G1X3.9774Y2.6949
G1X3.9944Y2.7039
G1X4.0088Y2.7124
G1X4.0255Y2.7238
G1X4.0573Y2.7486
G1X4.1848Y2.8506
G1X4.2499Y2.8999
G1X4.2958Y2.9324
G1X4.3441Y2.9642
G1X4.3653Y2.9809
G1X4.3762Y2.9914
G1X4.3842Y3.0000
G1X4.3976Y3.0173
G1X4.4073Y3.0327
G1X4.4171Y3.0532
G1X4.4238Y3.0724
G1X4.4266Y3.0830
G1X4.4303Y3.1057
G1X4.4315Y3.1221
G1X4.4406Y3.1174
G1X4.4850Y3.0970
G1X4.5153Y3.0851
G1X4.5501Y3.0736
G1X4.5855Y3.0641
G1X4.6239Y3.0562
G1X4.5610Y3.0047
G1X4.4988Y2.9571
G1X4.4402Y2.9152
G1X4.3849Y2.8786
G1X4.3338Y2.8467
G1X4.2978Y2.8257
G1X4.2614Y2.8055
G1X4.2247Y2.7862
G1X4.1877Y2.7678
G1X4.1399Y2.7459
G1X4.1126Y2.7339
G1X4.0518Y2.7098
G1X3.9970Y2.6902
G1X3.9466Y2.6743
G1X3.8993Y2.6611
G1X3.8380Y2.6461
G1X3.7952Y2.6373
G1X3.7428Y2.6283
G1X3.6922Y2.6213
G1X3.6292Y2.6148
G1X3.5686Y2.6112
G1X3.5165Y2.6098
G1X3.4539Y2.6102
G1X3.4013Y2.6129
G1X3.3525Y2.6179
G1X3.3114Y2.6249
G1X3.2774Y2.6333
G1X3.2504Y2.6425
G1X3.2249Y2.6540
G1X3.2049Y2.6656
G1X3.1922Y2.6748
G1X3.1822Y2.6832
G1X3.1698Y2.6956
G1X3.1562Y2.7125
G1X3.1465Y2.7274
G1X3.1351Y2.7491
G1X3.1283Y2.7656
G1X3.1185Y2.7950
G1X3.1119Y2.8221
G1X3.1048Y2.8621
G1X3.0998Y2.9061
G1X3.0966Y2.9603
G1X3.0962Y2.9789
G1X3.0987Y2.9870
G1X3.1076Y3.0008
G1X3.1332Y3.0362
G1X3.1553Y3.0706
G1X3.1687Y3.0941
G1X3.1719Y3.0852
G1X3.1815Y3.0669
G1X3.1940Y3.0501
G1X3.1978Y3.0534
G1X3.2121Y3.0390
G1X3.2284Y3.0270
G1X3.2459Y3.0177
G1X3.2509Y3.0160
G1X3.1826Y2.9774
G1X3.1734Y2.9718
G1X3.1608Y2.9616
G1X3.1515Y2.9512
G1X3.1404Y2.9343
G1X3.1341Y2.9172
G1X3.1309Y2.8980
G1X3.1315Y2.8786
G1X3.1342Y2.8636
G1X3.1397Y2.8469
G1X3.1471Y2.8313
G1X3.1573Y2.8162
G1X3.1669Y2.8057
G1X3.1807Y2.7947
G1X3.1908Y2.7889
G1X3.2049Y2.7831
G1X3.2233Y2.7794
G1X3.2424Y2.7796
G1X3.2608Y2.7804
G1X3.2805Y2.7783
G1X3.2979Y2.7740
G1X3.3165Y2.7674
G1X3.3341Y2.7596
G1X3.3593Y2.7463
G1X3.4345Y2.7038
G1X3.4584Y2.6923
G1X3.4835Y2.6824
G1X3.5115Y2.6743
G1X3.5243Y2.6717
G1X3.5445Y2.6694
G1X3.5538Y2.6687
G1X3.5708Y2.6689
G1X3.5848Y2.6700
G1X3.6253Y2.6756
G1X3.6453Y2.6768
G1X3.6709Y2.6765
G1X3.7136Y2.6737
G1X3.7966Y2.6674
G1X3.8239Y2.6669
G1X3.8530Y2.6678
G1X3.8823Y2.6710
G1X3.9132Y2.6770
G1X3.9298Y2.6816
G1X3.9537Y2.6900
G1X3.9752Y2.6994
G1X3.9918Y2.7082
G1X4.0061Y2.7167
G1X4.0225Y2.7278
G1X4.0542Y2.7525
G1X4.1818Y2.8546
G1X4.2470Y2.9039
G1X4.2931Y2.9366
G1X4.3412Y2.9683
G1X4.3620Y2.9847
G1X4.3726Y2.9948
G1X4.3804Y3.0032
G1X4.3935Y3.0202
G1X4.4030Y3.0352
G1X4.4124Y3.0551
G1X4.4189Y3.0737
G1X4.4217Y3.0841
G1X4.4253Y3.1063
G1X4.4265Y3.1303
G1X4.4307Y3.1282
G1X4.4593Y3.1140
G1X4.4868Y3.1017
G1X4.5170Y3.0898
G1X4.5515Y3.0784
G1X4.5867Y3.0690
G1X4.6224Y3.0615
G1X4.6355Y3.0595
G1X4.5811Y3.0143
G1X4.5173Y2.9646
G1X4.4584Y2.9219
G1X4.3970Y2.8804
G1X4.3364Y2.8424
G1X4.3002Y2.8213
G1X4.2637Y2.8010
G1X4.2269Y2.7817
G1X4.1898Y2.7633
G1X4.1419Y2.7413
G1X4.1145Y2.7293
G1X4.0536Y2.7051
G1X3.9985Y2.6854
G1X3.9481Y2.6695
G1X3.9006Y2.6562
G1X3.8391Y2.6412
G1X3.7961Y2.6324
G1X3.7435Y2.6233
G1X3.6928Y2.6163
G1X3.6295Y2.6098
G1X3.5688Y2.6062
G1X3.5166Y2.6048
G1X3.4537Y2.6052
G1X3.4008Y2.6079
G1X3.3518Y2.6130
G1X3.3116Y2.6197
G1X3.2827Y2.6267
G1X3.2559Y2.6351
G1X3.2335Y2.6442
G1X3.2115Y2.6557
G1X3.1925Y2.6682
G1X3.1787Y2.6796
G1X3.1661Y2.6923
G1X3.1520Y2.7097
G1X3.1422Y2.7249
G1X3.1305Y2.7471
G1X3.1236Y2.7639
G1X3.1137Y2.7936
G1X3.1070Y2.8211
G1X3.0999Y2.8614
G1X3.0948Y2.9057
G1X3.0916Y2.9601
G1X3.0912Y2.9794
G1X3.0930Y2.9867
G1X3.0984Y2.9963
G1X3.1290Y3.0390
G1X3.1510Y3.0732
G1X3.1698Y3.1065
G1X3.1765Y3.0872
G1X3.1858Y3.0696
G1X3.1978Y3.0534
G1X3.2016Y3.0566
G1X3.2154Y3.0428
G1X3.2310Y3.0313
G1X3.2479Y3.0223
G1X3.2638Y3.0167
G1X3.2439Y3.0067
G1X3.1762Y2.9677
G1X3.1643Y2.9580
G1X3.1553Y2.9480
G1X3.1449Y2.9321
G1X3.1389Y2.9159
G1X3.1359Y2.8977
G1X3.1365Y2.8794
G1X3.1401Y2.8617
G1X3.1459Y2.8454
G1X3.1532Y2.8311
G1X3.1632Y2.8171
G1X3.1705Y2.8092
G1X3.1836Y2.7987
G1X3.1929Y2.7934
G1X3.2062Y2.7879
G1X3.2237Y2.7844
G1X3.2420Y2.7846
G1X3.2610Y2.7854
G1X3.2791Y2.7837
G1X3.2967Y2.7797
G1X3.3185Y2.7720
G1X3.3364Y2.7641
G1X3.3618Y2.7506
G1X3.4369Y2.7083
G1X3.4604Y2.6969
G1X3.4851Y2.6871
G1X3.5125Y2.6792
G1X3.5251Y2.6767
G1X3.5448Y2.6744
G1X3.5540Y2.6737
G1X3.5705Y2.6739
G1X3.5842Y2.6749
G1X3.6250Y2.6806
G1X3.6453Y2.6818
G1X3.6711Y2.6815
G1X3.7140Y2.6787
G1X3.7967Y2.6724
G1X3.8239Y2.6719
G1X3.8527Y2.6728
G1X3.8816Y2.6759
G1X3.9120Y2.6818
G1X3.9283Y2.6863
G1X3.9519Y2.6947
G1X3.9730Y2.7039
G1X3.9893Y2.7124
G1X4.0034Y2.7209
G1X4.0195Y2.7318
G1X4.0510Y2.7564
G1X4.1787Y2.8585
G1X4.2440Y2.9080
G1X4.2903Y2.9408
G1X4.3383Y2.9724
G1X4.3587Y2.9884
G1X4.3689Y2.9982
G1X4.3767Y3.0065
G1X4.3894Y3.0230
G1X4.3986Y3.0376
G1X4.4078Y3.0571
G1X4.4141Y3.0750
G1X4.4168Y3.0852
G1X4.4204Y3.1069
G1X4.4216Y3.1243
G1X4.4216Y3.1385
G1X4.4241Y3.1372
G1X4.4614Y3.1185
G1X4.4886Y3.1064
G1X4.5187Y3.0945
G1X4.5530Y3.0832
G1X4.5878Y3.0738
G1X4.6233Y3.0664
G1X4.6471Y3.0629
G1X4.5842Y3.0104
G1X4.5204Y2.9607
G1X4.4613Y2.9178
G1X4.3997Y2.8762
G1X4.3389Y2.8381
G1X4.3026Y2.8169
G1X4.2660Y2.7966
G1X4.2291Y2.7772
G1X4.1919Y2.7588
G1X4.1439Y2.7367
G1X4.1164Y2.7247
G1X4.0554Y2.7004
G1X4.0001Y2.6806
G1X3.9495Y2.6647
G1X3.9019Y2.6514
G1X3.8401Y2.6363
G1X3.7970Y2.6274
G1X3.7442Y2.6184
G1X3.6934Y2.6114
G1X3.6299Y2.6048
G1X3.5690Y2.6012
G1X3.5166Y2.5998
G1X3.4535Y2.6002
G1X3.4004Y2.6029
G1X3.3511Y2.6080
G1X3.3106Y2.6148
G1X3.2814Y2.6219
G1X3.2541Y2.6304
G1X3.2314Y2.6397
G1X3.2088Y2.6514
G1X3.1974Y2.6586
G1X3.1858Y2.6671
G1X3.1752Y2.6760
G1X3.1624Y2.6889
G1X3.1489Y2.7053
G1X3.1379Y2.7223
G1X3.1264Y2.7440
G1X3.1189Y2.7622
G1X3.1089Y2.7923
G1X3.1021Y2.8200
G1X3.0949Y2.8607
G1X3.0899Y2.9053
G1X3.0866Y2.9598
G1X3.0862Y2.9799
G1X3.0883Y2.9885
G1X3.0942Y2.9992
G1X3.1249Y3.0418
G1X3.1467Y3.0757
G1X3.1684Y3.1146
G1X3.1718Y3.1215
G1X3.1748Y3.1067
G1X3.1811Y3.0892
G1X3.1900Y3.0723
G1X3.2016Y3.0566
G1X3.2117Y3.0530
G1X3.2275Y3.0396
G1X3.2450Y3.0292
G1X3.2634Y3.0219
G1X3.2804Y3.0180
G1X3.2637Y3.0111
G1X3.2464Y3.0023
G1X3.1791Y2.9636
G1X3.1677Y2.9543
G1X3.1559Y2.9403
G1X3.1494Y2.9299
G1X3.1437Y2.9146
G1X3.1409Y2.8975
G1X3.1414Y2.8801
G1X3.1449Y2.8632
G1X3.1504Y2.8476
G1X3.1573Y2.8339
G1X3.1668Y2.8205
G1X3.1787Y2.8086
G1X3.1890Y2.8011
G1X3.2035Y2.7941
G1X3.2208Y2.7898
G1X3.2391Y2.7894
G1X3.2611Y2.7904
G1X3.2799Y2.7886
G1X3.2981Y2.7845
G1X3.3205Y2.7766
G1X3.3387Y2.7685
G1X3.3643Y2.7549
G1X3.4392Y2.7127
G1X3.4624Y2.7015
G1X3.4867Y2.6918
G1X3.5135Y2.6841
G1X3.5260Y2.6816
G1X3.5451Y2.6793
G1X3.5683Y2.6788
G1X3.5836Y2.6799
G1X3.6247Y2.6856
G1X3.6453Y2.6868
G1X3.6713Y2.6865
G1X3.7144Y2.6837
G1X3.7968Y2.6774
G1X3.8239Y2.6769
G1X3.8523Y2.6778
G1X3.8809Y2.6809
G1X3.9117Y2.6870
G1X3.9408Y2.6957
G1X3.9558Y2.7016
G1X3.9708Y2.7084
G1X3.9867Y2.7167
G1X4.0008Y2.7251
G1X4.0165Y2.7358
G1X4.0479Y2.7603
G1X4.1757Y2.8625
G1X4.2410Y2.9120
G1X4.2876Y2.9450
G1X4.3355Y2.9765
G1X4.3554Y2.9921
G1X4.3652Y3.0016
G1X4.3807Y3.0194
G1X4.3878Y3.0295
G1X4.3942Y3.0400
G1X4.4032Y3.0590
G1X4.4093Y3.0763
G1X4.4119Y3.0863
G1X4.4154Y3.1075
G1X4.4166Y3.1244
G1X4.4169Y3.1463
G1X4.4172Y3.1462
G1X4.4634Y3.1231
G1X4.4904Y3.1110
G1X4.5204Y3.0992
G1X4.5544Y3.0880
G1X4.5890Y3.0787
G1X4.6242Y3.0713
G1X4.6587Y3.0662
G1X4.6012Y3.0178
G1X4.5379Y2.9678
G1X4.4782Y2.9236
G1X4.4137Y2.8793
G1X4.3535Y2.8412
G1X4.3051Y2.8125
G1X4.2684Y2.7922
G1X4.2314Y2.7728
G1X4.1940Y2.7542
G1X4.1459Y2.7321
G1X4.1183Y2.7200
G1X4.0572Y2.6958
G1X4.0016Y2.6759
G1X3.9509Y2.6599
G1X3.9032Y2.6466
G1X3.8411Y2.6314
G1X3.7979Y2.6225
G1X3.7450Y2.6135
G1X3.6940Y2.6064
G1X3.6302Y2.5998
G1X3.5692Y2.5962
G1X3.5167Y2.5948
G1X3.4533Y2.5952
G1X3.4000Y2.5979
G1X3.3503Y2.6031
G1X3.3096Y2.6099
G1X3.2801Y2.6170
G1X3.2523Y2.6257
G1X3.2294Y2.6351
G1X3.2062Y2.6471
G1X3.1945Y2.6545
G1X3.1826Y2.6632
G1X3.1718Y2.6724
G1X3.1587Y2.6856
G1X3.1449Y2.7024
G1X3.1336Y2.7198
G1X3.1219Y2.7419
G1X3.1142Y2.7605
G1X3.1043Y2.7901
G1X3.0973Y2.8190
G1X3.0900Y2.8600
G1X3.0849Y2.9049
G1X3.0816Y2.9596
G1X3.0812Y2.9804
G1X3.0837Y2.9904
G1X3.0901Y3.0020
G1X3.1207Y3.0446
G1X3.1425Y3.0783
G1X3.1639Y3.1168
G1X3.1752Y3.1401
G1X3.1765Y3.1233
G1X3.1806Y3.1046
G1X3.1880Y3.0862
G1X3.1984Y3.0687
G1X3.2117Y3.0530
G1X3.2153Y3.0565
G3X3.3001Y3.0214I0.0849J0.0849
G1X3.3166Y3.0225
G1X3.3062Y3.0207
G1X3.2862Y3.0150
G1X3.2659Y3.0066
G1X3.2489Y2.9980
G1X3.1820Y2.9595
G1X3.1712Y2.9507
G1X3.1602Y2.9377
G1X3.1539Y2.9276
G1X3.1480Y2.9106
G1X3.1459Y2.8990
G1X3.1465Y2.8803
G1X3.1496Y2.8648
G1X3.1549Y2.8497
G1X3.1615Y2.8367
G1X3.1705Y2.8239
G1X3.1817Y2.8126
G1X3.1917Y2.8053
G1X3.2089Y2.7976
G1X3.2245Y2.7944
G1X3.2412Y2.7946
G1X3.2613Y2.7954
G1X3.2807Y2.7936
G1X3.2995Y2.7893
G1X3.3225Y2.7812
G1X3.3409Y2.7730
G1X3.3667Y2.7593
G1X3.4415Y2.7171
G1X3.4644Y2.7061
G1X3.4884Y2.6965
G1X3.5145Y2.6890
G1X3.5268Y2.6865
G1X3.5455Y2.6843
G1X3.5682Y2.6838
G1X3.5831Y2.6849
G1X3.6244Y2.6906
G1X3.6454Y2.6918
G1X3.6716Y2.6915
G1X3.7148Y2.6886
G1X3.7969Y2.6824
G1X3.8238Y2.6819
G1X3.8520Y2.6828
G1X3.8802Y2.6858
G1X3.9104Y2.6918
G1X3.9391Y2.7004
G1X3.9539Y2.7062
G1X3.9686Y2.7129
G1X3.9841Y2.7210
G1X3.9981Y2.7293
G1X4.0135Y2.7398
G1X4.0448Y2.7642
G1X4.1726Y2.8665
G1X4.2380Y2.9160
G1X4.2848Y2.9492
G1X4.3326Y2.9806
G1X4.3520Y2.9959
G1X4.3691Y3.0131
G1X4.3812Y3.0288
G1X4.3899Y3.0425
G1X4.3986Y3.0610
G1X4.4044Y3.0776
G1X4.4094Y3.0995
G1X4.4109Y3.1119
G1X4.4116Y3.1395
G1X4.4126Y3.1532
G1X4.4256Y3.1477
G1X4.4655Y3.1276
G1X4.4923Y3.1157
G1X4.5221Y3.1039
G1X4.5559Y3.0928
G1X4.5902Y3.0836
G1X4.6251Y3.0763
G1X4.6606Y3.0710
G1X4.6706Y3.0701
G1X4.6075Y3.0165
G1X4.5410Y2.9638
G1X4.4810Y2.9195
G1X4.4165Y2.8751
G1X4.3561Y2.8370
G1X4.3075Y2.8082
G1X4.2707Y2.7878
G1X4.2336Y2.7683
G1X4.1961Y2.7497
G1X4.1480Y2.7275
G1X4.1202Y2.7154
G1X4.0589Y2.6911
G1X4.0031Y2.6711
G1X3.9523Y2.6551
G1X3.9044Y2.6417
G1X3.8421Y2.6265
G1X3.7987Y2.6176
G1X3.7457Y2.6085
G1X3.6946Y2.6014
G1X3.6306Y2.5948
G1X3.5694Y2.5912
G1X3.5168Y2.5898
G1X3.4532Y2.5902
G1X3.3995Y2.5930
G1X3.3496Y2.5981
G1X3.3086Y2.6050
G1X3.2788Y2.6122
G1X3.2505Y2.6211
G1X3.2273Y2.6306
G1X3.2036Y2.6429
G1X3.1916Y2.6505
G1X3.1795Y2.6593
G1X3.1683Y2.6688
G1X3.1550Y2.6822
G1X3.1408Y2.6994
G1X3.1293Y2.7173
G1X3.1174Y2.7398
G1X3.1095Y2.7587
G1X3.0995Y2.7887
G1X3.0924Y2.8179
G1X3.0850Y2.8593
G1X3.0799Y2.9045
G1X3.0766Y2.9593
G1X3.0761Y2.9780
G1X3.0773Y2.9868
G1X3.0816Y2.9976
G1X3.0916Y3.0127
G1X3.1166Y3.0473
G1X3.1382Y3.0809
G1X3.1594Y3.1190
G1X3.1771Y3.1566
G1X3.1874Y3.1825
G1X3.1877Y3.1824
G1X3.1821Y3.1622
G1X3.1801Y3.1414
G3X3.2153Y3.0565I0.1200J0.0000
G0Z0.2000
G0X3.2703Y2.7090
G1Z-0.1000F30.0
G1X3.2572Y2.7104F100.0
G1X3.2737Y2.7032
G1X3.3011Y2.6942
G1X3.3153Y2.6906
G1X3.2959Y2.7001
G1X3.2827Y2.7053
G1X3.2703Y2.7090
G1X3.2712Y2.7139
G1X3.2586Y2.7154
G1X3.2400Y2.7144
G1X3.2566Y2.7051
G1X3.2796Y2.6956
G1X3.3082Y2.6871
G1X3.3428Y2.6800
G1X3.3447Y2.6797
G1X3.3121Y2.6979
G1X3.2900Y2.7081
G1X3.2712Y2.7139
G1X3.2722Y2.7188
G1X3.2585Y2.7204
G1X3.2376Y2.7194
G1X3.2246Y2.7193
G1X3.2360Y2.7110
G1X3.2546Y2.7005
G1X3.2780Y2.6909
G1X3.3071Y2.6822
G1X3.3421Y2.6751
G1X3.3699Y2.6712
G1X3.3144Y2.7023
G1X3.2916Y2.7128
G1X3.2722Y2.7188
G1X3.2744Y2.7235
G1X3.2588Y2.7254
G1X3.2375Y2.7244
G1X3.2190Y2.7246
G1X3.2100Y2.7257
G1X3.2244Y2.7130
G1X3.2420Y2.7015
G1X3.2637Y2.6910
G1X3.2905Y2.6816
G1X3.3229Y2.6735
G1X3.3613Y2.6672
G1X3.3935Y2.6637
G1X3.3167Y2.7068
G1X3.2932Y2.7175
G1X3.2744Y2.7235
G1X3.2741Y2.7286
G1X3.2587Y2.7304
G1X3.2278Y2.7293
G1X3.2107Y2.7307
G1X3.1966Y2.7337
G1X3.2064Y2.7223
G1X3.2215Y2.7090
G1X3.2396Y2.6971
G1X3.2620Y2.6863
G1X3.2892Y2.6767
G1X3.3220Y2.6686
G1X3.3607Y2.6622
G1X3.4079Y2.6575
G1X3.4166Y2.6570
G1X3.3269Y2.7072
G1X3.3039Y2.7184
G1X3.2892Y2.7242
G1X3.2741Y2.7286
G1X3.2763Y2.7333
G1X3.2596Y2.7354
G1X3.2374Y2.7344
G1X3.2198Y2.7346
G1X3.2025Y2.7375
G1X3.1928Y2.7397
G1X3.1840Y2.7427
G1X3.1960Y2.7263
G1X3.2105Y2.7115
G1X3.2269Y2.6990
G1X3.2475Y2.6873
G1X3.2727Y2.6768
G1X3.3033Y2.6677
G1X3.3399Y2.6602
G1X3.3818Y2.6547
G1X3.4296Y2.6512
G1X3.4413Y2.6507
G1X3.4090Y2.6666
G1X3.3212Y2.7157
G1X3.2975Y2.7266
G1X3.2763Y2.7333
G1X3.2782Y2.7380
G1X3.2608Y2.7404
G1X3.2413Y2.7394
G1X3.2202Y2.7396
G1X3.2035Y2.7424
G1X3.1942Y2.7446
G1X3.1809Y2.7494
G1X3.1720Y2.7536
G1X3.1791Y2.7411
G1X3.1920Y2.7233
G1X3.2068Y2.7081
G1X3.2242Y2.6948
G1X3.2445Y2.6832
G1X3.2629Y2.6752
G1X3.2866Y2.6671
G1X3.3202Y2.6588
G1X3.3595Y2.6523
G1X3.4073Y2.6476
G1X3.4554Y2.6452
G1X3.4693Y2.6450
G1X3.4423Y2.6557
G1X3.4115Y2.6709
G1X3.3235Y2.7201
G1X3.2993Y2.7313
G1X3.2782Y2.7380
G1X3.2793Y2.7429
G1X3.2650Y2.7451
G1X3.2522Y2.7453
G1X3.2374Y2.7444
G1X3.2206Y2.7445
G1X3.2046Y2.7473
G1X3.1955Y2.7494
G1X3.1830Y2.7540
G1X3.1652Y2.7629
G1X3.1605Y2.7661
G1X3.1687Y2.7490
G1X3.1810Y2.7292
G1X3.1921Y2.7158
G1X3.2041Y2.7038
G1X3.2214Y2.6906
G1X3.2421Y2.6788
G1X3.2611Y2.6705
G1X3.2853Y2.6623
G1X3.3193Y2.6539
G1X3.3589Y2.6473
G1X3.4070Y2.6426
G1X3.4553Y2.6402
G1X3.5063Y2.6397
G1X3.4721Y2.6492
G1X3.4443Y2.6603
G1X3.4139Y2.6753
G1X3.3257Y2.7246
G1X3.3011Y2.7360
G1X3.2793Y2.7429
G1X3.2804Y2.7478
G1X3.2653Y2.7501
G1X3.2518Y2.7503
G1X3.2373Y2.7494
G1X3.2210Y2.7495
G1X3.2011Y2.7531
G1X3.1851Y2.7585
G1X3.1678Y2.7672
G1X3.1492Y2.7811
G1X3.1583Y2.7585
G1X3.1682Y2.7399
G1X3.1776Y2.7254
G1X3.1914Y2.7091
G1X3.2009Y2.7000
G1X3.2177Y2.6871
G1X3.2366Y2.6761
G1X3.2593Y2.6659
G1X3.2840Y2.6574
G1X3.3177Y2.6491
G1X3.3584Y2.6424
G1X3.4067Y2.6376
G1X3.4552Y2.6352
G1X3.5162Y2.6348
G1X3.5733Y2.6364
G1X3.6276Y2.6397
G1X3.6862Y2.6458
G1X3.6665Y2.6467
G1X3.6451Y2.6468
G1X3.6250Y2.6455
G1X3.5850Y2.6399
G1X3.5675Y2.6388
G1X3.5528Y2.6387
G1X3.5358Y2.6399
G1X3.5193Y2.6421
G1X3.4993Y2.6465
G1X3.4737Y2.6540
G1X3.4463Y2.6649
G1X3.4163Y2.6796
G1X3.3280Y2.7290
G1X3.3029Y2.7406
G1X3.2804Y2.7478
G1X3.2815Y2.7527
G1X3.2656Y2.7551
G1X3.2514Y2.7553
G1X3.2373Y2.7544
G1X3.2214Y2.7545
G1X3.2021Y2.7580
G1X3.1872Y2.7630
G1X3.1705Y2.7714
G1X3.1579Y2.7805
G1X3.1481Y2.7892
G1X3.1377Y2.8007
G1X3.1471Y2.7724
G1X3.1538Y2.7563
G1X3.1638Y2.7374
G1X3.1737Y2.7223
G1X3.1877Y2.7057
G1X3.1978Y2.6961
G1X3.2148Y2.6830
G1X3.2342Y2.6717
G1X3.2575Y2.6612
G1X3.2827Y2.6526
G1X3.3166Y2.6442
G1X3.3578Y2.6374
G1X3.4064Y2.6326
G1X3.4552Y2.6302
G1X3.5162Y2.6298
G1X3.5735Y2.6314
G1X3.6281Y2.6347
G1X3.6898Y2.6411
G1X3.7328Y2.6470
G1X3.6894Y2.6506
G1X3.6665Y2.6517
G1X3.6448Y2.6518
G1X3.6243Y2.6505
G1X3.5846Y2.6449
G1X3.5675Y2.6438
G1X3.5530Y2.6437
G1X3.5363Y2.6449
G1X3.5201Y2.6471
G1X3.5007Y2.6513
G1X3.4753Y2.6587
G1X3.4483Y2.6694
G1X3.4188Y2.6840
G1X3.3303Y2.7335
G1X3.3047Y2.7453
G1X3.2815Y2.7527
G1X3.2841Y2.7572
G1X3.2659Y2.7601
G1X3.2510Y2.7602
G1X3.2372Y2.7594
G1X3.2218Y2.7595
G1X3.2032Y2.7629
G1X3.1893Y2.7676
G1X3.1731Y2.7757
G1X3.1609Y2.7845
G1X3.1518Y2.7926
G1X3.1418Y2.8036
G1X3.1296Y2.8215
G1X3.1256Y2.8299
G1X3.1330Y2.7990
G1X3.1424Y2.7707
G1X3.1494Y2.7541
G1X3.1595Y2.7349
G1X3.1698Y2.7193
G1X3.1809Y2.7057
G1X3.1946Y2.6922
G1X3.2119Y2.6790
G1X3.2319Y2.6672
G1X3.2558Y2.6565
G1X3.2813Y2.6478
G1X3.3156Y2.6393
G1X3.3572Y2.6324
G1X3.4061Y2.6276
G1X3.4551Y2.6252
G1X3.5163Y2.6248
G1X3.5737Y2.6264
G1X3.6286Y2.6298
G1X3.6904Y2.6362
G1X3.7413Y2.6432
G1X3.7750Y2.6489
G1X3.6897Y2.6556
G1X3.6665Y2.6567
G1X3.6445Y2.6567
G1X3.6236Y2.6554
G1X3.5842Y2.6499
G1X3.5675Y2.6488
G1X3.5532Y2.6487
G1X3.5368Y2.6498
G1X3.5210Y2.6520
G1X3.5030Y2.6558
G1X3.4770Y2.6634
G1X3.4503Y2.6740
G1X3.4212Y2.6884
G1X3.3326Y2.7380
G1X3.3085Y2.7491
G1X3.2841Y2.7572
G0Z0.2000
G0X3.7188Y1.5254
G1Z-0.1000F30.0
G1X3.7183Y1.5257F100.0
G1X3.7189Y1.5261
G1X3.7188Y1.5254
G1X3.7174Y1.5207
G1X3.7090Y1.5252
G1X3.7259Y1.5378
G1X3.7246Y1.5300
G1X3.7226Y1.5169
G1X3.7174Y1.5207
G1X3.7148Y1.5165
G1X3.6995Y1.5246
G1X3.7253Y1.5437
G1X3.7335Y1.5500
G1X3.7312Y1.5387
G1X3.7265Y1.5079
G1X3.7148Y1.5165
G1X3.7121Y1.5123
G1X3.6933Y1.5223
G1X3.6892Y1.5237
G1X3.7125Y1.5400
G1X3.7380Y1.5604
G1X3.7416Y1.5635
G1X3.7402Y1.5579
G1X3.7339Y1.5250
G1X3.7304Y1.4986
G1X3.7121Y1.5123
G1X3.7095Y1.5080
G1X3.6913Y1.5177
G1X3.6778Y1.5224
G1X3.7035Y1.5397
G1X3.7348Y1.5642
G1X3.7503Y1.5780
G1X3.7500Y1.5768
G1X3.7410Y1.5369
G1X3.7353Y1.4976
G1X3.7344Y1.4875
G1X3.7263Y1.4956
G1X3.7095Y1.5080
G1X3.7068Y1.5038
G1X3.6893Y1.5131
G1X3.6710Y1.5196
G1X3.6656Y1.5207
G1X3.6869Y1.5341
G1X3.7141Y1.5539
G1X3.7315Y1.5680
G1X3.7467Y1.5814
G1X3.7601Y1.5942
G1X3.7599Y1.5934
G1X3.7499Y1.5557
G1X3.7427Y1.5165
G1X3.7387Y1.4786
G1X3.7385Y1.4760
G1X3.7231Y1.4918
G1X3.7068Y1.5038
G1X3.7041Y1.4996
G1X3.6872Y1.5085
G1X3.6697Y1.5147
G1X3.6513Y1.5184
G1X3.6650Y1.5262
G1X3.6841Y1.5382
G1X3.7110Y1.5578
G1X3.7282Y1.5718
G1X3.7433Y1.5851
G1X3.7582Y1.5993
G1X3.7717Y1.6133
G1X3.7654Y1.5943
G1X3.7585Y1.5695
G1X3.7508Y1.5351
G1X3.7452Y1.4966
G1X3.7428Y1.4617
G1X3.7336Y1.4742
G1X3.7198Y1.4880
G1X3.7041Y1.4996
G1X3.7015Y1.4953
G3X3.6350Y1.5145I-0.0665J-0.1058
G1X3.6329Y1.5143
G1X3.6623Y1.5304
G1X3.6813Y1.5424
G1X3.7099Y1.5633
G1X3.7366Y1.5856
G1X3.7546Y1.6028
G1X3.7718Y1.6209
G1X3.7856Y1.6366
G1X3.7851Y1.6353
G1X3.7767Y1.6125
G1X3.7696Y1.5907
G1X3.7597Y1.5535
G1X3.7526Y1.5150
G1X3.7485Y1.4765
G1X3.7475Y1.4438
G3X3.7015Y1.4953I-0.1126J-0.0543
G1X3.7154Y1.4784
G3X3.6350Y1.5095I-0.0805J-0.0888
G1X3.6140Y1.5074
G1X3.5937Y1.5017
G1X3.5936Y1.5020
G1X3.6165Y1.5118
G1X3.6443Y1.5259
G1X3.6596Y1.5346
G1X3.6785Y1.5465
G1X3.7069Y1.5673
G1X3.7332Y1.5893
G1X3.7510Y1.6063
G1X3.7681Y1.6242
G1X3.7841Y1.6427
G1X3.8057Y1.6705
G1X3.8009Y1.6600
G1X3.7893Y1.6321
G1X3.7814Y1.6109
G1X3.7744Y1.5893
G1X3.7646Y1.5524
G1X3.7575Y1.5143
G1X3.7535Y1.4763
G1X3.7525Y1.4400
G1X3.7544Y1.4016
G1X3.7542Y1.4015
G3X3.7154Y1.4784I-0.1193J-0.0120
G0Z0.2000
G0X3.9165Y1.0160
G1Z-0.1000F30.0
G1X3.9237Y1.0030F100.0
G1X3.9278Y0.9923
G1X3.9298Y0.9804
G1X3.9307Y0.9685
G1X3.9304Y0.9685
G1X3.9298Y0.9757
G1X3.9258Y0.9936
G1X3.9188Y1.0113
G1X3.9135Y1.0201
G1X3.9139Y1.0203
G1X3.9165Y1.0160
G0Z0.2000
G0X4.3427Y1.6837
G1Z-0.1000F30.0
G1X4.3339Y1.6757F100.0
G1X4.3283Y1.6903
G1X4.3305Y1.6893
G1X4.3427Y1.6837
G1X4.3470Y1.6813
G1X4.3320Y1.6663
G1X4.3187Y1.7008
G1X4.3326Y1.6938
G1X4.3520Y1.6849
G1X4.3470Y1.6813
G1X4.3502Y1.6775
G1X4.3343Y1.6615
G1X4.3304Y1.6562
G1X4.3194Y1.6857
G1X4.3089Y1.7115
G1X4.3093Y1.7113
G1X4.3384Y1.6966
G1X4.3619Y1.6861
G1X4.3502Y1.6775
G1X4.3535Y1.6737
G1X4.3381Y1.6583
G1X4.3287Y1.6456
G1X4.3148Y1.6838
G1X4.2982Y1.7231
G1X4.3117Y1.7156
G1X4.3404Y1.7012
G1X4.3723Y1.6872
G1X4.3535Y1.6737
G1X4.3568Y1.6699
G1X4.3419Y1.6550
G1X4.3295Y1.6381
G1X4.3273Y1.6340
G1X4.3190Y1.6583
G1X4.3102Y1.6819
G1X4.2914Y1.7262
G1X4.2873Y1.7353
G1X4.2880Y1.7349
G1X4.3176Y1.7181
G1X4.3425Y1.7057
G1X4.3701Y1.6935
G1X4.3840Y1.6878
G1X4.3736Y1.6823
G1X4.3568Y1.6699
G1X4.3600Y1.6661
G1X4.3457Y1.6517
G1X4.3337Y1.6355
G1X4.3262Y1.6212
G1X4.3143Y1.6566
G1X4.3056Y1.6800
G1X4.2859Y1.7261
G1X4.2754Y1.7484
G1X4.2762Y1.7479
G1X4.2974Y1.7350
G1X4.3199Y1.7226
G1X4.3446Y1.7103
G1X4.3720Y1.6981
G1X4.3968Y1.6884
G1X4.3938Y1.6874
G1X4.3763Y1.6781
G1X4.3600Y1.6661
G1X4.3633Y1.6623
G1X4.3495Y1.6485
G1X4.3379Y1.6328
G1X4.3290Y1.6159
G1X4.3254Y1.6058
G1X4.3126Y1.6468
G1X4.3009Y1.6781
G1X4.2814Y1.7241
G1X4.2626Y1.7629
G1X4.2680Y1.7593
G1X4.2999Y1.7394
G1X4.3221Y1.7270
G1X4.3467Y1.7148
G1X4.3739Y1.7028
G1X4.4115Y1.6884
G1X4.3958Y1.6828
G1X4.3789Y1.6738
G1X4.3633Y1.6623
G1X4.3596Y1.6521
G1X4.3463Y1.6364
G1X4.3359Y1.6189
G1X4.3286Y1.6005
G1X4.3255Y1.5867
G1X4.3139Y1.6265
G1X4.3049Y1.6532
G1X4.2963Y1.6762
G1X4.2768Y1.7221
G1X4.2556Y1.7657
G1X4.2487Y1.7790
G1X4.2614Y1.7697
G1X4.2816Y1.7563
G1X4.3024Y1.7437
G1X4.3244Y1.7315
G1X4.3487Y1.7194
G1X4.3758Y1.7074
G1X4.4135Y1.6930
G1X4.4307Y1.6875
G1X4.4113Y1.6832
G1X4.3929Y1.6759
G1X4.3754Y1.6655
G1X4.3596Y1.6521
G1X4.3632Y1.6486
G3X4.3280Y1.5637I0.0849J-0.0849
G1X4.3287Y1.5526
G1X4.3304Y1.5416
G1X4.3301Y1.5415
G1X4.3265Y1.5606
G1X4.3200Y1.5879
G1X4.3080Y1.6285
G1X4.2927Y1.6717
G1X4.2731Y1.7180
G1X4.2511Y1.7634
G1X4.2327Y1.7976
G1X4.2450Y1.7879
G1X4.2746Y1.7670
G1X4.3049Y1.7480
G1X4.3266Y1.7360
G1X4.3508Y1.7239
G1X4.3777Y1.7120
G1X4.4151Y1.6977
G1X4.4381Y1.6903
G1X4.4754Y1.6806
G1X4.4753Y1.6802
G1X4.4618Y1.6828
G1X4.4480Y1.6837
G3X4.3632Y1.6486I0.0000J-0.1200
G0Z0.2000
G0X5.0919Y2.0229
G1Z-0.1000F30.0
G1X5.1103Y2.0244F100.0
G1X5.1283Y2.0286
G1X5.1280Y2.0284
G1X5.1104Y2.0236
G1X5.0915Y2.0212
G1X5.0742Y2.0221
G1X5.0576Y2.0259
G1X5.0412Y2.0329
G1X5.0243Y2.0434
G1X5.0128Y2.0527
G1X5.0130Y2.0530
G3X5.0497Y2.0308I0.0794J0.0897
G3X5.0919Y2.0229I0.0427J0.1119
G0Z0.2000
G0X6.0878Y3.0337
G1Z-0.1000F30.0
G1X6.0851Y3.0225F100.0
G1X6.0842Y3.0200
G1X6.0815Y3.0331
G1X6.0756Y3.0496
G1X6.0773Y3.0488
G1X6.0856Y3.0428
G1X6.0876Y3.0400
G1X6.0878Y3.0337
G1X6.0927Y3.0330
G1X6.0898Y3.0207
G1X6.0823Y3.0033
G1X6.0812Y3.0013
G1X6.0804Y3.0136
G1X6.0767Y3.0318
G1X6.0702Y3.0500
G1X6.0650Y3.0599
G1X6.0668Y3.0593
G1X6.0837Y3.0508
G1X6.0910Y3.0442
G1X6.0926Y3.0403
G1X6.0927Y3.0330
G1X6.0980Y3.0346
G1X6.0963Y3.0253
G1X6.0909Y3.0098
G1X6.0801Y2.9890
G1X6.0756Y2.9816
G1X6.0766Y2.9958
G3X6.0706Y3.0344I-0.1299J-0.0005
G3X6.0533Y3.0694I-0.1238J-0.0391
G1X6.0542Y3.0691
G1X6.0732Y3.0620
G1X6.0865Y3.0549
G1X6.0945Y3.0478
G1X6.0973Y3.0425
G1X6.0980Y3.0346
G1X6.1030Y3.0363
G1X6.1012Y3.0240
G1X6.0962Y3.0093
G1X6.0851Y2.9876
G1X6.0664Y2.9586
G1X6.0651Y2.9566
G1X6.0699Y2.9760
G1X6.0716Y2.9958
G3X6.0630Y3.0410I-0.1248J-0.0004
G3X6.0386Y3.0799I-0.1162J-0.0456
G1X6.0417Y3.0787
G1X6.0754Y3.0665
G1X6.0893Y3.0591
G1X6.0979Y3.0517
G1X6.1019Y3.0449
G1X6.1030Y3.0363
G1X6.1080Y3.0377
G1X6.1070Y3.0263
G1X6.1038Y3.0154
G1X6.0957Y2.9965
G1X6.0814Y2.9720
G1X6.0650Y2.9481
G1X6.0441Y2.9259
G3X6.0608Y2.9591I-0.0975J0.0699
G3X6.0666Y2.9958I-0.1142J0.0367
G3X6.0492Y3.0578I-0.1199J-0.0002
G3X6.0022Y3.1019I-0.1025J-0.0622
G1X6.0023Y3.1021
G1X6.0143Y3.0958
G1X6.0295Y3.0889
G1X6.0641Y3.0762
G1X6.0776Y3.0710
G1X6.0922Y3.0632
G1X6.1017Y3.0549
G1X6.1064Y3.0472
G1X6.1080Y3.0377
G0Z0.2000
G0X6.0336Y3.3416
G1Z-0.1000F30.0
G1X6.0436Y3.3248F100.0
G1X6.0564Y3.3097
G1X6.0715Y3.2969
G1X6.0883Y3.2869
G1X6.1060Y3.2799
G1X6.1165Y3.2775
G1X6.1164Y3.2772
G1X6.0819Y3.2847
G1X6.0705Y3.2896
G1X6.0614Y3.2960
G1X6.0522Y3.3063
G1X6.0412Y3.3248
G1X6.0310Y3.3472
G1X6.0313Y3.3474
G1X6.0336Y3.3416
G0Z0.2000
G0X4.5863Y4.4858
G1Z-0.1000F30.0
G1X4.5920Y4.4723F100.0
G1X4.5946Y4.4633
G1X4.5905Y4.4332
G1X4.5904Y4.4332
G1X4.5916Y4.4497
G1X4.5894Y4.4717
G1X4.5831Y4.4930
G1X4.5834Y4.4932
G1X4.5863Y4.4858
G0Z0.2000
G0X2.1849Y4.3054
G1Z-0.1000F30.0
G1X2.1893Y4.3078F100.0
G1X2.1884Y4.3056
