%
(VECTRIC POST REVISION)
(C1123243DDFB7F5640F9758EC44667F9)
(================================================)
( File: Rose2_Sheet 1_3-Rose Female [Clear 1] )
( Date: Friday June 13 2025 Time: 10:39 AM )
(================================================)
( Material Size )
( X=11.000 Y=5.000 Z=0.500 )
(  )
(================================================)
( TOOL VERIFICATION - ENSURE CORRECT TOOL LOADED )
( Tool #2 - Compression End Mill  1/4"  UP/DOWN CUT )
( Spindle Speed:  S10000 RPM )
( FEED_RATE: F120.0 IPM )
( PLUNGE_RATE: 40 IPM )
( CUT_RATE: 120 IPM )
( Tools Used: 2 = Compression End Mill  1/4"  UP/DOWN CUT )
(================================================)
( Home X = X0.0000 )
( Home Y = Y0.0000 )
( Home Z = Z0.8000 )
( Safe Z = Z0.2000 )
(================================================)
( Minimum extent in X = 0.000 )
( Minimum extent in Y = 0.000 )
( Minimum extent in Z = -0.500 )
( Maximum extent in X = 11.000 )
( Maximum extent in Y = 5.000 )
( Maximum extent in Z = 0.000 )
( Length of material in X = 11.000 )
( Length of material in Y = 5.000 )
( Depth of material in Z = 0.500 )
(================================================)
( VERIFY: Check tool number, diameter, and type )
( before starting program execution )
(================================================)

T2
G0 G17 G20 G90 G40 G49 G64 P0.0001
G0Z0.8000
G0X0.0000Y0.0000
(================================================)
( Starting Tool #2 - Compression End Mill  1/4"  UP/DOWN CUT )
( Speed:  S10000 RPM )
(================================================)
M3 S10000
M0(MSG, Click 'Continue' when the spindle is up to speed)
G0X4.7656Y2.9475
G0Z0.2000
G1Z-0.1000F40.0
G1X4.7675Y2.9519F120.0
G1X4.7636Y2.9555
G1X4.7656Y2.9475
G0Z0.2000
(================================================)
( Program Complete )
( Tool used: #2 - Compression End Mill  1/4"  UP/DOWN CUT )
(================================================)
M5
G0Z0.8000
G0X0.0000Y0.0000
M2
