%
(VECTRIC POST REVISION)
(C1123243DDFB7F5640F9758EC44667F9)
(================================================)
( File: Rose2_Sheet 1_4-Rose Female )
( Date: Friday June 13 2025 Time: 10:39 AM )
(================================================)
( Material Size )
( X=11.000 Y=5.000 Z=0.500 )
(  )
(================================================)
( TOOL VERIFICATION - ENSURE CORRECT TOOL LOADED )
( Tool #1 - V-Bit  30.0° - 1/4"  )
( Spindle Speed:  S12000 RPM )
( FEED_RATE: F100.0 IPM )
( PLUNGE_RATE: 30 IPM )
( CUT_RATE: 100 IPM )
( Tools Used: 1 = V-Bit  30.0° - 1/4"  )
(================================================)
( Home X = X0.0000 )
( Home Y = Y0.0000 )
( Home Z = Z0.8000 )
( Safe Z = Z0.2000 )
(================================================)
( Minimum extent in X = 0.000 )
( Minimum extent in Y = 0.000 )
( Minimum extent in Z = -0.500 )
( Maximum extent in X = 11.000 )
( Maximum extent in Y = 5.000 )
( Maximum extent in Z = 0.000 )
( Length of material in X = 11.000 )
( Length of material in Y = 5.000 )
( Depth of material in Z = 0.500 )
(================================================)
( VERIFY: Check tool number, diameter, and type )
( before starting program execution )
(================================================)

T1
G0 G17 G20 G90 G40 G49 G64 P0.0001
G0Z0.8000
G0X0.0000Y0.0000
(================================================)
( Starting Tool #1 - V-Bit  30.0° - 1/4"  )
( Speed:  S12000 RPM )
(================================================)
M3 S12000
M0(MSG, Click 'Continue' when the spindle is up to speed)
G0X4.0525Y1.7041
G0Z0.2000
G1Z-0.1000F30.0
G1X4.0935Y1.6997F100.0
G1X4.0989Y1.6967Z-0.0920
G1X4.1102Y1.6915Z-0.0788
G1X4.1207Y1.6878Z-0.0709
G1X4.1306Y1.6852Z-0.0668
G1X4.1401Y1.6833Z-0.0652
G1X4.1498Y1.6819Z-0.0654
G1X4.1677Y1.6803Z-0.0678
G1X4.1862Y1.6791Z-0.0714
G1X4.2021Y1.6780Z-0.0717
G1X4.2083Y1.6775Z-0.0703
G1X4.2192Y1.6762Z-0.0665
G1X4.2238Y1.6761Z-0.0678
G1X4.2327Y1.6764Z-0.0718
G1X4.2380Y1.6756Z-0.0744
G1X4.2452Y1.6740Z-0.0799
G1X4.2542Y1.6704Z-0.0908
G1X4.2594Y1.6677Z-0.1000
G1X4.2623Y1.6617
G1X4.2644Y1.6522
G1X4.2646Y1.6464
G1X4.2623Y1.6371
G1X4.2576Y1.6284
G1X4.2500Y1.6203Z-0.0957
G1X4.2369Y1.6074Z-0.0937
G1X4.2203Y1.5924Z-0.0948
G1X4.2029Y1.5782Z-0.1000
G1X4.1853Y1.5679
G1X4.1655Y1.5588
G1X4.1449Y1.5517
G1X4.1236Y1.5467
G1X4.1017Y1.5437
G1X4.0672Y1.5427
G1X4.0547Y1.5437
G1X4.0425Y1.5457
G1X4.0308Y1.5484
G1X4.0084Y1.5562
G1X3.9884Y1.5660
G1X3.9696Y1.5774
G1X3.9519Y1.5898
G1X3.9183Y1.6159
G1X3.9084Y1.6254
G1X3.9032Y1.6328
G1X3.8989Y1.6428
G1X3.8980Y1.6470
G2X3.9001Y1.6640I0.0262J0.0055
G1X3.9017Y1.6673
G1X3.9097Y1.6771
G1X3.9157Y1.6817
G1X3.9247Y1.6858
G1X3.9408Y1.6916
G1X3.9597Y1.6972
G1X3.9787Y1.7012
G1X3.9975Y1.7037
G1X4.0161Y1.7049
G1X4.0343Y1.7050
G1X4.0525Y1.7041
G0Z0.2000
G0X4.1694Y1.8229
G1Z-0.1000F30.0
G1X4.1919Y1.8142F100.0
G1X4.2129Y1.8046
G1X4.2331Y1.7942
G1X4.2528Y1.7831
G1X4.3284Y1.7381
G2X4.3351Y1.6977I-0.0136J-0.0231
G1X4.3288Y1.6903
G1X4.3207Y1.6830
G1X4.3119Y1.6772
G1X4.3028Y1.6729
G1X4.2937Y1.6700
G1X4.2844Y1.6682
G1X4.2689Y1.6673
G1X4.2594Y1.6677
G1X4.2518Y1.6715Z-0.0874
G1X4.2431Y1.6746Z-0.0782
G1X4.2380Y1.6756Z-0.0744
G1X4.2287Y1.6764Z-0.0703
G1X4.2238Y1.6761Z-0.0678
G1X4.2185Y1.6762Z-0.0665
G1X4.2083Y1.6775Z-0.0703
G1X4.2014Y1.6781Z-0.0718
G1X4.1850Y1.6792Z-0.0713
G1X4.1669Y1.6804Z-0.0677
G1X4.1481Y1.6821Z-0.0652
G1X4.1383Y1.6836Z-0.0653
G1X4.1282Y1.6857Z-0.0675
G1X4.1176Y1.6888Z-0.0729
G1X4.1102Y1.6915Z-0.0788
G1X4.0989Y1.6967Z-0.0920
G1X4.0935Y1.6997Z-0.1000
G1X4.0875Y1.7080
G1X4.0815Y1.7207
G1X4.0773Y1.7351
G1X4.0760Y1.7450
G1X4.0762Y1.7548
G1X4.0777Y1.7642
G1X4.0804Y1.7732
G1X4.0840Y1.7816
G1X4.0885Y1.7894
G1X4.0938Y1.7967
G1X4.0998Y1.8033
G1X4.1065Y1.8093
G1X4.1138Y1.8146
G1X4.1218Y1.8191
G1X4.1304Y1.8226
G1X4.1397Y1.8249
G1X4.1495Y1.8259
G1X4.1597Y1.8252
G1X4.1694Y1.8229
G0Z0.2000
G0X4.1788Y1.5558
G1Z-0.1000F30.0
G1X4.2030Y1.5783Z-0.0999F100.0
G1X4.2221Y1.5939Z-0.0945
G1X4.2384Y1.6088Z-0.0937
G1X4.2506Y1.6208Z-0.0959
G1X4.2575Y1.6283Z-0.1000
G1X4.2847Y1.6520
G1X4.3029Y1.6666
G1X4.3215Y1.6802
G1X4.3406Y1.6929
G1X4.3605Y1.7045
G1X4.3812Y1.7147
G1X4.4028Y1.7235
G1X4.4254Y1.7305
G1X4.4490Y1.7357
G1X4.4737Y1.7388
G1X4.4982Y1.7396
G2X4.5245Y1.7217I0.0009J-0.0268
G1X4.5236Y1.7172Z-0.0925
G1X4.5215Y1.7105Z-0.0837
G1X4.5204Y1.7078Z-0.0813
G1X4.5181Y1.7033Z-0.0789
G1X4.5092Y1.6876Z-0.0757
G1X4.5053Y1.6803Z-0.0752
G1X4.5026Y1.6756Z-0.0757
G1X4.4932Y1.6578Z-0.0798
G1X4.4904Y1.6532Z-0.0817
G1X4.4873Y1.6467Z-0.0862
G1X4.4860Y1.6427Z-0.0908
G1X4.4846Y1.6365Z-0.1000
G1X4.4678Y1.6164
G1X4.4507Y1.5995
G1X4.4325Y1.5842
G1X4.4133Y1.5705
G1X4.3930Y1.5584
G1X4.3717Y1.5479
G1X4.3495Y1.5388
G1X4.3264Y1.5311
G1X4.3025Y1.5246
G1X4.2778Y1.5193
G1X4.2523Y1.5151
G1X4.2260Y1.5118
G1X4.1993Y1.5095
G2X4.1788Y1.5558I-0.0023J0.0267
G0Z0.2000
G0X4.5117Y1.5577
G1Z-0.1000F30.0
G1X4.5079Y1.5675F100.0
G1X4.5051Y1.5771
G1X4.4963Y1.6155
G1X4.4927Y1.6231
G1X4.4895Y1.6270
G1X4.4846Y1.6365
G1X4.4860Y1.6427Z-0.0908
G1X4.4873Y1.6467Z-0.0862
G1X4.4904Y1.6532Z-0.0817
G1X4.4940Y1.6593Z-0.0793
G1X4.5033Y1.6768Z-0.0755
G1X4.5060Y1.6816Z-0.0752
G1X4.5097Y1.6885Z-0.0758
G1X4.5181Y1.7033Z-0.0789
G1X4.5204Y1.7078Z-0.0813
G1X4.5219Y1.7117Z-0.0850
G1X4.5236Y1.7172Z-0.0925
G1X4.5245Y1.7217Z-0.1000
G1X4.5347Y1.7338
G1X4.5531Y1.7517
G1X4.5735Y1.7672
G1X4.5957Y1.7803
G1X4.6197Y1.7908
G1X4.6337Y1.7956
G1X4.6426Y1.7971
G1X4.6531Y1.7968
G1X4.6627Y1.7942
G1X4.6659Y1.7849Z-0.0770
G1X4.6680Y1.7764Z-0.0599
G1X4.6691Y1.7675Z-0.0487
G1X4.6692Y1.7639Z-0.0456
G1X4.6691Y1.7566Z-0.0426
G1X4.6684Y1.7498Z-0.0422
G1X4.6670Y1.7416Z-0.0448
G1X4.6640Y1.7263Z-0.0541
G1X4.6625Y1.7146Z-0.0584
G1X4.6616Y1.7020Z-0.0607
G1X4.6608Y1.6886Z-0.0607
G1X4.6592Y1.6556Z-0.0557
G1X4.6590Y1.6441Z-0.0560
G1X4.6596Y1.6325Z-0.0601
G1X4.6603Y1.6255Z-0.0654
G1X4.6619Y1.6175Z-0.0747
G1X4.6632Y1.6125Z-0.0821
G1X4.6660Y1.6034Z-0.1000
G1X4.6645Y1.5966
G1X4.6586Y1.5811
G1X4.6541Y1.5727
G1X4.6491Y1.5651
G1X4.6431Y1.5579
G1X4.6363Y1.5512
G1X4.6286Y1.5451
G1X4.6200Y1.5397
G1X4.6108Y1.5351
G1X4.6007Y1.5311
G1X4.5900Y1.5279
G1X4.5778Y1.5252
G1X4.5637Y1.5239
G1X4.5496Y1.5254
G1X4.5364Y1.5303
G1X4.5254Y1.5382
G1X4.5173Y1.5477
G1X4.5117Y1.5577
G0Z0.2000
G0X4.6785Y1.5967
G1Z-0.1000F30.0
G1X4.6688Y1.6011F100.0
G1X4.6660Y1.6034
G1X4.6626Y1.6148Z-0.0786
G1X4.6610Y1.6215Z-0.0697
G1X4.6598Y1.6302Z-0.0616
G1X4.6594Y1.6351Z-0.0589
G1X4.6590Y1.6461Z-0.0556
G1X4.6592Y1.6568Z-0.0558
G1X4.6608Y1.6886Z-0.0607
G1X4.6616Y1.7020Z-0.0607
G1X4.6625Y1.7146Z-0.0584
G1X4.6640Y1.7263Z-0.0541
G1X4.6674Y1.7432Z-0.0440
G1X4.6686Y1.7514Z-0.0420
G1X4.6692Y1.7588Z-0.0432
G1X4.6692Y1.7653Z-0.0465
G1X4.6687Y1.7723Z-0.0542
G1X4.6676Y1.7783Z-0.0632
G1X4.6641Y1.7903Z-0.0897
G1X4.6627Y1.7942Z-0.1000
G1X4.6681Y1.8054
G1X4.6762Y1.8173
G1X4.6867Y1.8281
G1X4.6993Y1.8373
G1X4.7139Y1.8446
G1X4.7309Y1.8502
G1X4.7421Y1.8518
G1X4.7501Y1.8507
G1X4.7591Y1.8477
G1X4.7624Y1.8460
G1X4.7699Y1.8399
G1X4.7748Y1.8343
G1X4.7792Y1.8249
G1X4.7816Y1.8159
G1X4.7829Y1.8017
G1X4.7831Y1.7761
G1X4.7844Y1.7639
G1X4.7856Y1.7604
G1X4.7864Y1.7455
G1X4.7834Y1.7307
G1X4.7810Y1.6932
G1X4.7787Y1.6722
G1X4.7762Y1.6605
G1X4.7725Y1.6490
G1X4.7671Y1.6375
G1X4.7595Y1.6265
G1X4.7498Y1.6166
G1X4.7379Y1.6081
G1X4.7242Y1.6015
G1X4.7089Y1.5968
G1X4.6990Y1.5950
G1X4.6888Y1.5948
G1X4.6785Y1.5967
G0Z0.2000
G0X4.9486Y1.4755
G1Z-0.1000F30.0
G1X4.9518Y1.4618F100.0
G1X4.9540Y1.4476
G1X4.9552Y1.4338
G1X4.9554Y1.4203
G1X4.9546Y1.4072
G1X4.9530Y1.3945
G1X4.9504Y1.3822
G1X4.9471Y1.3703
G1X4.9384Y1.3475
G1X4.9277Y1.3270
G1X4.9153Y1.3074
G1X4.9066Y1.2956
G1X4.8984Y1.2906Z-0.0862
G1X4.8942Y1.2877Z-0.0811
G1X4.8909Y1.2849Z-0.0783
G1X4.8868Y1.2810Z-0.0757
G1X4.8834Y1.2773Z-0.0745
G1X4.8780Y1.2708Z-0.0747
G1X4.8674Y1.2569Z-0.0772
G1X4.8569Y1.2447Z-0.0766
G1X4.8462Y1.2315Z-0.0774
G1X4.8360Y1.2181Z-0.0792
G1X4.8265Y1.2044Z-0.0813
G1X4.8177Y1.1902Z-0.0834
G1X4.8092Y1.1747Z-0.0850
G1X4.8026Y1.1606Z-0.0848
G1X4.8012Y1.1573Z-0.0848
G1X4.7984Y1.1518Z-0.0864
G1X4.7949Y1.1466Z-0.0911
G1X4.7904Y1.1414Z-0.1000
G1X4.7837Y1.1386
G1X4.7726Y1.1376
G1X4.7626Y1.1377
G1X4.7572Y1.1391
G2X4.7377Y1.1584I0.0065J0.0260
G1X4.7279Y1.1943
G1X4.7255Y1.2052
G1X4.7240Y1.2169
G1X4.7241Y1.2297
G1X4.7266Y1.2419
G1X4.7333Y1.2624
G1X4.7406Y1.2813
G1X4.7487Y1.2996
G1X4.7576Y1.3173
G1X4.7671Y1.3345
G1X4.7773Y1.3511
G1X4.7995Y1.3827
G1X4.8239Y1.4124
G1X4.8498Y1.4399
G1X4.8771Y1.4658
G1X4.9051Y1.4898
G2X4.9486Y1.4755I0.0175J-0.0203
G0Z0.2000
G0X5.0207Y1.6020
G1Z-0.1000F30.0
G1X5.0460Y1.5537F100.0
G1X5.0965Y1.4604
G1X5.1202Y1.4127
G1X5.1311Y1.3882
G1X5.1413Y1.3631
G1X5.1505Y1.3372
G1X5.1587Y1.3105
G1X5.1657Y1.2828
G1X5.1714Y1.2541
G1X5.1756Y1.2243
G1X5.1781Y1.1940
G2X5.1420Y1.1667I-0.0267J-0.0022
G1X5.1382Y1.1702Z-0.0944
G1X5.1342Y1.1748Z-0.0902
G1X5.1311Y1.1794Z-0.0887
G1X5.1166Y1.2039Z-0.0878
G1X5.1021Y1.2276Z-0.0856
G1X5.0728Y1.2746Z-0.0792
G1X5.0441Y1.3211Z-0.0738
G1X5.0303Y1.3445Z-0.0728
G1X5.0168Y1.3681Z-0.0739
G1X5.0101Y1.3808Z-0.0757
G1X5.0073Y1.3853Z-0.0776
G1X5.0031Y1.3903Z-0.0834
G1X4.9985Y1.3947Z-0.0926
G1X4.9953Y1.3973Z-0.1000
G1X4.9880Y1.4146
G1X4.9791Y1.4413
G1X4.9722Y1.4688
G1X4.9676Y1.4981
G1X4.9656Y1.5286
G1X4.9665Y1.5605
G1X4.9704Y1.5933
G2X5.0207Y1.6020I0.0265J-0.0037
G0Z0.2000
G0X4.8166Y1.8912
G1Z-0.1000F30.0
G1X4.7726Y1.8802F100.0
G1X4.7616Y1.8797
G1X4.7159Y1.8871
G1X4.7017Y1.8951Z-0.0790
G1X4.6968Y1.8977Z-0.0732
G1X4.6900Y1.9005Z-0.0676
G1X4.6846Y1.9020Z-0.0660
G1X4.6750Y1.9037Z-0.0670
G1X4.6660Y1.9053Z-0.0690
G1X4.6517Y1.9084Z-0.0704
G1X4.6377Y1.9122Z-0.0712
G1X4.6240Y1.9165Z-0.0711
G1X4.6105Y1.9214Z-0.0704
G1X4.5972Y1.9269Z-0.0697
G1X4.5840Y1.9331Z-0.0689
G1X4.5712Y1.9399Z-0.0684
G1X4.5631Y1.9445Z-0.0678
G1X4.5498Y1.9527Z-0.0682
G1X4.5362Y1.9619Z-0.0695
G1X4.5268Y1.9690Z-0.0721
G1X4.5182Y1.9765Z-0.0773
G1X4.5104Y1.9846Z-0.0852
G1X4.5032Y1.9935Z-0.0968
G1X4.5017Y1.9956Z-0.1000
G1X4.5000Y2.0016
G1X4.4989Y2.0122
G1X4.4997Y2.0226
G1X4.5023Y2.0325
G1X4.5064Y2.0415
G1X4.5118Y2.0497
G1X4.5184Y2.0567
G1X4.5261Y2.0626
G1X4.5347Y2.0673
G1X4.5440Y2.0704
G1X4.5540Y2.0720
G1X4.5628Y2.0718
G1X4.5940Y2.0693
G1X4.6581Y2.0664
G1X4.6751Y2.0648
G1X4.6921Y2.0623
G1X4.7092Y2.0587
G1X4.7262Y2.0536
G1X4.7431Y2.0467
G1X4.7595Y2.0379
G1X4.7752Y2.0267
G1X4.7900Y2.0132
G1X4.8035Y1.9971
G1X4.8157Y1.9785
G1X4.8229Y1.9643
G1X4.8280Y1.9502
G1X4.8359Y1.9253
G2X4.8166Y1.8912I-0.0256J-0.0080
G0Z0.2000
G0X5.0952Y1.9371
G1Z-0.1000F30.0
G1X5.1030Y1.9350F100.0
G1X5.1245Y1.9268
G1X5.1457Y1.9158
G1X5.1651Y1.9025
G1X5.1827Y1.8869
G1X5.1880Y1.8810
G1X5.1906Y1.8762Z-0.0953
G1X5.1953Y1.8681Z-0.0907
G1X5.1991Y1.8621Z-0.0897
G1X5.2034Y1.8557Z-0.0904
G1X5.2093Y1.8468Z-0.0936
G1X5.2146Y1.8382Z-0.0983
G1X5.2159Y1.8362Z-0.1000
G1X5.2195Y1.8260
G1X5.2226Y1.8140
G1X5.2247Y1.8016
G1X5.2266Y1.7728
G1X5.2221Y1.7647Z-0.0829
G1X5.2186Y1.7561Z-0.0697
G1X5.2164Y1.7491Z-0.0623
G1X5.2148Y1.7419Z-0.0575
G1X5.2131Y1.7300Z-0.0531
G1X5.2119Y1.7178Z-0.0522
G1X5.2077Y1.6672Z-0.0559
G1X5.2057Y1.6189Z-0.0661
G1X5.2046Y1.6093Z-0.0709
G1X5.2036Y1.6034Z-0.0762
G1X5.2029Y1.5979Z-0.0827
G1X5.2018Y1.5932Z-0.0874
G1X5.1993Y1.5845Z-0.0943
G1X5.1974Y1.5788Z-0.1000
G2X5.1636Y1.5729I-0.0204J0.0173
G1X5.1438Y1.5845
G1X5.1347Y1.5938Z-0.0927
G1X5.1297Y1.5999Z-0.0901
G1X5.1259Y1.6051Z-0.0895
G1X5.1155Y1.6208Z-0.0892
G1X5.1061Y1.6367Z-0.0905
G1X5.0976Y1.6527Z-0.0925
G1X5.0943Y1.6594Z-0.0941
G1X5.0899Y1.6689Z-0.0953
G1X5.0809Y1.6913Z-0.1000
G1X5.0777Y1.7016
G1X5.0695Y1.7348
G1X5.0633Y1.7681
G1X5.0532Y1.8346
G1X5.0526Y1.8450Z-0.0959
G1X5.0520Y1.8504Z-0.0948
G1X5.0507Y1.8562Z-0.0961
G1X5.0487Y1.8619Z-0.1000
G1X5.0478Y1.8670
G1X5.0495Y1.8946
G1X5.0511Y1.9052
G1X5.0548Y1.9165
G1X5.0597Y1.9242
G1X5.0667Y1.9309
G1X5.0759Y1.9358
G1X5.0859Y1.9377
G1X5.0952Y1.9371
G0Z0.2000
G0X5.2673Y1.8165
G1Z-0.1000F30.0
G1X5.2635Y1.8157F100.0
G1X5.2544Y1.8157
G1X5.2455Y1.8171
G1X5.2323Y1.8223
G1X5.2215Y1.8303
G1X5.2157Y1.8364Z-0.0998
G1X5.2131Y1.8404Z-0.0969
G1X5.2082Y1.8485Z-0.0929
G1X5.2017Y1.8583Z-0.0899
G1X5.1976Y1.8644Z-0.0899
G1X5.1947Y1.8690Z-0.0910
G1X5.1894Y1.8783Z-0.0970
G1X5.1880Y1.8810Z-0.1000
G1X5.1869Y1.8872
G1X5.1873Y1.8968
G1X5.1903Y1.9072
G1X5.1986Y1.9193
G1X5.2088Y1.9275
G1X5.2303Y1.9394
G1X5.2615Y1.9577
G1X5.2778Y1.9660
G1X5.2944Y1.9736
G1X5.3113Y1.9803
G1X5.3284Y1.9860
G1X5.3457Y1.9906
G1X5.3634Y1.9941
G1X5.3813Y1.9962
G1X5.3994Y1.9969
G1X5.4177Y1.9962
G1X5.4362Y1.9939
G1X5.4548Y1.9899
G1X5.4735Y1.9842
G1X5.4922Y1.9768
G1X5.5099Y1.9680
G2X5.5123Y1.9212I-0.0119J-0.0240
G1X5.5083Y1.9201Z-0.0968
G1X5.4914Y1.9157Z-0.0871
G1X5.4739Y1.9106Z-0.0789
G1X5.4568Y1.9051Z-0.0727
G1X5.4399Y1.8992Z-0.0684
G1X5.4231Y1.8929Z-0.0658
G1X5.4065Y1.8863Z-0.0646
G1X5.3898Y1.8792Z-0.0645
G1X5.3572Y1.8644Z-0.0670
G1X5.3261Y1.8490Z-0.0720
G1X5.3206Y1.8465Z-0.0719
G1X5.3124Y1.8430Z-0.0704
G1X5.2949Y1.8352Z-0.0684
G1X5.2898Y1.8323Z-0.0699
G1X5.2851Y1.8296Z-0.0722
G1X5.2788Y1.8253Z-0.0778
G1X5.2751Y1.8226Z-0.0832
G1X5.2673Y1.8165Z-0.1000
G0Z0.2000
G0X5.1950Y1.5595
G1Z-0.1000F30.0
G1X5.1974Y1.5788F100.0
G1X5.1993Y1.5845Z-0.0943
G1X5.2018Y1.5932Z-0.0874
G1X5.2030Y1.5989Z-0.0814
G1X5.2042Y1.6069Z-0.0726
G1X5.2054Y1.6156Z-0.0674
G1X5.2057Y1.6189Z-0.0661
G1X5.2078Y1.6682Z-0.0557
G1X5.2119Y1.7180Z-0.0522
G1X5.2133Y1.7318Z-0.0535
G1X5.2154Y1.7446Z-0.0591
G1X5.2173Y1.7521Z-0.0651
G1X5.2186Y1.7561Z-0.0697
G1X5.2221Y1.7647Z-0.0829
G1X5.2266Y1.7728Z-0.1000
G1X5.2328Y1.7757
G1X5.2444Y1.7772
G1X5.2551Y1.7758
G1X5.2701Y1.7709
G1X5.2819Y1.7645
G1X5.2858Y1.7606Z-0.0955
G1X5.2918Y1.7541Z-0.0902
G1X5.2974Y1.7483Z-0.0871
G1X5.3031Y1.7418Z-0.0861
G1X5.3085Y1.7361Z-0.0872
G1X5.3146Y1.7293Z-0.0909
G1X5.3214Y1.7220Z-0.0993
G1X5.3219Y1.7216Z-0.1000
G1X5.3252Y1.7146
G1X5.3287Y1.7052
G1X5.3313Y1.6952
G1X5.3328Y1.6848
G1X5.3329Y1.6689
G1X5.3270Y1.6586Z-0.0817
G1X5.3250Y1.6537Z-0.0763
G1X5.3230Y1.6475Z-0.0712
G1X5.3200Y1.6359Z-0.0664
G1X5.3190Y1.6306Z-0.0657
G1X5.3157Y1.6150Z-0.0657
G1X5.3099Y1.5905Z-0.0742
G1X5.3089Y1.5841Z-0.0754
G1X5.3070Y1.5670Z-0.0749
G1X5.3052Y1.5409Z-0.0701
G1X5.3042Y1.5278Z-0.0671
G1X5.3018Y1.5095Z-0.0646
G1X5.2992Y1.4977Z-0.0655
G1X5.2974Y1.4910Z-0.0688
G1X5.2947Y1.4802Z-0.0822
G1X5.2918Y1.4729Z-0.0938
G1X5.2901Y1.4695Z-0.1000
G1X5.2844Y1.4652
G1X5.2702Y1.4607
G1X5.2556Y1.4604
G1X5.2390Y1.4638
G1X5.2331Y1.4663
G1X5.2283Y1.4701Z-0.0941
G1X5.2238Y1.4741Z-0.0896
G1X5.2177Y1.4802Z-0.0850
G1X5.2139Y1.4845Z-0.0834
G1X5.2087Y1.4913Z-0.0829
G1X5.2061Y1.4951Z-0.0838
G1X5.2020Y1.5020Z-0.0869
G1X5.1998Y1.5059Z-0.0896
G1X5.1943Y1.5176Z-0.1000
G1X5.1933Y1.5270
G1X5.1932Y1.5388
G1X5.1950Y1.5595
G0Z0.2000
G0X5.2900Y1.4621
G1Z-0.1000F30.0
G1X5.2901Y1.4695F100.0
G1X5.2934Y1.4764Z-0.0878
G1X5.2964Y1.4865Z-0.0738
G1X5.2974Y1.4910Z-0.0688
G1X5.2992Y1.4977Z-0.0655
G1X5.3018Y1.5095Z-0.0646
G1X5.3042Y1.5278Z-0.0671
G1X5.3057Y1.5479Z-0.0714
G1X5.3070Y1.5670Z-0.0749
G1X5.3089Y1.5841Z-0.0754
G1X5.3099Y1.5905Z-0.0742
G1X5.3157Y1.6150Z-0.0657
G1X5.3193Y1.6317Z-0.0658
G1X5.3205Y1.6382Z-0.0671
G1X5.3232Y1.6481Z-0.0716
G1X5.3250Y1.6537Z-0.0763
G1X5.3270Y1.6586Z-0.0817
G1X5.3329Y1.6689Z-0.1000
G1X5.3428Y1.6720
G1X5.3445Y1.6722
G1X5.3543Y1.6714
G1X5.3585Y1.6703
G1X5.3756Y1.6622
G1X5.3836Y1.6570
G1X5.3905Y1.6516
G1X5.3967Y1.6455
G1X5.4025Y1.6384
G1X5.4101Y1.6248
G1X5.4145Y1.6098
G1X5.4149Y1.6055
G1X5.4103Y1.5934Z-0.0797
G1X5.4064Y1.5829Z-0.0674
G1X5.4039Y1.5761Z-0.0620
G1X5.4013Y1.5678Z-0.0581
G1X5.3989Y1.5598Z-0.0572
G1X5.3970Y1.5518Z-0.0578
G1X5.3953Y1.5434Z-0.0601
G1X5.3926Y1.5273Z-0.0685
G1X5.3907Y1.5091Z-0.0809
G1X5.3902Y1.4985Z-0.0881
G1X5.3901Y1.4891Z-0.0932
G1X5.3905Y1.4803Z-0.0962
G1X5.3918Y1.4661Z-0.0985
G1X5.3925Y1.4536Z-0.0994
G1X5.3924Y1.4431Z-0.0989
G1X5.3914Y1.4340Z-0.0967
G1X5.3899Y1.4279Z-0.0931
G1X5.3866Y1.4199Z-0.0845
G1X5.3842Y1.4142Z-0.0800
G1X5.3831Y1.4108Z-0.0794
G1X5.3825Y1.4083Z-0.0797
G1X5.3815Y1.4034Z-0.0827
G1X5.3802Y1.3960Z-0.0899
G1X5.3781Y1.3878Z-0.1000
G1X5.3704Y1.3796
G1X5.3602Y1.3733
G1X5.3485Y1.3698
G1X5.3363Y1.3693
G1X5.3241Y1.3714
G1X5.3129Y1.3769
G1X5.3054Y1.3833Z-0.0995
G1X5.3015Y1.3876Z-0.1000
G1X5.2971Y1.3941
G1X5.2932Y1.4036
G1X5.2909Y1.4133
G1X5.2893Y1.4301
G1X5.2900Y1.4621
G0Z0.2000
G0X5.3807Y1.3731
G1Z-0.1000F30.0
G1X5.3781Y1.3878F100.0
G1X5.3810Y1.3999Z-0.0858
G1X5.3820Y1.4057Z-0.0809
G1X5.3825Y1.4083Z-0.0797
G1X5.3831Y1.4108Z-0.0794
G1X5.3842Y1.4142Z-0.0800
G1X5.3866Y1.4199Z-0.0845
G1X5.3899Y1.4279Z-0.0931
G1X5.3914Y1.4340Z-0.0967
G1X5.3924Y1.4431Z-0.0989
G1X5.3924Y1.4556Z-0.0991
G1X5.3918Y1.4661Z-0.0985
G1X5.3905Y1.4806Z-0.0961
G1X5.3901Y1.4891Z-0.0932
G1X5.3902Y1.4985Z-0.0881
G1X5.3910Y1.5124Z-0.0785
G1X5.3929Y1.5291Z-0.0674
G1X5.3958Y1.5458Z-0.0592
G1X5.3973Y1.5532Z-0.0576
G1X5.3993Y1.5613Z-0.0572
G1X5.4021Y1.5703Z-0.0589
G1X5.4046Y1.5780Z-0.0633
G1X5.4070Y1.5847Z-0.0692
G1X5.4106Y1.5941Z-0.0806
G1X5.4149Y1.6055Z-0.1000
G1X5.4246Y1.6128
G1X5.4347Y1.6186
G1X5.4458Y1.6236
G1X5.4579Y1.6278
G1X5.4873Y1.6346
G1X5.5075Y1.6379
G1X5.5180Y1.6388
G1X5.5310Y1.6393Z-0.0986
G1X5.5442Y1.6392Z-0.0997
G1X5.5541Y1.6382Z-0.1000
G1X5.5665Y1.6354
G1X5.5788Y1.6304
G1X5.5906Y1.6225
G1X5.5999Y1.6118
G1X5.6042Y1.6041
G1X5.6070Y1.5967
G1X5.6089Y1.5889
G1X5.6098Y1.5802
G1X5.6094Y1.5744
G1X5.6065Y1.5670Z-0.0907
G1X5.6052Y1.5630Z-0.0877
G1X5.6027Y1.5559Z-0.0847
G1X5.6006Y1.5483Z-0.0835
G1X5.5979Y1.5356Z-0.0843
G1X5.5957Y1.5213Z-0.0824
G1X5.5939Y1.5059Z-0.0781
G1X5.5924Y1.4893Z-0.0714
G1X5.5909Y1.4700Z-0.0625
G1X5.5885Y1.4331Z-0.0491
G1X5.5874Y1.4150Z-0.0466
G1X5.5865Y1.4000Z-0.0479
G1X5.5860Y1.3954Z-0.0491
G1X5.5852Y1.3818Z-0.0552
G1X5.5837Y1.3633Z-0.0707
G1X5.5824Y1.3482Z-0.0904
G1X5.5819Y1.3422Z-0.1000
G1X5.5764Y1.3340
G1X5.5696Y1.3256
G1X5.5618Y1.3177
G1X5.5531Y1.3104
G1X5.5434Y1.3037
G1X5.5329Y1.2977
G1X5.5214Y1.2923
G1X5.5040Y1.2861
G1X5.4961Y1.2858Z-0.0941
G1X5.4851Y1.2863Z-0.0882
G1X5.4743Y1.2877Z-0.0842
G1X5.4638Y1.2898Z-0.0824
G1X5.4533Y1.2929Z-0.0823
G1X5.4428Y1.2968Z-0.0843
G1X5.4323Y1.3016Z-0.0880
G1X5.4218Y1.3074Z-0.0939
G1X5.4134Y1.3127Z-0.1000
G1X5.4041Y1.3231
G1X5.3966Y1.3339
G1X5.3901Y1.3459
G1X5.3848Y1.3590
G1X5.3807Y1.3731
G0Z0.2000
G0X5.5939Y1.3188
G1Z-0.1000F30.0
G1X5.5863Y1.3317F100.0
G1X5.5819Y1.3422
G1X5.5831Y1.3549Z-0.0812
G1X5.5839Y1.3655Z-0.0686
G1X5.5852Y1.3818Z-0.0552
G1X5.5861Y1.3966Z-0.0487
G1X5.5866Y1.4012Z-0.0476
G1X5.5877Y1.4188Z-0.0468
G1X5.5887Y1.4365Z-0.0500
G1X5.5909Y1.4707Z-0.0628
G1X5.5924Y1.4893Z-0.0714
G1X5.5940Y1.5068Z-0.0784
G1X5.5957Y1.5213Z-0.0824
G1X5.5979Y1.5356Z-0.0843
G1X5.6012Y1.5508Z-0.0837
G1X5.6038Y1.5593Z-0.0858
G1X5.6055Y1.5639Z-0.0882
G1X5.6073Y1.5691Z-0.0932
G1X5.6094Y1.5744Z-0.1000
G1X5.6184Y1.5813
G1X5.6274Y1.5850
G1X5.6352Y1.5864
G1X5.6409Y1.5837Z-0.0909
G1X5.6463Y1.5813Z-0.0852
G1X5.6485Y1.5804Z-0.0837
G1X5.6518Y1.5789Z-0.0830
G1X5.6596Y1.5755Z-0.0839
G1X5.6660Y1.5722Z-0.0859
G1X5.6791Y1.5652Z-0.0885
G1X5.6949Y1.5560Z-0.0896
G1X5.7043Y1.5500Z-0.0904
G1X5.7126Y1.5444Z-0.0904
G1X5.7294Y1.5317Z-0.0917
G1X5.7377Y1.5244Z-0.0929
G1X5.7460Y1.5167Z-0.0955
G1X5.7554Y1.5070Z-0.1000
G1X5.7604Y1.4998
G1X5.7664Y1.4894
G1X5.7715Y1.4783
G1X5.7757Y1.4663
G1X5.7798Y1.4473
G1X5.7768Y1.4384Z-0.0836
G1X5.7756Y1.4331Z-0.0773
G1X5.7753Y1.4302Z-0.0750
G1X5.7754Y1.4232Z-0.0724
G1X5.7762Y1.4013Z-0.0711
G1X5.7775Y1.3786Z-0.0724
G1X5.7792Y1.3564Z-0.0759
G1X5.7815Y1.3348Z-0.0809
G1X5.7826Y1.3272Z-0.0834
G1X5.7859Y1.3151Z-0.0814
G1X5.7875Y1.3070Z-0.0836
G1X5.7883Y1.3012Z-0.0868
G1X5.7887Y1.2926Z-0.0947
G1X5.7886Y1.2885Z-0.1000
G1X5.7850Y1.2821
G1X5.7807Y1.2767
G1X5.7724Y1.2704
G1X5.7633Y1.2664
G1X5.7539Y1.2640
G1X5.7439Y1.2629
G1X5.7330Y1.2627
G1X5.7043Y1.2645
G1X5.6762Y1.2689
G1X5.6627Y1.2723
G1X5.6495Y1.2766
G1X5.6368Y1.2822
G1X5.6247Y1.2891
G1X5.6134Y1.2974
G1X5.6030Y1.3073
G1X5.5939Y1.3188
G0Z0.2000
G0X5.7940Y1.2730
G1Z-0.1000F30.0
G1X5.7886Y1.2885F100.0
G1X5.7887Y1.2941Z-0.0929
G1X5.7883Y1.3012Z-0.0868
G1X5.7875Y1.3070Z-0.0836
G1X5.7858Y1.3154Z-0.0814
G1X5.7825Y1.3275Z-0.0833
G1X5.7814Y1.3359Z-0.0806
G1X5.7787Y1.3612Z-0.0752
G1X5.7774Y1.3795Z-0.0723
G1X5.7762Y1.4021Z-0.0711
G1X5.7753Y1.4246Z-0.0726
G1X5.7753Y1.4302Z-0.0750
G1X5.7756Y1.4331Z-0.0773
G1X5.7768Y1.4384Z-0.0836
G1X5.7798Y1.4473Z-0.1000
G2X5.8138Y1.4439I0.0149J-0.0223
G1X5.8297Y1.4278
G1X5.8449Y1.4112
G1X5.8590Y1.3942
G1X5.8721Y1.3770
G1X5.8841Y1.3594
G1X5.8951Y1.3414
G1X5.9051Y1.3230
G1X5.9140Y1.3042
G1X5.9219Y1.2850
G1X5.9287Y1.2652
G1X5.9346Y1.2450
G1X5.9394Y1.2243
G1X5.9433Y1.2030
G1X5.9462Y1.1812
G1X5.9482Y1.1588
G1X5.9493Y1.1363
G2X5.9037Y1.1160I-0.0268J-0.0013
G1X5.8878Y1.1316
G1X5.8725Y1.1479
G1X5.8582Y1.1644
G1X5.8450Y1.1814
G1X5.8327Y1.1987
G1X5.8214Y1.2165
G1X5.8112Y1.2348
G1X5.8021Y1.2536
G1X5.7940Y1.2730
G0Z0.2000
G0X5.8909Y1.4063
G1Z-0.1000F30.0
G1X5.8850Y1.4054F100.0
G1X5.8756Y1.4062
G1X5.8627Y1.4100
G1X5.8502Y1.4162
G1X5.8404Y1.4237
G1X5.7724Y1.4914
G1X5.7554Y1.5070
G1X5.7446Y1.5180Z-0.0950
G1X5.7365Y1.5255Z-0.0927
G1X5.7279Y1.5329Z-0.0917
G1X5.7111Y1.5454Z-0.0903
G1X5.7043Y1.5500Z-0.0904
G1X5.6919Y1.5579Z-0.0896
G1X5.6791Y1.5652Z-0.0885
G1X5.6660Y1.5722Z-0.0859
G1X5.6575Y1.5765Z-0.0835
G1X5.6513Y1.5792Z-0.0830
G1X5.6485Y1.5804Z-0.0837
G1X5.6457Y1.5816Z-0.0856
G1X5.6405Y1.5839Z-0.0914
G1X5.6352Y1.5864Z-0.1000
G1X5.6297Y1.5950
G1X5.6229Y1.6087
G2X5.6329Y1.6434I0.0240J0.0119
G1X5.6523Y1.6492Z-0.0835
G1X5.6612Y1.6511Z-0.0785
G1X5.6867Y1.6551Z-0.0720
G1X5.6993Y1.6566Z-0.0708
G1X5.7117Y1.6578Z-0.0708
G1X5.7293Y1.6589Z-0.0730
G1X5.7349Y1.6588Z-0.0729
G1X5.7477Y1.6568Z-0.0688
G1X5.7595Y1.6542Z-0.0645
G1X5.7732Y1.6507Z-0.0616
G1X5.7852Y1.6479Z-0.0630
G1X5.7934Y1.6464Z-0.0671
G1X5.8026Y1.6454Z-0.0758
G1X5.8131Y1.6453Z-0.0912
G1X5.8180Y1.6456Z-0.1000
G1X5.8363Y1.6351
G1X5.8548Y1.6213
G1X5.8714Y1.6052
G1X5.8860Y1.5869
G1X5.8975Y1.5681
G1X5.9017Y1.5541Z-0.0909
G1X5.9049Y1.5424Z-0.0850
G1X5.9079Y1.5307Z-0.0810
G1X5.9107Y1.5175Z-0.0782
G1X5.9131Y1.5065Z-0.0775
G1X5.9153Y1.4940Z-0.0781
G1X5.9173Y1.4812Z-0.0800
G1X5.9195Y1.4635Z-0.0847
G1X5.9205Y1.4554Z-0.0877
G1X5.9208Y1.4499Z-0.0910
G1X5.9204Y1.4405Z-0.1000
G1X5.9150Y1.4254
G1X5.9099Y1.4176
G1X5.9052Y1.4132
G1X5.8909Y1.4063
G0Z0.2000
G0X5.8332Y1.6648
G1Z-0.1000F30.0
G1X5.8271Y1.6540F100.0
G1X5.8180Y1.6456
G1X5.8081Y1.6452Z-0.0833
G1X5.8020Y1.6455Z-0.0751
G1X5.7934Y1.6464Z-0.0671
G1X5.7852Y1.6479Z-0.0630
G1X5.7732Y1.6507Z-0.0616
G1X5.7581Y1.6545Z-0.0649
G1X5.7467Y1.6571Z-0.0693
G1X5.7349Y1.6588Z-0.0729
G1X5.7293Y1.6589Z-0.0730
G1X5.7117Y1.6578Z-0.0708
G1X5.6983Y1.6565Z-0.0709
G1X5.6852Y1.6549Z-0.0723
G1X5.6612Y1.6511Z-0.0785
G1X5.6523Y1.6492Z-0.0835
G1X5.6329Y1.6434Z-0.1000
G1X5.6062Y1.6416
G1X5.5442Y1.6392Z-0.0997
G1X5.5285Y1.6392Z-0.0987
G1X5.5180Y1.6388Z-0.1000
G1X5.4803Y1.6383
G1X5.4680Y1.6394
G1X5.4548Y1.6425
G1X5.4419Y1.6469
G1X5.4294Y1.6526
G1X5.4176Y1.6594
G1X5.4066Y1.6678
G1X5.3975Y1.6779
G1X5.3929Y1.6863
G1X5.3905Y1.6947
G1X5.3897Y1.7047
G1X5.3907Y1.7143
G1X5.3929Y1.7210
G1X5.3996Y1.7276Z-0.0885
G1X5.4061Y1.7330Z-0.0811
G1X5.4124Y1.7373Z-0.0764
G1X5.4219Y1.7425Z-0.0729
G1X5.4263Y1.7446Z-0.0717
G1X5.4370Y1.7489Z-0.0713
G1X5.4516Y1.7536Z-0.0727
G1X5.4672Y1.7578Z-0.0741
G1X5.4826Y1.7617Z-0.0763
G1X5.5138Y1.7687Z-0.0772
G1X5.5455Y1.7750Z-0.0755
G1X5.5777Y1.7808Z-0.0720
G1X5.6434Y1.7918Z-0.0625
G1X5.6518Y1.7915Z-0.0644
G1X5.6604Y1.7911Z-0.0677
G1X5.6660Y1.7912Z-0.0712
G1X5.6722Y1.7919Z-0.0770
G1X5.6780Y1.7929Z-0.0839
G1X5.6882Y1.7959Z-0.1000
G1X5.7139Y1.7916
G1X5.7341Y1.7861
G1X5.7675Y1.7741
G1X5.7850Y1.7662
G1X5.8015Y1.7563
G1X5.8100Y1.7497
G1X5.8176Y1.7425
G1X5.8246Y1.7341
G1X5.8305Y1.7245
G1X5.8349Y1.7137
G1X5.8375Y1.7019
G1X5.8381Y1.6895
G1X5.8367Y1.6764
G1X5.8332Y1.6648
G0Z0.2000
G0X5.7003Y1.8211
G1Z-0.1000F30.0
G1X5.6980Y1.8125F100.0
G1X5.6948Y1.8050
G1X5.6902Y1.7979
G1X5.6882Y1.7959
G1X5.6780Y1.7929Z-0.0839
G1X5.6712Y1.7917Z-0.0759
G1X5.6660Y1.7912Z-0.0712
G1X5.6573Y1.7911Z-0.0662
G1X5.6466Y1.7919Z-0.0631
G1X5.6413Y1.7915Z-0.0626
G1X5.5777Y1.7808Z-0.0720
G1X5.5455Y1.7750Z-0.0755
G1X5.5138Y1.7687Z-0.0772
G1X5.4826Y1.7617Z-0.0763
G1X5.4667Y1.7577Z-0.0740
G1X5.4466Y1.7521Z-0.0719
G1X5.4353Y1.7483Z-0.0712
G1X5.4235Y1.7433Z-0.0723
G1X5.4124Y1.7373Z-0.0764
G1X5.4061Y1.7330Z-0.0811
G1X5.3996Y1.7276Z-0.0885
G1X5.3929Y1.7210Z-0.1000
G1X5.3842Y1.7171
G1X5.3725Y1.7137
G1X5.3609Y1.7121
G1X5.3495Y1.7123
G1X5.3387Y1.7143
G1X5.3287Y1.7179
G1X5.3219Y1.7216
G1X5.3191Y1.7245Z-0.0960
G1X5.3132Y1.7308Z-0.0897
G1X5.3066Y1.7382Z-0.0866
G1X5.3009Y1.7442Z-0.0862
G1X5.2948Y1.7511Z-0.0882
G1X5.2902Y1.7558Z-0.0914
G1X5.2828Y1.7637Z-0.0989
G1X5.2819Y1.7645Z-0.1000
G1X5.2695Y1.7848
G1X5.2662Y1.7945
G1X5.2651Y1.8052
G1X5.2673Y1.8165
G1X5.2751Y1.8226Z-0.0832
G1X5.2788Y1.8253Z-0.0778
G1X5.2851Y1.8296Z-0.0722
G1X5.2920Y1.8336Z-0.0689
G1X5.2959Y1.8356Z-0.0684
G1X5.3167Y1.8449Z-0.0713
G1X5.3206Y1.8465Z-0.0719
G1X5.3261Y1.8490Z-0.0720
G1X5.3580Y1.8647Z-0.0669
G1X5.3906Y1.8796Z-0.0645
G1X5.4072Y1.8866Z-0.0646
G1X5.4238Y1.8932Z-0.0659
G1X5.4407Y1.8995Z-0.0686
G1X5.4577Y1.9054Z-0.0730
G1X5.4751Y1.9110Z-0.0794
G1X5.4928Y1.9161Z-0.0878
G1X5.5111Y1.9209Z-0.0989
G1X5.5123Y1.9212Z-0.1000
G1X5.5291Y1.9218
G1X5.5481Y1.9212
G1X5.5675Y1.9192
G1X5.5870Y1.9158
G1X5.6069Y1.9108
G1X5.6201Y1.9061
G1X5.6329Y1.8999
G1X5.6446Y1.8928
G1X5.6737Y1.8712
G1X5.6905Y1.8589
G2X5.7014Y1.8351I-0.0158J-0.0217
G1X5.7003Y1.8211
G0Z0.2000
G0X5.9447Y2.2922
G1Z-0.1000F30.0
G1X5.9499Y2.3005F100.0
G1X5.9565Y2.3083
G1X5.9645Y2.3152
G1X5.9741Y2.3207
G1X5.9847Y2.3244
G1X5.9965Y2.3264
G1X6.0084Y2.3260
G1X6.0199Y2.3227
G1X6.0298Y2.3169
G1X6.0376Y2.3096
G1X6.0438Y2.3013
G1X6.0509Y2.2866
G1X6.0593Y2.2581
G1X6.0624Y2.2470
G1X6.0658Y2.2384
G1X6.0778Y2.2156
G1X6.0908Y2.1931
G1X6.1046Y2.1717
G1X6.1191Y2.1513
G1X6.1343Y2.1319
G1X6.1504Y2.1135
G1X6.1672Y2.0960
G1X6.1849Y2.0793
G1X6.2034Y2.0634
G1X6.2228Y2.0483
G1X6.2432Y2.0340
G1X6.2645Y2.0203
G1X6.2867Y2.0073
G1X6.3100Y1.9949
G1X6.3343Y1.9832
G1X6.3732Y1.9659
G1X6.3987Y1.9519
G1X6.4217Y1.9358
G1X6.4423Y1.9178
G1X6.4604Y1.8980
G1X6.4689Y1.8874
G1X6.4834Y1.8658
G1X6.4961Y1.8427
G1X6.5068Y1.8187
G1X6.5158Y1.7939
G1X6.5231Y1.7684
G1X6.5289Y1.7424
G1X6.5335Y1.7159
G1X6.5369Y1.6893
G1X6.5393Y1.6624
G1X6.5415Y1.6087
G1X6.5414Y1.5855
G1X6.5400Y1.5626
G1X6.5375Y1.5402
G1X6.5336Y1.5183
G1X6.5284Y1.4970
G1X6.5218Y1.4763
G1X6.5138Y1.4562
G1X6.5043Y1.4368
G1X6.4934Y1.4182
G1X6.4810Y1.4004
G1X6.4670Y1.3835
G1X6.4516Y1.3675
G1X6.4346Y1.3524
G1X6.4162Y1.3384
G1X6.3962Y1.3254
G1X6.3743Y1.3132
G1X6.3605Y1.3074
G1X6.3457Y1.3041
G1X6.3306Y1.3042
G1X6.3157Y1.3084
G1X6.3025Y1.3167
G1X6.2924Y1.3284
G1X6.2858Y1.3423
G1X6.2828Y1.3558
G1X6.2767Y1.3944
G1X6.2685Y1.4308
G1X6.2584Y1.4662
G1X6.2464Y1.5007
G1X6.2327Y1.5345
G1X6.2175Y1.5676
G1X6.2009Y1.6002
G1X6.1830Y1.6324
G1X6.1641Y1.6642
G1X6.1444Y1.6956
G1X6.1028Y1.7583
G1X6.0168Y1.8837
G1X5.9967Y1.9166
G1X5.9792Y1.9505
G1X5.9645Y1.9854
G1X5.9524Y2.0212
G1X5.9429Y2.0577
G1X5.9361Y2.0950
G1X5.9319Y2.1329
G1X5.9293Y2.1867
G1X5.9312Y2.2327
G1X5.9327Y2.2495
G1X5.9355Y2.2666
G1X5.9406Y2.2832
G1X5.9447Y2.2922
G0Z0.2000
G0X6.3903Y2.0617
G1Z-0.1000F30.0
G1X6.3833Y2.0762F100.0
G1X6.3770Y2.0912
G1X6.3664Y2.1224
G1X6.3585Y2.1549
G1X6.3532Y2.1883
G1X6.3505Y2.2226
G1X6.3503Y2.2565
G1X6.3526Y2.2910
G1X6.3574Y2.3248
G1X6.3647Y2.3578
G1X6.3745Y2.3897
G1X6.3869Y2.4201
G1X6.3941Y2.4346
G1X6.4019Y2.4487
G1X6.4104Y2.4621
G1X6.4197Y2.4749
G1X6.4296Y2.4871
G1X6.4406Y2.4988
G1X6.4466Y2.5040
G1X6.4539Y2.5088
G1X6.4667Y2.5146
G1X6.4799Y2.5182
G1X6.4899Y2.5198
G1X6.4986Y2.5187Z-0.0930
G1X6.5113Y2.5178Z-0.0865
G1X6.5224Y2.5175Z-0.0836
G1X6.5339Y2.5175Z-0.0836
G1X6.5467Y2.5182Z-0.0858
G1X6.5605Y2.5194Z-0.0903
G1X6.5755Y2.5212Z-0.0978
G1X6.5788Y2.5217Z-0.1000
G1X6.6052Y2.5208
G1X6.6411Y2.5179
G1X6.6745Y2.5129
G1X6.6900Y2.5095
G1X6.7048Y2.5054
G1X6.7191Y2.5007
G1X6.7327Y2.4951
G1X6.7456Y2.4888
G1X6.7579Y2.4816
G1X6.7696Y2.4736
G1X6.7806Y2.4647
G1X6.7909Y2.4549
G1X6.8005Y2.4443
G1X6.8095Y2.4329
G1X6.8178Y2.4206
G1X6.8255Y2.4076
G1X6.8326Y2.3938
G1X6.8456Y2.3634
G1X6.8569Y2.3301
G1X6.8671Y2.2927
G1X6.8765Y2.2513
G1X6.8855Y2.2056
G1X6.9008Y2.1215
G1X6.9090Y2.0804
G1X6.9184Y2.0399
G1X6.9295Y2.0009
G1X6.9432Y1.9629
G1X6.9512Y1.9444
G1X6.9600Y1.9262
G1X6.9698Y1.9083
G1X6.9870Y1.8794
G1X6.9919Y1.8671
G1X6.9946Y1.8535
G1X6.9936Y1.8395
G1X6.9902Y1.8302
G1X6.9853Y1.8224
G1X6.9785Y1.8159
G1X6.9705Y1.8111
G1X6.9622Y1.8082
G1X6.9538Y1.8068
G1X6.9453Y1.8066
G1X6.9372Y1.8073
G1X6.8689Y1.8174
G1X6.8012Y1.8284
G1X6.7672Y1.8348
G1X6.7335Y1.8421
G1X6.6999Y1.8504
G1X6.6667Y1.8601
G1X6.6339Y1.8712
G1X6.6016Y1.8841
G1X6.5699Y1.8989
G1X6.5393Y1.9158
G1X6.5091Y1.9353
G1X6.4801Y1.9572
G1X6.4523Y1.9819
G1X6.4257Y2.0096
G1X6.4158Y2.0215
G1X6.4066Y2.0343
G1X6.3981Y2.0477
G1X6.3903Y2.0617
G0Z0.2000
G0X6.6085Y1.6290
G1Z-0.1000F30.0
G1X6.6020Y1.6353F100.0
G1X6.5960Y1.6425
G1X6.5877Y1.6564
G1X6.5820Y1.6713
G1X6.5786Y1.6861
G1X6.5768Y1.7007
G1X6.5746Y1.7519
G1X6.5735Y1.7621
G1X6.5717Y1.7710
G1X6.5691Y1.7783
G1X6.5634Y1.7884
G1X6.5598Y1.7985
G1X6.5597Y1.7996
G2X6.5624Y1.8158I0.0265J0.0039
G1X6.5628Y1.8167
G2X6.5782Y1.8297I0.0238J-0.0124
G1X6.5851Y1.8321
G1X6.5973Y1.8323
G1X6.6264Y1.8298
G1X6.7489Y1.8151
G1X6.8193Y1.8044
G1X6.8894Y1.7912
G1X6.9241Y1.7836
G1X6.9587Y1.7752
G1X6.9932Y1.7660
G1X7.0274Y1.7558
G1X7.0616Y1.7448
G1X7.0955Y1.7327
G1X7.1292Y1.7196
G1X7.1628Y1.7053
G1X7.1962Y1.6899
G1X7.2295Y1.6732
G1X7.2539Y1.6587
G1X7.2649Y1.6509
G1X7.2751Y1.6426
G1X7.2845Y1.6335
G1X7.2929Y1.6237
G1X7.3003Y1.6131
G1X7.3067Y1.6017
G1X7.3120Y1.5896
G1X7.3161Y1.5767
G1X7.3193Y1.5633
G1X7.3215Y1.5491
G1X7.3229Y1.5341
G1X7.3235Y1.5180
G1X7.3226Y1.4831
G1X7.3197Y1.4627
G1X7.3153Y1.4419
G1X7.3118Y1.4296
G1X7.2927Y1.3805
G1X7.2841Y1.3611
G1X7.2740Y1.3422
G1X7.2611Y1.3236
G1X7.2536Y1.3150
G1X7.2452Y1.3070
G1X7.2357Y1.2998
G1X7.2251Y1.2936
G1X7.2136Y1.2888
G1X7.2005Y1.2852
G1X7.1876Y1.2841
G1X7.1750Y1.2857
G1X7.1634Y1.2898
G1X7.1533Y1.2959
G1X7.1451Y1.3031
G1X7.1379Y1.3114
G1X7.1278Y1.3271
G1X7.1060Y1.3718
G1X7.1001Y1.3809
G1X7.0790Y1.4060
G1X7.0568Y1.4292
G1X7.0336Y1.4505
G1X7.0095Y1.4701
G1X6.9845Y1.4879
G1X6.9587Y1.5042
G1X6.9321Y1.5191
G1X6.9047Y1.5326
G1X6.8766Y1.5448
G1X6.8478Y1.5559
G1X6.8183Y1.5660
G1X6.7882Y1.5751
G1X6.7576Y1.5834
G1X6.7266Y1.5909
G1X6.6520Y1.6068
G1X6.6419Y1.6100
G1X6.6325Y1.6137
G1X6.6238Y1.6182
G1X6.6158Y1.6233
G1X6.6085Y1.6290
G0Z0.2000
G0X6.9866Y2.0081
G1Z-0.1000F30.0
G1X6.9739Y2.0166F100.0
G1X6.9623Y2.0257
G1X6.9517Y2.0357
G1X6.9432Y2.0461
G1X6.9363Y2.0583
G1X6.9311Y2.0707
G1X6.9272Y2.0836
G1X6.9223Y2.1078
G1X6.9151Y2.1649
G1X6.9102Y2.1983
G1X6.9041Y2.2312
G1X6.8968Y2.2637
G1X6.8880Y2.2957
G1X6.8775Y2.3271
G1X6.8652Y2.3580
G1X6.8470Y2.3974
G1X6.8442Y2.4064
G1X6.8411Y2.4221
G1X6.8371Y2.4500
G2X6.8728Y2.4791I0.0265J0.0040
G1X6.8994Y2.4698
G1X6.9141Y2.4639
G1X6.9222Y2.4597
G1X6.9302Y2.4548
G1X6.9482Y2.4405
G1X6.9640Y2.4247
G1X6.9777Y2.4079
G1X6.9898Y2.3904
G1X7.0005Y2.3727
G1X7.0283Y2.3200
G1X7.0480Y2.2848
G1X7.0690Y2.2517
G1X7.0910Y2.2212
G1X7.1144Y2.1927
G1X7.1391Y2.1663
G1X7.1651Y2.1421
G1X7.1926Y2.1200
G1X7.2215Y2.1000
G1X7.2519Y2.0822
G1X7.2838Y2.0665
G1X7.3173Y2.0530
G1X7.3525Y2.0417
G1X7.3895Y2.0325
G1X7.4282Y2.0256
G1X7.4687Y2.0209
G1X7.5114Y2.0185
G2X7.5215Y1.9674I-0.0011J-0.0268
G1X7.5084Y1.9614
G1X7.4933Y1.9557
G1X7.4774Y1.9508
G1X7.4608Y1.9465
G1X7.4250Y1.9400
G1X7.3873Y1.9358
G1X7.3474Y1.9338
G1X7.3061Y1.9339
G1X7.2641Y1.9360
G1X7.2219Y1.9400
G1X7.1803Y1.9457
G1X7.1397Y1.9533
G1X7.1008Y1.9625
G1X7.0645Y1.9733
G1X7.0306Y1.9859
G1X7.0150Y1.9928
G1X7.0004Y2.0002
G1X6.9866Y2.0081
G0Z0.2000
G0X7.3470Y1.6601
G1Z-0.1000F30.0
G1X7.3059Y1.6700F100.0
G1X7.2657Y1.6824
G1X7.2267Y1.6974
G1X7.2079Y1.7059
G1X7.1895Y1.7151
G1X7.1716Y1.7249
G1X7.1543Y1.7354
G1X7.1376Y1.7465
G1X7.1010Y1.7744
G1X7.0803Y1.7912
G1X7.0600Y1.8092
G1X7.0407Y1.8286
G1X7.0224Y1.8505
G1X7.0141Y1.8623
G1X7.0064Y1.8747
G1X6.9994Y1.8879
G1X6.9931Y1.9018
G1X6.9877Y1.9164
G1X6.9835Y1.9309
G2X7.0175Y1.9639I0.0257J0.0075
G1X7.0931Y1.9399
G1X7.1304Y1.9295
G1X7.1674Y1.9204
G1X7.2041Y1.9127
G1X7.2406Y1.9067
G1X7.2769Y1.9024
G1X7.3132Y1.9002
G1X7.3489Y1.9001
G1X7.3846Y1.9023
G1X7.4202Y1.9070
G1X7.4557Y1.9144
G1X7.4913Y1.9247
G1X7.5269Y1.9380
G1X7.5627Y1.9546
G1X7.5806Y1.9641
G1X7.6000Y1.9755
G1X7.6133Y1.9817
G1X7.6281Y1.9853
G1X7.6429Y1.9856
G1X7.6569Y1.9826
G1X7.6694Y1.9771
G1X7.6803Y1.9700
G1X7.6899Y1.9617
G1X7.6986Y1.9525
G1X7.7130Y1.9337
G1X7.7472Y1.8797
G1X7.7590Y1.8605
G1X7.7640Y1.8502
G1X7.7681Y1.8395
G1X7.7713Y1.8286
G1X7.7733Y1.8175
G1X7.7741Y1.8062
G1X7.7737Y1.7947
G1X7.7718Y1.7833
G1X7.7686Y1.7721
G1X7.7640Y1.7611
G1X7.7580Y1.7505
G1X7.7508Y1.7404
G1X7.7424Y1.7308
G1X7.7329Y1.7215
G1X7.7221Y1.7126
G1X7.7081Y1.7028
G1X7.6933Y1.6938
G1X7.6777Y1.6857
G1X7.6614Y1.6784
G1X7.6445Y1.6719
G1X7.6271Y1.6662
G1X7.6090Y1.6612
G1X7.5905Y1.6570
G1X7.5522Y1.6507
G1X7.5125Y1.6472
G1X7.4717Y1.6464
G1X7.4303Y1.6483
G1X7.3886Y1.6529
G1X7.3470Y1.6601
G0Z0.2000
G0X7.5510Y2.0362
G1Z-0.1000F30.0
G1X7.5302Y2.0339F100.0
G1X7.5090Y2.0327
G1X7.4865Y2.0327
G1X7.4516Y2.0368
G1X7.4186Y2.0427
G1X7.3867Y2.0504
G1X7.3558Y2.0599
G1X7.3261Y2.0713
G1X7.2975Y2.0844
G1X7.2699Y2.0992
G1X7.2435Y2.1157
G1X7.2183Y2.1339
G1X7.1941Y2.1537
G1X7.1710Y2.1750
G1X7.1490Y2.1979
G1X7.1281Y2.2222
G1X7.1083Y2.2480
G1X7.0895Y2.2751
G1X7.0528Y2.3352
G1X7.0333Y2.3652
G1X7.0127Y2.3939
G1X6.9907Y2.4212
G1X6.9674Y2.4464
G1X6.9422Y2.4700
G1X6.9150Y2.4915
G1X6.9006Y2.5015
G1X6.8834Y2.5123
G1X6.8730Y2.5210
G1X6.8632Y2.5330
G1X6.8560Y2.5463
G1X6.8531Y2.5573
G1X6.8538Y2.5690
G1X6.8614Y2.5871
G1X6.8687Y2.6014
G1X6.8773Y2.6150
G1X6.8872Y2.6278
G1X6.8984Y2.6396
G1X6.9111Y2.6503
G1X6.9252Y2.6596
G1X6.9410Y2.6676
G1X6.9544Y2.6722
G1X6.9693Y2.6732
G1X6.9832Y2.6703
G1X6.9949Y2.6646
G1X7.0043Y2.6574
G1X7.0122Y2.6491
G1X7.0219Y2.6349
G1X7.1196Y2.4646
G1X7.1521Y2.4089
G1X7.1801Y2.3652
G1X7.1943Y2.3451
G1X7.2088Y2.3262
G1X7.2234Y2.3085
G1X7.2382Y2.2919
G1X7.2532Y2.2764
G1X7.2684Y2.2621
G1X7.2838Y2.2488
G1X7.2994Y2.2367
G1X7.3152Y2.2257
G1X7.3312Y2.2157
G1X7.3475Y2.2069
G1X7.3641Y2.1990
G1X7.3809Y2.1922
G1X7.3980Y2.1864
G1X7.4155Y2.1816
G1X7.4332Y2.1778
G1X7.4514Y2.1750
G1X7.4700Y2.1732
G1X7.4889Y2.1724
G1X7.5084Y2.1727
G1X7.5282Y2.1739
G1X7.5486Y2.1762
G1X7.5694Y2.1794
G1X7.5907Y2.1838
G1X7.6125Y2.1891
G1X7.6348Y2.1955
G1X7.6577Y2.2030
G1X7.6810Y2.2115
G1X7.7297Y2.2319
G1X7.7491Y2.2392
G1X7.7680Y2.2440
G1X7.8037Y2.2513
G2X7.8359Y2.2271I0.0055J-0.0262
G1X7.8365Y2.2195
G1X7.8361Y2.2107
G1X7.8347Y2.2022
G1X7.8321Y2.1935
G1X7.8255Y2.1802
G1X7.8167Y2.1689
G1X7.8072Y2.1600
G1X7.7980Y2.1528
G1X7.7507Y2.1198
G1X7.7179Y2.0989
G1X7.6835Y2.0798
G1X7.6478Y2.0632
G1X7.6293Y2.0560
G1X7.6104Y2.0497
G1X7.5911Y2.0442
G1X7.5712Y2.0397
G1X7.5510Y2.0362
G0Z0.2000
G0X7.7887Y1.9169
G1Z-0.1000F30.0
G1X7.7758Y1.9165F100.0
G1X7.7635Y1.9177
G1X7.7518Y1.9202
G1X7.7409Y1.9240
G1X7.7309Y1.9288
G1X7.7218Y1.9345
G1X7.7131Y1.9411
G1X7.6994Y1.9544
G1X7.6876Y1.9688
G1X7.6694Y1.9959
G1X7.6646Y2.0052
G1X7.6616Y2.0164
G1X7.6617Y2.0283
G1X7.6651Y2.0393
G1X7.6707Y2.0483
G1X7.6778Y2.0557
G1X7.6903Y2.0642
G1X7.7035Y2.0702
G1X7.7328Y2.0807
G1X7.7512Y2.0900
G1X7.7676Y2.1002
G1X7.7821Y2.1113
G1X7.7950Y2.1232
G1X7.8065Y2.1360
G1X7.8168Y2.1497
G1X7.8261Y2.1643
G1X7.8346Y2.1799
G1X7.8424Y2.1963
G1X7.8496Y2.2134
G1X7.8632Y2.2505
G1X7.9036Y2.3672
G1X7.9158Y2.4036
G1X7.9389Y2.4772
G1X7.9611Y2.5558
G1X7.9674Y2.5776Z-0.0977
G1X7.9721Y2.5976Z-0.0992
G1X7.9729Y2.6013Z-0.1000
G1X7.9796Y2.6272
G1X7.9978Y2.7042
G1X8.0223Y2.8188
G1X8.0291Y2.8358Z-0.0880
G1X8.0345Y2.8512Z-0.0797
G1X8.0393Y2.8667Z-0.0734
G1X8.0436Y2.8824Z-0.0688
G1X8.0474Y2.8982Z-0.0662
G1X8.0507Y2.9143Z-0.0653
G1X8.0536Y2.9306Z-0.0661
G1X8.0561Y2.9462Z-0.0686
G1X8.0582Y2.9533Z-0.0745
G1X8.0599Y2.9571Z-0.0801
G1X8.0640Y2.9639Z-0.0939
G1X8.0657Y2.9662Z-0.1000
G2X8.0963Y2.9549I0.0079J-0.0256
G1X8.1376Y2.8901
G1X8.1569Y2.8580
G1X8.1658Y2.8415
G1X8.1738Y2.8248
G1X8.1807Y2.8078
G1X8.1863Y2.7904
G1X8.1903Y2.7726
G1X8.1925Y2.7543
G1X8.1924Y2.7356
G1X8.1898Y2.7166
G1X8.1845Y2.6975
G1X8.1770Y2.6797
G1X8.1652Y2.6545
G1X8.1562Y2.6307
G1X8.1492Y2.6068
G1X8.1439Y2.5827
G1X8.1402Y2.5583
G1X8.1377Y2.5337
G1X8.1363Y2.5087
G1X8.1357Y2.4837
G1X8.1374Y2.3802
G1X8.1373Y2.3271
G1X8.1360Y2.3002
G1X8.1336Y2.2733
G1X8.1284Y2.2324
G1X8.1220Y2.1948
G1X8.1142Y2.1602
G1X8.1047Y2.1287
G1X8.0932Y2.0992
G1X8.0796Y2.0724
G1X8.0720Y2.0599
G1X8.0637Y2.0480
G1X8.0547Y2.0366
G1X8.0452Y2.0259
G1X8.0349Y2.0158
G1X8.0241Y2.0062
G1X8.0126Y1.9973
G1X7.9877Y1.9810
G1X7.9603Y1.9666
G1X7.9455Y1.9600
G1X7.9143Y1.9482
G1X7.8801Y1.9375
G1X7.8429Y1.9278
G1X7.8017Y1.9187
G1X7.7887Y1.9169
G0Z0.2000
G0X7.8016Y2.2991
G1Z-0.1000F30.0
G1X7.7901Y2.2895F100.0
G1X7.7728Y2.2768
G1X7.7551Y2.2652
G1X7.7370Y2.2545
G1X7.7185Y2.2447
G1X7.6996Y2.2359
G1X7.6804Y2.2279
G1X7.6609Y2.2209
G1X7.6412Y2.2148
G1X7.6214Y2.2095
G1X7.6014Y2.2052
G1X7.5813Y2.2018
G1X7.5611Y2.1992
G1X7.5410Y2.1976
G1X7.5209Y2.1969
G1X7.5008Y2.1970
G1X7.4809Y2.1981
G1X7.4612Y2.2000
G1X7.4416Y2.2029
G1X7.4223Y2.2066
G1X7.4033Y2.2112
G1X7.3847Y2.2168
G1X7.3664Y2.2233
G1X7.3486Y2.2307
G1X7.3312Y2.2390
G1X7.3144Y2.2482
G1X7.2982Y2.2583
G1X7.2826Y2.2694
G1X7.2676Y2.2814
G1X7.2535Y2.2944
G1X7.2401Y2.3083
G1X7.2276Y2.3230
G1X7.2162Y2.3385
G1X7.1891Y2.3789
G1X7.1630Y2.4200
G1X7.1119Y2.5052
G1X7.0038Y2.6916
G2X7.0394Y2.7288I0.0232J0.0135
G1X7.0704Y2.7117
G1X7.0982Y2.6933
G1X7.1222Y2.6745
G1X7.1436Y2.6550
G1X7.1625Y2.6353
G1X7.1797Y2.6157
G1X7.2112Y2.5774
G1X7.2437Y2.5359
G1X7.2912Y2.4740
G1X7.3072Y2.4551
G1X7.3236Y2.4378
G1X7.3406Y2.4219
G1X7.3577Y2.4085
G1X7.3758Y2.3972
G1X7.3948Y2.3883
G1X7.4150Y2.3820
G1X7.4257Y2.3799
G1X7.4369Y2.3785
G1X7.4486Y2.3779
G1X7.4609Y2.3782
G1X7.4739Y2.3793
G1X7.4875Y2.3813
G1X7.5019Y2.3844
G1X7.5279Y2.3921
G1X7.5485Y2.4007
G1X7.5674Y2.4111
G1X7.5849Y2.4233
G1X7.6009Y2.4374
G1X7.6156Y2.4533
G1X7.6289Y2.4711
G1X7.6409Y2.4909
G1X7.6462Y2.5013
G1X7.6562Y2.5243
G1X7.6647Y2.5490
G1X7.6717Y2.5757
G1X7.6772Y2.6043
G1X7.6811Y2.6348
G1X7.6835Y2.6671
G1X7.6843Y2.7013
G1X7.6836Y2.7557
G1X7.6852Y2.7735
G1X7.6893Y2.8062
G2X7.7322Y2.8240I0.0266J-0.0033
G1X7.7600Y2.8028
G1X7.7744Y2.7906
G1X7.7886Y2.7756
G1X7.7998Y2.7616
G1X7.8102Y2.7470
G1X7.8199Y2.7321
G1X7.8288Y2.7167
G1X7.8446Y2.6848
G1X7.8575Y2.6519
G1X7.8677Y2.6182
G1X7.8750Y2.5840
G1X7.8796Y2.5497
G1X7.8814Y2.5156
G1X7.8804Y2.4821
G1X7.8765Y2.4493
G1X7.8698Y2.4177
G1X7.8654Y2.4024
G1X7.8601Y2.3876
G1X7.8542Y2.3732
G1X7.8474Y2.3592
G1X7.8399Y2.3459
G1X7.8315Y2.3331
G1X7.8224Y2.3210
G1X7.8124Y2.3096
G1X7.8016Y2.2991
G0Z0.2000
G0X7.8859Y2.5165
G1Z-0.1000F30.0
G1X7.8777Y2.5886F100.0
G1X7.8728Y2.6223
G1X7.8664Y2.6546
G1X7.8581Y2.6845
G1X7.8530Y2.6988
G1X7.8472Y2.7126
G1X7.8406Y2.7260
G1X7.8332Y2.7388
G1X7.8248Y2.7513
G1X7.8151Y2.7636
G1X7.7735Y2.8120
G1X7.6549Y2.9426
G2X7.6788Y2.9871I0.0198J0.0180
G1X7.6924Y2.9850
G1X7.6985Y2.9834Z-0.0977
G1X7.7175Y2.9776Z-0.0929
G1X7.7361Y2.9712Z-0.0908
G1X7.7546Y2.9641Z-0.0911
G1X7.7729Y2.9564Z-0.0939
G1X7.7937Y2.9469Z-0.1000
G1X7.8077Y2.9382
G1X7.8241Y2.9266
G1X7.8400Y2.9142
G1X7.8552Y2.9008
G1X7.8697Y2.8866
G1X7.8846Y2.8703
G1X7.8944Y2.8538Z-0.0887
G1X7.8976Y2.8482Z-0.0858
G1X7.9061Y2.8345Z-0.0809
G1X7.9156Y2.8197Z-0.0798
G1X7.9263Y2.8042Z-0.0842
G1X7.9313Y2.7975Z-0.0886
G1X7.9389Y2.7883Z-0.0976
G1X7.9405Y2.7865Z-0.1000
G1X7.9483Y2.7698
G1X7.9557Y2.7512
G1X7.9621Y2.7324
G1X7.9674Y2.7133
G1X7.9715Y2.6939
G1X7.9743Y2.6745
G1X7.9759Y2.6550
G1X7.9761Y2.6354
G1X7.9749Y2.6159
G1X7.9729Y2.6013
G1X7.9717Y2.5955Z-0.0989
G1X7.9671Y2.5764Z-0.0977
G1X7.9611Y2.5558Z-0.1000
G1X7.9547Y2.5399
G1X7.9455Y2.5218
G1X7.9353Y2.5053
G2X7.8859Y2.5165I-0.0227J0.0142
G0Z0.2000
G0X7.8031Y2.9433
G1Z-0.1000F30.0
G1X7.7937Y2.9469F100.0
G1X7.7715Y2.9571Z-0.0936
G1X7.7531Y2.9647Z-0.0910
G1X7.7346Y2.9717Z-0.0909
G1X7.7158Y2.9781Z-0.0933
G1X7.6966Y2.9839Z-0.0983
G1X7.6924Y2.9850Z-0.1000
G1X7.4473Y3.0764
G1X7.4373Y3.0827
G1X7.4206Y3.0991
G2X7.4207Y3.1378I0.0186J0.0193
G1X7.4380Y3.1537
G1X7.4474Y3.1592
G1X7.4628Y3.1653
G1X7.4773Y3.1700
G1X7.4921Y3.1737
G1X7.5070Y3.1766
G1X7.5220Y3.1785
G1X7.5371Y3.1796
G1X7.5523Y3.1799
G1X7.5825Y3.1781
G1X7.6125Y3.1732
G1X7.6419Y3.1655
G1X7.6705Y3.1551
G1X7.6980Y3.1421
G1X7.7240Y3.1267
G1X7.7485Y3.1090
G1X7.7527Y3.1054
G1X7.7636Y3.0941Z-0.0951
G1X7.7698Y3.0871Z-0.0919
G1X7.7794Y3.0757Z-0.0884
G1X7.7885Y3.0641Z-0.0858
G1X7.7971Y3.0522Z-0.0841
G1X7.8053Y3.0401Z-0.0836
G1X7.8129Y3.0276Z-0.0841
G1X7.8201Y3.0148Z-0.0860
G1X7.8267Y3.0016Z-0.0889
G1X7.8331Y2.9876Z-0.0938
G1X7.8390Y2.9728Z-0.1000
G2X7.8031Y2.9433I-0.0264J-0.0044
G0Z0.2000
G0X8.0659Y2.9806
G1Z-0.1000F30.0
G1X8.0657Y2.9662F100.0
G1X8.0632Y2.9627Z-0.0911
G1X8.0599Y2.9571Z-0.0801
G1X8.0582Y2.9533Z-0.0745
G1X8.0561Y2.9462Z-0.0686
G1X8.0535Y2.9296Z-0.0660
G1X8.0505Y2.9133Z-0.0653
G1X8.0471Y2.8972Z-0.0663
G1X8.0433Y2.8813Z-0.0691
G1X8.0390Y2.8655Z-0.0738
G1X8.0340Y2.8498Z-0.0804
G1X8.0284Y2.8342Z-0.0891
G1X8.0223Y2.8188Z-0.1000
G1X8.0129Y2.8060
G1X8.0015Y2.7927
G1X7.9923Y2.7848
G1X7.9800Y2.7791
G1X7.9668Y2.7775
G1X7.9546Y2.7796
G1X7.9443Y2.7840
G1X7.9405Y2.7865
G1X7.9355Y2.7921Z-0.0933
G1X7.9298Y2.7993Z-0.0872
G1X7.9242Y2.8071Z-0.0830
G1X7.9144Y2.8215Z-0.0797
G1X7.9042Y2.8375Z-0.0817
G1X7.8966Y2.8498Z-0.0865
G1X7.8904Y2.8605Z-0.0931
G1X7.8846Y2.8703Z-0.1000
G1X7.8755Y2.8939
G1X7.8617Y2.9261
G1X7.8470Y2.9571
G1X7.8390Y2.9728
G1X7.8323Y2.9896Z-0.0930
G1X7.8260Y3.0030Z-0.0885
G1X7.8188Y3.0172Z-0.0858
G1X7.8122Y3.0288Z-0.0840
G1X7.8046Y3.0412Z-0.0837
G1X7.7964Y3.0533Z-0.0842
G1X7.7877Y3.0652Z-0.0860
G1X7.7786Y3.0767Z-0.0887
G1X7.7690Y3.0880Z-0.0923
G1X7.7589Y3.0991Z-0.0969
G1X7.7527Y3.1054Z-0.1000
G1X7.7434Y3.1169
G1X7.7235Y3.1394
G1X7.7029Y3.1607
G1X7.6816Y3.1810
G1X7.6595Y3.2001
G1X7.6367Y3.2182
G1X7.6133Y3.2352
G1X7.5891Y3.2511
G1X7.5642Y3.2661
G1X7.5385Y3.2800
G1X7.5122Y3.2930
G1X7.4852Y3.3050
G1X7.4575Y3.3160
G1X7.4290Y3.3261
G1X7.3999Y3.3352
G1X7.3701Y3.3434
G1X7.3396Y3.3507
G1X7.3084Y3.3571
G1X7.2765Y3.3626
G1X7.2440Y3.3672
G1X7.2108Y3.3710
G1X7.1770Y3.3739
G1X7.1425Y3.3759
G1X7.1071Y3.3772
G2X7.0865Y3.4199I0.0009J0.0268
G1X7.0989Y3.4366
G1X7.1125Y3.4531
G1X7.1269Y3.4688
G1X7.1420Y3.4836
G1X7.1578Y3.4975
G1X7.1744Y3.5105
G1X7.1915Y3.5227
G1X7.2093Y3.5340
G1X7.2277Y3.5444
G1X7.2466Y3.5539
G1X7.2660Y3.5625
G1X7.2859Y3.5703
G1X7.3062Y3.5771
G1X7.3270Y3.5830
G1X7.3482Y3.5880
G1X7.3698Y3.5921
G1X7.3916Y3.5952
G1X7.4138Y3.5975
G1X7.4363Y3.5988
G1X7.4590Y3.5992
G1X7.4820Y3.5987
G1X7.5052Y3.5973
G1X7.5285Y3.5950
G1X7.5520Y3.5917
G1X7.5756Y3.5874
G1X7.5993Y3.5823
G1X7.6230Y3.5762
G1X7.6468Y3.5691
G1X7.6706Y3.5612
G1X7.6944Y3.5522
G1X7.7182Y3.5423
G1X7.7418Y3.5315
G1X7.7727Y3.5163
G1X7.8033Y3.5002
G1X7.8336Y3.4831
G1X7.8634Y3.4648
G1X7.8926Y3.4452
G1X7.9210Y3.4239
G1X7.9484Y3.4010
G1X7.9931Y3.3598
G1X8.0008Y3.3512
G1X8.0074Y3.3406
G1X8.0104Y3.3326
G1X8.0119Y3.3244
G1X8.0118Y3.3157
G1X8.0101Y3.3070
G1X8.0070Y3.2989
G1X8.0035Y3.2928
G1X7.9946Y3.2835
G1X7.9918Y3.2818
G1X7.9803Y3.2778
G1X7.9726Y3.2769
G1X7.9551Y3.2790
G1X7.9243Y3.2841
G1X7.9161Y3.2853
G1X7.9064Y3.2880
G1X7.8900Y3.2950Z-0.0996
G1X7.8658Y3.3070Z-0.0991
G1X7.8607Y3.3098Z-0.0966
G1X7.8563Y3.3118Z-0.0931
G1X7.8547Y3.3155Z-0.0796
G1X7.8563Y3.3118Z-0.0931
G1X7.8496Y3.3111Z-0.0715
G1X7.8563Y3.3118Z-0.0931
G1X7.8607Y3.3098Z-0.0966
G1X7.8658Y3.3070Z-0.0991
G1X7.8952Y3.2927Z-0.1000
G1X7.9175Y3.2814
G1X7.9317Y3.2718
G1X7.9449Y3.2614
G1X7.9574Y3.2502
G1X7.9693Y3.2381
G1X7.9805Y3.2253
G1X7.9910Y3.2118
G1X8.0009Y3.1976
G1X8.0101Y3.1829
G1X8.0186Y3.1676
G1X8.0265Y3.1519
G1X8.0402Y3.1193
G1X8.0510Y3.0855
G1X8.0590Y3.0508
G1X8.0640Y3.0157
G1X8.0653Y2.9982
G1X8.0659Y2.9806
G0Z0.2000
G0X7.5657Y3.1906
G1Z-0.1000F30.0
G1X7.5055Y3.1860F100.0
G1X7.4482Y3.1793
G1X7.3931Y3.1701
G1X7.3665Y3.1645
G1X7.3405Y3.1582
G1X7.3152Y3.1511
G1X7.2907Y3.1434
G1X7.2668Y3.1348
G1X7.2437Y3.1255
G1X7.2214Y3.1153
G1X7.1998Y3.1043
G1X7.1791Y3.0924
G1X7.1591Y3.0796
G1X7.1400Y3.0658
G1X7.1217Y3.0511
G1X7.1042Y3.0354
G1X7.0876Y3.0186
G1X7.0718Y3.0007
G1X7.0570Y2.9817
G1X7.0429Y2.9616
G1X7.0298Y2.9402
G1X7.0176Y2.9175
G1X7.0064Y2.8935
G1X6.9961Y2.8682
G1X6.9868Y2.8414
G1X6.9785Y2.8132
G1X6.9713Y2.7834
G1X6.9652Y2.7522
G1X6.9601Y2.7188
G2X6.9071Y2.7189I-0.0265J0.0040
G1X6.8998Y2.7680
G1X6.8907Y2.8153
G1X6.8802Y2.8617
G1X6.8685Y2.9074
G1X6.8320Y3.0427
G1X6.8207Y3.0883
G1X6.8189Y3.0985
G1X6.8180Y3.1091
G1X6.8180Y3.1196
G1X6.8189Y3.1299
G1X6.8208Y3.1401
G1X6.8235Y3.1506
G1X6.8307Y3.1694
G1X6.8406Y3.1877
G1X6.8527Y3.2050
G1X6.8666Y3.2215
G1X6.8821Y3.2370
G1X6.8991Y3.2517
G1X6.9172Y3.2655
G1X6.9362Y3.2784
G1X6.9561Y3.2903
G1X6.9766Y3.3012
G1X6.9975Y3.3110
G1X7.0186Y3.3197
G1X7.0399Y3.3273
G1X7.0715Y3.3362
G1X7.1041Y3.3430
G1X7.1377Y3.3479
G1X7.1720Y3.3508
G1X7.2068Y3.3517
G1X7.2421Y3.3507
G1X7.2775Y3.3478
G1X7.3130Y3.3431
G1X7.3484Y3.3364
G1X7.3835Y3.3280
G1X7.4182Y3.3177
G1X7.4522Y3.3056
G1X7.4855Y3.2918
G1X7.5178Y3.2761
G1X7.5490Y3.2586
G1X7.5782Y3.2398
G2X7.5657Y3.1906I-0.0145J-0.0225
G0Z0.2000
G0X7.2521Y2.8290
G1Z-0.1000F30.0
G1X7.3019Y2.8405F100.0
G1X7.3263Y2.8450
G1X7.3393Y2.8464
G1X7.3522Y2.8469
G1X7.3653Y2.8461
G1X7.3786Y2.8437
G1X7.3918Y2.8395
G1X7.4046Y2.8332
G1X7.4168Y2.8248
G1X7.4281Y2.8144
G1X7.4384Y2.8019
G1X7.4477Y2.7878
G1X7.4625Y2.7596
G1X7.4687Y2.7455
G1X7.4739Y2.7313
G1X7.4781Y2.7170
G1X7.4811Y2.7025
G1X7.4829Y2.6878
G1X7.4834Y2.6729
G1X7.4823Y2.6580
G1X7.4795Y2.6432
G1X7.4751Y2.6285
G1X7.4690Y2.6141
G1X7.4611Y2.6001
G1X7.4514Y2.5865
G1X7.4401Y2.5734
G1X7.4264Y2.5600
G1X7.4158Y2.5525
G1X7.3878Y2.5395
G2X7.3502Y2.5627I-0.0108J0.0245
G1X7.3496Y2.5750
G1X7.3517Y2.5847Z-0.0909
G1X7.3526Y2.5898Z-0.0874
G1X7.3547Y2.6011Z-0.0838
G1X7.3566Y2.6129Z-0.0842
G1X7.3580Y2.6244Z-0.0865
G1X7.3586Y2.6356Z-0.0898
G1X7.3586Y2.6540Z-0.0975
G1X7.3584Y2.6590Z-0.1000
G1X7.3588Y2.6747
G1X7.3579Y2.6874
G1X7.3560Y2.6981
G1X7.3531Y2.7074
G1X7.3492Y2.7156
G1X7.3441Y2.7232
G1X7.3373Y2.7306
G1X7.3286Y2.7381
G1X7.3176Y2.7457
G1X7.3042Y2.7535
G1X7.2882Y2.7614
G1X7.2482Y2.7779
G2X7.2521Y2.8290I0.0098J0.0249
G0Z0.2000
G0X7.3480Y2.4876
G1Z-0.1000F30.0
G1X7.3578Y2.4991F100.0
G1X7.3691Y2.5087
G1X7.3797Y2.5157
G1X7.4023Y2.5283
G1X7.4211Y2.5407
G1X7.4378Y2.5537
G1X7.4524Y2.5673
G1X7.4650Y2.5813
G1X7.4754Y2.5958
G1X7.4839Y2.6108
G1X7.4906Y2.6265
G1X7.4950Y2.6420
G1X7.4977Y2.6584
G1X7.4985Y2.6750
G1X7.4972Y2.6931
G1X7.4938Y2.7115
G1X7.4882Y2.7306
G1X7.4804Y2.7505
G1X7.4702Y2.7709
G1X7.4593Y2.7885
G1X7.4477Y2.8042
G1X7.4356Y2.8178
G1X7.4230Y2.8294
G1X7.4098Y2.8392
G1X7.3960Y2.8472
G1X7.3815Y2.8535
G1X7.3662Y2.8582
G1X7.3500Y2.8613
G1X7.3328Y2.8627
G1X7.3144Y2.8625
G1X7.2950Y2.8605
G1X7.2744Y2.8568
G1X7.2528Y2.8513
G1X7.2300Y2.8439
G1X7.2055Y2.8345
G2X7.1695Y2.8644I-0.0096J0.0250
G1X7.1708Y2.8690
G1X7.1736Y2.8744
G1X7.1812Y2.8858
G1X7.1871Y2.8966
G1X7.1970Y2.9197
G1X7.2142Y2.9701
G1X7.2196Y2.9830
G1X7.2259Y2.9957
G1X7.2337Y3.0080
G1X7.2434Y3.0196
G1X7.2553Y3.0299
G1X7.2694Y3.0384
G1X7.2854Y3.0446
G1X7.3026Y3.0482
G1X7.3241Y3.0508
G1X7.3451Y3.0521
G1X7.3660Y3.0522
G1X7.3867Y3.0512
G1X7.4072Y3.0489
G1X7.4274Y3.0453
G1X7.4473Y3.0406
G1X7.4668Y3.0346
G1X7.4858Y3.0274
G1X7.5043Y3.0189
G1X7.5221Y3.0092
G1X7.5394Y2.9982
G1X7.5558Y2.9860
G1X7.5715Y2.9725
G1X7.5862Y2.9578
G1X7.5999Y2.9420
G1X7.6120Y2.9264
G1X7.6231Y2.9105
G1X7.6332Y2.8943
G1X7.6424Y2.8778
G1X7.6507Y2.8611
G1X7.6580Y2.8441
G1X7.6644Y2.8269
G1X7.6699Y2.8096
G1X7.6744Y2.7922
G1X7.6781Y2.7746
G1X7.6808Y2.7570
G1X7.6826Y2.7394
G1X7.6836Y2.7217
G1X7.6836Y2.7040
G1X7.6828Y2.6864
G1X7.6811Y2.6689
G1X7.6785Y2.6515
G1X7.6751Y2.6342
G1X7.6708Y2.6170
G1X7.6657Y2.6001
G1X7.6597Y2.5833
G1X7.6529Y2.5668
G1X7.6454Y2.5506
G1X7.6370Y2.5347
G1X7.6278Y2.5191
G1X7.6178Y2.5038
G1X7.6070Y2.4889
G1X7.5955Y2.4744
G1X7.5832Y2.4604
G1X7.5702Y2.4468
G1X7.5564Y2.4337
G1X7.5415Y2.4208
G1X7.5245Y2.4082
G1X7.5056Y2.3976
G1X7.4960Y2.3934
G1X7.4861Y2.3901
G1X7.4760Y2.3875
G1X7.4658Y2.3858
G1X7.4554Y2.3850
G1X7.4450Y2.3851
G1X7.4346Y2.3860
G1X7.4242Y2.3879
G1X7.4139Y2.3907
G1X7.4037Y2.3943
G1X7.3936Y2.3988
G1X7.3831Y2.4043
G1X7.3755Y2.4095
G1X7.3681Y2.4161
G1X7.3574Y2.4293
G1X7.3491Y2.4443
G1X7.3441Y2.4580
G1X7.3424Y2.4673
G1X7.3424Y2.4698
G1X7.3450Y2.4813
G1X7.3480Y2.4876
G0Z0.2000
G0X7.1860Y2.7028
G1Z-0.1000F30.0
G1X7.1877Y2.7119F100.0
G1X7.1913Y2.7205
G1X7.1964Y2.7280
G1X7.2031Y2.7346
G1X7.2148Y2.7417
G1X7.2272Y2.7459
G1X7.2389Y2.7484
G1X7.2608Y2.7508
G1X7.2755Y2.7499
G1X7.2881Y2.7477
G1X7.3000Y2.7441
G1X7.3109Y2.7391
G1X7.3207Y2.7328
G1X7.3292Y2.7254
G1X7.3364Y2.7172
G1X7.3424Y2.7084
G1X7.3471Y2.6993
G1X7.3511Y2.6896
G1X7.3562Y2.6716
G1X7.3584Y2.6590
G1X7.3587Y2.6432Z-0.0934
G1X7.3586Y2.6331Z-0.0889
G1X7.3578Y2.6225Z-0.0860
G1X7.3563Y2.6109Z-0.0839
G1X7.3547Y2.6009Z-0.0838
G1X7.3526Y2.5898Z-0.0874
G1X7.3508Y2.5804Z-0.0948
G1X7.3496Y2.5750Z-0.1000
G1X7.3433Y2.5662
G1X7.3364Y2.5601
G1X7.3276Y2.5552
G1X7.3172Y2.5526
G1X7.3066Y2.5528
G1X7.2974Y2.5551
G1X7.2860Y2.5598
G1X7.2663Y2.5704
G1X7.2484Y2.5833
G1X7.2399Y2.5908
G1X7.2253Y2.6064
G1X7.2125Y2.6241
G1X7.2018Y2.6432
G1X7.1935Y2.6635
G1X7.1874Y2.6848
G1X7.1860Y2.6936
G1X7.1860Y2.7028
G0Z0.2000
G0X7.0458Y2.7766
G1Z-0.1000F30.0
G1X7.0446Y2.7867F100.0
G1X7.0451Y2.8228
G1X7.0466Y2.8401
G1X7.0490Y2.8573
G1X7.0525Y2.8743
G1X7.0571Y2.8910
G1X7.0631Y2.9075
G1X7.0704Y2.9236
G1X7.0792Y2.9393
G1X7.0896Y2.9544
G1X7.1015Y2.9689
G1X7.1151Y2.9827
G1X7.1304Y2.9958
G1X7.1473Y3.0081
G1X7.1659Y3.0196
G1X7.1856Y3.0299
G2X7.2218Y2.9938I0.0125J-0.0237
G1X7.2068Y2.9649
G1X7.1943Y2.9373
G1X7.1838Y2.9103
G1X7.1749Y2.8837
G1X7.1675Y2.8574
G1X7.1613Y2.8312
G1X7.1513Y2.7791
G1X7.1488Y2.7578
G1X7.1461Y2.7472
G1X7.1407Y2.7363
G1X7.1349Y2.7295
G1X7.1280Y2.7242
G1X7.1197Y2.7205
G1X7.1110Y2.7187
G1X7.1025Y2.7187
G1X7.0926Y2.7203
G1X7.0819Y2.7251
G1X7.0730Y2.7317
G1X7.0656Y2.7392
G1X7.0592Y2.7474
G1X7.0537Y2.7563
G1X7.0492Y2.7659
G1X7.0458Y2.7766
G0Z0.2000
G0X6.9911Y3.3668
G1Z-0.1000F30.0
G1X6.9578Y3.3310F100.0
G1X6.8924Y3.2581
G1X6.8285Y3.1837
G1X6.7658Y3.1082
G1X6.7043Y3.0316
G1X6.6434Y2.9538
G1X6.6272Y2.9341
G1X6.6099Y2.9155
G1X6.5919Y2.8983
G1X6.5732Y2.8825
G1X6.5538Y2.8681
G1X6.5337Y2.8551
G1X6.5130Y2.8435
G1X6.4917Y2.8333
G1X6.4697Y2.8245
G1X6.4473Y2.8169
G1X6.4242Y2.8107
G1X6.4007Y2.8058
G1X6.3767Y2.8021
G1X6.3523Y2.7997
G1X6.3274Y2.7984
G1X6.2653Y2.7988
G1X6.2317Y2.8006
G1X6.2016Y2.8039
G1X6.1751Y2.8087
G1X6.1510Y2.8157
G1X6.1402Y2.8200
G1X6.1300Y2.8252
G1X6.1206Y2.8311
G1X6.1119Y2.8381
G1X6.1042Y2.8460
G1X6.0977Y2.8549
G1X6.0925Y2.8646
G1X6.0887Y2.8750
G1X6.0863Y2.8858
G1X6.0852Y2.8969
G1X6.0854Y2.9081
G1X6.0866Y2.9196
G1X6.0888Y2.9313
G1X6.0920Y2.9435
G1X6.1007Y2.9681
G1X6.1127Y2.9950
G1X6.1279Y3.0240
G1X6.2246Y3.1872
G1X6.2516Y3.2308
G1X6.2796Y3.2738
G1X6.3088Y3.3160
G1X6.3394Y3.3569
G1X6.3719Y3.3966
G1X6.4064Y3.4345
G1X6.4245Y3.4527
G1X6.4432Y3.4704
G1X6.4625Y3.4875
G1X6.4826Y3.5040
G1X6.5033Y3.5199
G1X6.5248Y3.5350
G1X6.5470Y3.5494
G1X6.5701Y3.5631
G1X6.5940Y3.5759
G1X6.6187Y3.5879
G1X6.6443Y3.5990
G1X6.6709Y3.6091
G1X6.6983Y3.6183
G1X6.7267Y3.6265
G1X6.7539Y3.6332
G1X6.7811Y3.6388
G1X6.8082Y3.6431
G1X6.8352Y3.6464
G1X6.8620Y3.6486
G1X6.8888Y3.6498
G1X6.9155Y3.6501
G1X6.9420Y3.6495
G1X6.9948Y3.6459
G1X7.0475Y3.6395
G1X7.0995Y3.6308
G1X7.1524Y3.6200
G1X7.1690Y3.6150
G1X7.1776Y3.6107
G1X7.1856Y3.6046
G1X7.1896Y3.5993
G1X7.1939Y3.5902
G1X7.1946Y3.5878
G1X7.1952Y3.5774
G1X7.1944Y3.5710
G1X7.1900Y3.5616
G1X7.1822Y3.5524
G1X7.1643Y3.5380
G1X7.0939Y3.4714
G1X7.0249Y3.4021
G1X6.9911Y3.3668
G0Z0.2000
G0X6.7419Y3.8927
G1Z-0.1000F30.0
G1X6.7489Y3.8614F100.0
G1X6.7539Y3.8307
G1X6.7568Y3.8010
G1X6.7572Y3.7729
G1X6.7548Y3.7457
G1X6.7525Y3.7329
G1X6.7488Y3.7189
G1X6.7442Y3.7097
G1X6.7383Y3.7018
G1X6.7318Y3.6954
G1X6.7246Y3.6896
G1X6.7109Y3.6810
G1X6.6655Y3.6608
G1X6.6346Y3.6459
G1X6.6047Y3.6302
G1X6.5758Y3.6137
G1X6.5478Y3.5965
G1X6.5207Y3.5784
G1X6.4945Y3.5597
G1X6.4691Y3.5402
G1X6.4445Y3.5200
G1X6.4207Y3.4991
G1X6.3977Y3.4776
G1X6.3754Y3.4554
G1X6.3537Y3.4326
G1X6.3328Y3.4092
G1X6.3125Y3.3851
G1X6.2928Y3.3605
G1X6.2552Y3.3097
G1X6.2199Y3.2568
G1X6.1866Y3.2022
G1X6.1549Y3.1456
G1X6.1250Y3.0875
G1X6.0964Y3.0281
G1X6.0691Y2.9675
G1X6.0434Y2.9072
G1X6.0417Y2.8983
G1X6.0403Y2.8803
G1X6.0374Y2.8683
G1X6.0336Y2.8604
G1X6.0283Y2.8531
G1X6.0209Y2.8468
G1X6.0122Y2.8424
G1X6.0029Y2.8400
G1X5.9925Y2.8392
G1X5.9803Y2.8411
G1X5.9689Y2.8459
G1X5.9593Y2.8520
G1X5.9509Y2.8590
G1X5.9433Y2.8665
G1X5.9365Y2.8745
G1X5.9306Y2.8828
G1X5.9044Y2.9289
G1X5.8939Y2.9491
G1X5.8841Y2.9704
G1X5.8759Y2.9927
G1X5.8697Y3.0170
G1X5.8677Y3.0296
G1X5.8665Y3.0426
G1X5.8662Y3.0560
G1X5.8669Y3.0701
G1X5.8797Y3.1504
G1X5.8832Y3.1668
G1X5.8875Y3.1834
G1X5.9402Y3.3381
G1X5.9554Y3.3841
G1X5.9694Y3.4305
G1X5.9815Y3.4772
G1X5.9912Y3.5247
G1X5.9951Y3.5489
G1X6.0002Y3.5893
G1X6.0030Y3.6046
G1X6.0066Y3.6196
G1X6.0158Y3.6480
G1X6.0277Y3.6747
G1X6.0418Y3.6997
G1X6.0499Y3.7117
G1X6.0669Y3.7338
G1X6.0858Y3.7547
G1X6.1062Y3.7740
G1X6.1279Y3.7920
G1X6.1505Y3.8088
G1X6.1740Y3.8245
G1X6.1982Y3.8393
G1X6.2477Y3.8666
G1X6.3172Y3.9013
G1X6.3544Y3.9222
G1X6.3719Y3.9333
G1X6.3886Y3.9449
G1X6.4044Y3.9571
G1X6.4193Y3.9699
G1X6.4332Y3.9833
G1X6.4463Y3.9974
G1X6.4583Y4.0122
G1X6.4693Y4.0279
G1X6.4794Y4.0444
G1X6.4883Y4.0619
G1X6.4962Y4.0805
G1X6.5030Y4.1002
G1X6.5122Y4.1336
G1X6.5165Y4.1448
G1X6.5225Y4.1554
G1X6.5282Y4.1617
G1X6.5350Y4.1669
G1X6.5434Y4.1706
G1X6.5523Y4.1722
G1X6.5609Y4.1719
G1X6.5694Y4.1701
G1X6.5824Y4.1644
G1X6.5958Y4.1558
G1X6.6059Y4.1479
G1X6.6247Y4.1299
G1X6.6339Y4.1194
G1X6.6511Y4.0972
G1X6.6675Y4.0723
G1X6.6830Y4.0453
G1X6.6974Y4.0166
G1X6.7107Y3.9866
G1X6.7226Y3.9556
G1X6.7330Y3.9242
G1X6.7419Y3.8927
G0Z0.2000
G0X7.5059Y3.6730
G1Z-0.1000F30.0
G1X7.4853Y3.6622F100.0
G1X7.4634Y3.6535
G1X7.4401Y3.6469
G1X7.4156Y3.6425
G1X7.3900Y3.6403
G1X7.3638Y3.6405
G1X7.3290Y3.6427
G1X7.2945Y3.6459
G1X7.2266Y3.6541
G1X7.0920Y3.6747
G1X7.0250Y3.6845
G1X6.9585Y3.6925
G1X6.9252Y3.6954
G1X6.8920Y3.6975
G1X6.8587Y3.6984
G1X6.8241Y3.6983
G1X6.8123Y3.6989
G1X6.7997Y3.7022
G1X6.7880Y3.7090
G1X6.7791Y3.7191
G1X6.7742Y3.7304
G1X6.7723Y3.7416
G1X6.7730Y3.7580
G1X6.7778Y3.7876
G1X6.7778Y3.7890
G1X6.7804Y3.7897Z-0.0901
G1X6.7778Y3.7890Z-0.1000
G1X6.7773Y3.7901
G1X6.7746Y3.8026
G1X6.7750Y3.8141
G1X6.7767Y3.8267
G1X6.7795Y3.8390
G1X6.7836Y3.8510
G1X6.7886Y3.8625
G1X6.7947Y3.8736
G1X6.8016Y3.8843
G1X6.8093Y3.8945
G1X6.8178Y3.9042
G1X6.8368Y3.9223
G1X6.8582Y3.9386
G1X6.8700Y3.9462
G1X6.8942Y3.9594
G1X6.9203Y3.9708
G1X6.9478Y3.9801
G1X6.9763Y3.9872
G1X7.0054Y3.9918
G1X7.0356Y3.9939
G1X7.0657Y3.9933
G1X7.0957Y3.9898
G1X7.1106Y3.9868
G1X7.1252Y3.9831
G1X7.2292Y3.9524
G1X7.2798Y3.9391
G1X7.3050Y3.9337
G1X7.3300Y3.9292
G1X7.3549Y3.9259
G1X7.3797Y3.9239
G1X7.4045Y3.9234
G1X7.4293Y3.9245
G1X7.4542Y3.9274
G1X7.4792Y3.9323
G1X7.5047Y3.9394
G1X7.5406Y3.9524
G1X7.5513Y3.9544
G1X7.5624Y3.9543
G1X7.5732Y3.9517
G1X7.5829Y3.9468
G1X7.5909Y3.9401
G1X7.5969Y3.9326
G1X7.6015Y3.9242
G1X7.6065Y3.9098
G1X7.6092Y3.8946
G1X7.6104Y3.8685
G1X7.6093Y3.8437
G1X7.6060Y3.8197
G1X7.6005Y3.7968
G1X7.5929Y3.7748
G1X7.5832Y3.7541
G1X7.5714Y3.7347
G1X7.5577Y3.7167
G1X7.5422Y3.7004
G1X7.5248Y3.6858
G1X7.5059Y3.6730
G0Z0.2000
G0X6.3849Y2.7566
G1Z-0.1000F30.0
G1X6.3871Y2.7607F100.0
G1X6.3926Y2.7680
G1X6.3985Y2.7735
G1X6.4075Y2.7789
G1X6.4162Y2.7828
G1X6.4541Y2.7949
G1X6.4769Y2.8034
G1X6.4989Y2.8128
G1X6.5202Y2.8232
G1X6.5408Y2.8346
G1X6.5608Y2.8468
G1X6.5802Y2.8599
G1X6.5990Y2.8739
G1X6.6173Y2.8887
G1X6.6351Y2.9042
G1X6.6523Y2.9205
G1X6.6692Y2.9376
G1X6.7015Y2.9737
G1X6.7329Y3.0132
G1X6.7455Y3.0277
G1X6.7525Y3.0342
G1X6.7596Y3.0397
G1X6.7676Y3.0442
G1X6.7770Y3.0474
G1X6.7877Y3.0483
G1X6.7984Y3.0462
G1X6.8076Y3.0415
G1X6.8154Y3.0350
G1X6.8243Y3.0229
G1X6.8311Y3.0090
G1X6.8368Y2.9937
G1X6.8445Y2.9684
G1X6.8509Y2.9434
G1X6.8561Y2.9185
G1X6.8600Y2.8936
G1X6.8627Y2.8687
G1X6.8641Y2.8439
G1X6.8642Y2.8192
G1X6.8630Y2.7946
G1X6.8605Y2.7701
G1X6.8568Y2.7457
G1X6.8518Y2.7214
G1X6.8454Y2.6972
G1X6.8379Y2.6731
G1X6.8290Y2.6492
G1X6.8189Y2.6254
G1X6.8073Y2.6014
G1X6.7980Y2.5852
G1X6.7872Y2.5706
G1X6.7751Y2.5582
G1X6.7621Y2.5478
G1X6.7481Y2.5396
G1X6.7337Y2.5334
G1X6.7189Y2.5289
G1X6.7039Y2.5258
G1X6.6889Y2.5240
G1X6.6736Y2.5230
G1X6.6435Y2.5228
G1X6.5855Y2.5238
G1X6.5788Y2.5217
G1X6.5650Y2.5200Z-0.0923
G1X6.5588Y2.5192Z-0.0896
G1X6.5448Y2.5180Z-0.0853
G1X6.5317Y2.5175Z-0.0834
G1X6.5193Y2.5175Z-0.0841
G1X6.5072Y2.5180Z-0.0882
G1X6.4953Y2.5191Z-0.0952
G1X6.4899Y2.5198Z-0.1000
G1X6.4857Y2.5214
G1X6.4757Y2.5268
G1X6.4668Y2.5333
G1X6.4589Y2.5406
G1X6.4520Y2.5486
G1X6.4461Y2.5571
G1X6.4408Y2.5663
G1X6.4327Y2.5841
G1X6.4263Y2.6030
G1X6.4119Y2.6596
G1X6.4071Y2.6771
G1X6.4019Y2.6931
G1X6.3958Y2.7075
G1X6.3880Y2.7209
G1X6.3847Y2.7276
G1X6.3819Y2.7393
G1X6.3819Y2.7441
G1X6.3849Y2.7566
G0Z0.2000
G0X6.1148Y2.7925
G1Z-0.1000F30.0
G1X6.1273Y2.7881F100.0
G1X6.1392Y2.7850
G1X6.1647Y2.7807
G1X6.2368Y2.7738
G1X6.2521Y2.7715
G1X6.2676Y2.7682
G1X6.2831Y2.7639
G1X6.2986Y2.7580
G1X6.3139Y2.7504
G1X6.3288Y2.7409
G1X6.3427Y2.7294
G1X6.3655Y2.7058
G1X6.3756Y2.6936
G1X6.3849Y2.6810
G1X6.3932Y2.6679
G1X6.4006Y2.6543
G1X6.4069Y2.6402
G1X6.4121Y2.6257
G1X6.4159Y2.6106
G1X6.4185Y2.5951
G1X6.4196Y2.5793
G1X6.4193Y2.5631
G1X6.4175Y2.5466
G1X6.4141Y2.5299
G1X6.4092Y2.5130
G1X6.4030Y2.4963
G1X6.3834Y2.4487
G1X6.3654Y2.4016
G1X6.3502Y2.3550
G1X6.3438Y2.3316
G1X6.3383Y2.3082
G1X6.3340Y2.2848
G1X6.3308Y2.2613
G1X6.3289Y2.2377
G1X6.3285Y2.2140
G1X6.3295Y2.1901
G1X6.3321Y2.1660
G1X6.3365Y2.1417
G1X6.3437Y2.1131
G1X6.3439Y2.1028
G1X6.3397Y2.0833
G2X6.3028Y2.0650I-0.0261J0.0063
G1X6.2649Y2.0812
G1X6.2441Y2.0918
G1X6.2337Y2.0990
G1X6.2244Y2.1075
G1X6.2037Y2.1315
G1X6.1851Y2.1554
G1X6.1676Y2.1798
G1X6.1515Y2.2047
G1X6.1365Y2.2301
G1X6.1228Y2.2561
G1X6.1103Y2.2826
G1X6.0990Y2.3095
G1X6.0888Y2.3369
G1X6.0798Y2.3647
G1X6.0720Y2.3930
G1X6.0652Y2.4216
G1X6.0596Y2.4507
G1X6.0550Y2.4801
G1X6.0516Y2.5099
G1X6.0491Y2.5403
G1X6.0476Y2.5910
G1X6.0481Y2.5993
G1X6.0496Y2.6052
G1X6.0795Y2.7720
G2X6.1148Y2.7925I0.0264J-0.0047
G0Z0.2000
G0X5.4980Y2.7291
G1Z-0.1000F30.0
G1X5.4962Y2.7200F100.0
G1X5.4931Y2.7112
G1X5.4888Y2.7031
G1X5.4834Y2.6960
G1X5.4802Y2.6931
G1X5.4745Y2.6902Z-0.0945
G1X5.4661Y2.6866Z-0.0892
G1X5.4554Y2.6828Z-0.0872
G1X5.4437Y2.6796Z-0.0889
G1X5.4317Y2.6767Z-0.0944
G1X5.4217Y2.6745Z-0.1000
G1X5.3852Y2.6721
G1X5.3566Y2.6712
G1X5.3274Y2.6716
G1X5.2974Y2.6738
G1X5.2669Y2.6782
G1X5.2350Y2.6852
G1X5.2023Y2.6951
G1X5.1922Y2.6988
G1X5.1819Y2.7043Z-0.0945
G1X5.1676Y2.7115Z-0.0907
G1X5.1622Y2.7147Z-0.0929
G1X5.1596Y2.7165Z-0.0950
G1X5.1558Y2.7198Z-0.1000
G2X5.1550Y2.7445I0.0234J0.0130
G1X5.1587Y2.7468Z-0.0924
G1X5.1636Y2.7495Z-0.0851
G1X5.1670Y2.7510Z-0.0814
G1X5.1740Y2.7530Z-0.0776
G1X5.1915Y2.7572Z-0.0762
G1X5.2083Y2.7626Z-0.0742
G1X5.2253Y2.7691Z-0.0718
G1X5.2427Y2.7768Z-0.0691
G1X5.2782Y2.7938Z-0.0657
G1X5.2837Y2.7972Z-0.0679
G1X5.2887Y2.8016Z-0.0745
G1X5.2932Y2.8073Z-0.0858
G1X5.2969Y2.8130Z-0.1000
G1X5.3067Y2.8173
G1X5.3230Y2.8232
G1X5.3400Y2.8279
G1X5.3579Y2.8308
G1X5.3766Y2.8315
G1X5.3959Y2.8297
G1X5.4153Y2.8251
G1X5.4219Y2.8228
G1X5.4352Y2.8151Z-0.0920
G1X5.4480Y2.8071Z-0.0863
G1X5.4565Y2.8016Z-0.0845
G1X5.4673Y2.7939Z-0.0847
G1X5.4752Y2.7876Z-0.0874
G1X5.4783Y2.7850Z-0.0893
G1X5.4856Y2.7782Z-0.0956
G1X5.4894Y2.7744Z-0.1000
G1X5.4947Y2.7633
G1X5.4972Y2.7547
G1X5.4985Y2.7464
G1X5.4987Y2.7378
G1X5.4980Y2.7291
G0Z0.2000
G0X5.4659Y2.6147
G1Z-0.1000F30.0
G1X5.4258Y2.6233F100.0
G2X5.4217Y2.6745I0.0056J0.0262
G1X5.4329Y2.6769Z-0.0938
G1X5.4450Y2.6799Z-0.0885
G1X5.4554Y2.6828Z-0.0872
G1X5.4666Y2.6868Z-0.0894
G1X5.4745Y2.6902Z-0.0945
G1X5.4802Y2.6931Z-0.1000
G1X5.5078Y2.6986
G1X5.5286Y2.7012
G1X5.5490Y2.7026
G1X5.5691Y2.7030
G1X5.5889Y2.7025
G1X5.6277Y2.6992
G1X5.6650Y2.6936
G1X5.7395Y2.6785
G1X5.7466Y2.6755
G1X5.7545Y2.6702
G1X5.7595Y2.6653
G1X5.7672Y2.6559
G2X5.7618Y2.6161I-0.0203J-0.0175
G1X5.7425Y2.6040
G1X5.7362Y2.6029Z-0.0958
G1X5.7322Y2.6021Z-0.0940
G1X5.7243Y2.6012Z-0.0925
G1X5.7094Y2.5996Z-0.0936
G1X5.6921Y2.5970Z-0.0975
G1X5.6857Y2.5960Z-0.1000
G1X5.6550Y2.5949
G1X5.6183Y2.5954
G1X5.5812Y2.5978
G1X5.5436Y2.6019
G1X5.5052Y2.6075
G1X5.4659Y2.6147
G0Z0.2000
G0X5.2636Y2.5259
G1Z-0.1000F30.0
G1X5.2571Y2.5361F100.0
G1X5.2489Y2.5520
G1X5.2471Y2.5645Z-0.0877
G1X5.2440Y2.5829Z-0.0744
G1X5.2395Y2.6039Z-0.0649
G1X5.2350Y2.6202Z-0.0616
G1X5.2337Y2.6242Z-0.0621
G1X5.2327Y2.6283Z-0.0636
G1X5.2314Y2.6362Z-0.0690
G1X5.2309Y2.6441Z-0.0801
G1X5.2310Y2.6498Z-0.0901
G1X5.2315Y2.6547Z-0.1000
G1X5.2360Y2.6586
G1X5.2451Y2.6637
G1X5.2514Y2.6657
G1X5.2609Y2.6663
G1X5.2734Y2.6649
G1X5.2967Y2.6602
G1X5.3194Y2.6546
G1X5.3416Y2.6472
G1X5.3531Y2.6423
G1X5.3640Y2.6367
G1X5.3746Y2.6301
G1X5.3846Y2.6223
G1X5.3940Y2.6133
G1X5.4026Y2.6030
G1X5.4100Y2.5914
G1X5.4162Y2.5787
G1X5.4210Y2.5648
G1X5.4245Y2.5498
G1X5.4257Y2.5403
G1X5.4252Y2.5302
G1X5.4226Y2.5203
G1X5.4181Y2.5113
G1X5.4121Y2.5040
G1X5.4049Y2.4980
G1X5.4018Y2.4963
G1X5.3891Y2.4943Z-0.0856
G1X5.3839Y2.4938Z-0.0813
G1X5.3606Y2.4907Z-0.0647
G1X5.3506Y2.4886Z-0.0561
G1X5.3459Y2.4882Z-0.0547
G1X5.3420Y2.4884Z-0.0557
G1X5.3279Y2.4902Z-0.0631
G1X5.3143Y2.4925Z-0.0739
G1X5.3008Y2.4955Z-0.0878
G1X5.2912Y2.4979Z-0.1000
G1X5.2796Y2.5075
G1X5.2710Y2.5165
G1X5.2636Y2.5259
G0Z0.2000
G0X5.1550Y2.7445
G1Z-0.1000F30.0
G1X5.1407Y2.7437F100.0
G1X5.1235Y2.7443
G1X5.1065Y2.7467
G1X5.0897Y2.7511
G1X5.0733Y2.7573
G1X5.0572Y2.7656
G1X5.0417Y2.7758
G1X5.0266Y2.7880
G1X5.0128Y2.8014
G2X5.0064Y2.8302I0.0186J0.0193
G1X5.0137Y2.8347Z-0.0843
G1X5.0186Y2.8370Z-0.0775
G1X5.0238Y2.8387Z-0.0732
G1X5.0389Y2.8428Z-0.0656
G1X5.0486Y2.8452Z-0.0631
G1X5.0566Y2.8472Z-0.0620
G1X5.0707Y2.8504Z-0.0632
G1X5.0877Y2.8537Z-0.0686
G1X5.1032Y2.8561Z-0.0764
G1X5.1188Y2.8582Z-0.0871
G1X5.1350Y2.8599Z-0.1000
G1X5.1496Y2.8577
G1X5.2100Y2.8455
G1X5.2409Y2.8399
G1X5.2728Y2.8362
G2X5.2969Y2.8130I-0.0025J-0.0267
G1X5.2924Y2.8061Z-0.0834
G1X5.2887Y2.8016Z-0.0745
G1X5.2837Y2.7972Z-0.0679
G1X5.2775Y2.7934Z-0.0658
G1X5.2419Y2.7764Z-0.0692
G1X5.2208Y2.7673Z-0.0727
G1X5.2057Y2.7617Z-0.0748
G1X5.1903Y2.7569Z-0.0764
G1X5.1733Y2.7528Z-0.0778
G1X5.1670Y2.7510Z-0.0814
G1X5.1636Y2.7495Z-0.0851
G1X5.1567Y2.7455Z-0.0964
G1X5.1550Y2.7445Z-0.1000
G0Z0.2000
G0X5.0399Y2.5618
G1Z-0.1000F30.0
G1X5.0403Y2.5733F100.0
G1X5.0462Y2.5840Z-0.0821
G1X5.0482Y2.5881Z-0.0780
G1X5.0510Y2.5932Z-0.0765
G1X5.0531Y2.5974Z-0.0775
G1X5.0550Y2.6049Z-0.0767
G1X5.0556Y2.6125Z-0.0758
G1X5.0552Y2.6202Z-0.0751
G1X5.0532Y2.6353Z-0.0758
G1X5.0497Y2.6531Z-0.0755
G1X5.0489Y2.6605Z-0.0735
G1X5.0477Y2.6792Z-0.0658
G1X5.0471Y2.6878Z-0.0649
G1X5.0469Y2.6973Z-0.0660
G1X5.0471Y2.7049Z-0.0707
G1X5.0480Y2.7124Z-0.0780
G1X5.0496Y2.7220Z-0.0924
G1X5.0506Y2.7260Z-0.1000
G1X5.0557Y2.7302
G1X5.0638Y2.7341
G1X5.0720Y2.7360
G1X5.0794Y2.7363
G1X5.0950Y2.7353
G1X5.1101Y2.7332
G1X5.1252Y2.7300
G1X5.1403Y2.7257
G1X5.1558Y2.7198
G1X5.1596Y2.7165Z-0.0950
G1X5.1622Y2.7147Z-0.0929
G1X5.1682Y2.7112Z-0.0907
G1X5.1841Y2.7031Z-0.0954
G1X5.1922Y2.6988Z-0.1000
G1X5.1971Y2.6952
G1X5.2095Y2.6839
G1X5.2208Y2.6710
G1X5.2315Y2.6547
G1X5.2310Y2.6498Z-0.0901
G1X5.2312Y2.6387Z-0.0719
G1X5.2314Y2.6362Z-0.0690
G1X5.2327Y2.6283Z-0.0636
G1X5.2337Y2.6242Z-0.0621
G1X5.2357Y2.6175Z-0.0619
G1X5.2400Y2.6018Z-0.0656
G1X5.2440Y2.5829Z-0.0744
G1X5.2475Y2.5620Z-0.0899
G1X5.2489Y2.5520Z-0.1000
G1X5.2456Y2.5376
G1X5.2411Y2.5262
G1X5.2352Y2.5159
G1X5.2281Y2.5069
G1X5.2200Y2.4993
G1X5.2085Y2.4915
G1X5.2000Y2.4892Z-0.0932
G1X5.1904Y2.4872Z-0.0868
G1X5.1805Y2.4857Z-0.0819
G1X5.1628Y2.4843Z-0.0753
G1X5.1516Y2.4841Z-0.0729
G1X5.1455Y2.4842Z-0.0709
G1X5.1266Y2.4850Z-0.0666
G1X5.1197Y2.4857Z-0.0647
G1X5.1108Y2.4869Z-0.0631
G1X5.1019Y2.4888Z-0.0627
G1X5.0938Y2.4911Z-0.0631
G1X5.0856Y2.4941Z-0.0650
G1X5.0775Y2.4978Z-0.0686
G1X5.0697Y2.5023Z-0.0738
G1X5.0619Y2.5078Z-0.0811
G1X5.0543Y2.5142Z-0.0908
G1X5.0483Y2.5201Z-0.1000
G1X5.0445Y2.5300
G1X5.0419Y2.5402
G1X5.0404Y2.5508
G1X5.0399Y2.5618
G0Z0.2000
G0X4.8988Y2.8269
G1Z-0.1000F30.0
G1X4.9303Y2.8207F100.0
G1X4.9460Y2.8167
G1X4.9609Y2.8120
G1X4.9753Y2.8065
G1X4.9891Y2.8000
G1X5.0021Y2.7923
G1X5.0143Y2.7831
G1X5.0253Y2.7724
G1X5.0350Y2.7602
G1X5.0430Y2.7464
G1X5.0492Y2.7312
G1X5.0506Y2.7259
G1X5.0487Y2.7173Z-0.0849
G1X5.0479Y2.7117Z-0.0771
G1X5.0471Y2.7049Z-0.0707
G1X5.0469Y2.6973Z-0.0660
G1X5.0472Y2.6858Z-0.0649
G1X5.0478Y2.6760Z-0.0667
G1X5.0489Y2.6605Z-0.0735
G1X5.0497Y2.6531Z-0.0755
G1X5.0532Y2.6353Z-0.0758
G1X5.0553Y2.6201Z-0.0751
G1X5.0556Y2.6125Z-0.0758
G1X5.0550Y2.6049Z-0.0767
G1X5.0531Y2.5974Z-0.0775
G1X5.0502Y2.5919Z-0.0766
G1X5.0482Y2.5881Z-0.0780
G1X5.0462Y2.5840Z-0.0821
G1X5.0403Y2.5733Z-0.1000
G1X5.0306Y2.5689
G1X5.0193Y2.5665
G1X5.0078Y2.5660
G1X4.9908Y2.5671
G1X4.9809Y2.5688
G1X4.9740Y2.5719Z-0.0932
G1X4.9605Y2.5791Z-0.0824
G1X4.9482Y2.5865Z-0.0755
G1X4.9371Y2.5944Z-0.0722
G1X4.9267Y2.6026Z-0.0722
G1X4.9170Y2.6115Z-0.0753
G1X4.9077Y2.6209Z-0.0812
G1X4.8988Y2.6309Z-0.0898
G1X4.8908Y2.6408Z-0.1000
G1X4.8858Y2.6533
G1X4.8816Y2.6663
G1X4.8757Y2.6934
G1X4.8725Y2.7201
G1X4.8697Y2.7522
G1X4.8669Y2.7990
G2X4.8988Y2.8269I0.0267J0.0016
G0Z0.2000
G0X4.8897Y2.9109
G1Z-0.1000F30.0
G1X4.9067Y2.9230F100.0
G1X4.9154Y2.9261
G1X4.9477Y2.9353
G1X5.0122Y2.9565
G1X5.0297Y2.9613
G1X5.0477Y2.9652
G1X5.0662Y2.9680
G1X5.0853Y2.9692
G1X5.1049Y2.9686
G1X5.1251Y2.9659
G1X5.1455Y2.9606
G1X5.1662Y2.9525
G1X5.1868Y2.9416
G1X5.2064Y2.9284
G2X5.1993Y2.8806I-0.0150J-0.0222
G1X5.1660Y2.8703
G1X5.1350Y2.8599
G1X5.1174Y2.8580Z-0.0861
G1X5.0981Y2.8552Z-0.0735
G1X5.0862Y2.8534Z-0.0680
G1X5.0707Y2.8504Z-0.0632
G1X5.0563Y2.8472Z-0.0620
G1X5.0477Y2.8450Z-0.0633
G1X5.0389Y2.8428Z-0.0656
G1X5.0238Y2.8387Z-0.0732
G1X5.0186Y2.8370Z-0.0775
G1X5.0137Y2.8347Z-0.0843
G1X5.0064Y2.8302Z-0.1000
G1X4.9967Y2.8298
G1X4.9782Y2.8306
G1X4.9594Y2.8330
G1X4.9403Y2.8371
G1X4.9200Y2.8435
G1X4.9082Y2.8497
G1X4.8986Y2.8580
G1X4.8862Y2.8712
G2X4.8897Y2.9109I0.0196J0.0183
G0Z0.2000
G0X4.8320Y3.0967
G1Z-0.1000F30.0
G1X4.8399Y3.1068F100.0
G1X4.8471Y3.1145
G1X4.8549Y3.1196
G1X4.8714Y3.1246
G1X4.8912Y3.1333
G1X4.9039Y3.1381
G1X4.9120Y3.1403
G1X4.9206Y3.1416
G1X4.9298Y3.1418
G1X4.9396Y3.1407
G1X4.9494Y3.1379
G1X4.9617Y3.1319
G1X4.9665Y3.1236Z-0.0840
G1X4.9718Y3.1159Z-0.0738
G1X4.9766Y3.1101Z-0.0686
G1X4.9821Y3.1046Z-0.0658
G1X4.9919Y3.0966Z-0.0641
G1X5.0022Y3.0895Z-0.0649
G1X5.0313Y3.0717Z-0.0707
G1X5.0538Y3.0584Z-0.0745
G1X5.0767Y3.0452Z-0.0798
G1X5.0997Y3.0323Z-0.0871
G1X5.1176Y3.0228Z-0.0944
G1X5.1230Y3.0195Z-0.0982
G1X5.1245Y3.0185Z-0.1000
G2X5.0991Y2.9753I-0.0209J-0.0167
G1X4.9881Y2.9941
G1X4.9430Y3.0025
G1X4.8990Y3.0128
G1X4.8883Y3.0168
G1X4.8777Y3.0227
G1X4.8616Y3.0351
G1X4.8347Y3.0595
G2X4.8320Y3.0967I0.0178J0.0200
G0Z0.2000
G0X4.9602Y3.4102
G1Z-0.1000F30.0
G1X4.9664Y3.4092F100.0
G1X4.9765Y3.4052
G1X4.9787Y3.4038
G1X4.9804Y3.3999Z-0.0927
G1X4.9827Y3.3926Z-0.0821
G1X4.9841Y3.3857Z-0.0752
G1X4.9853Y3.3751Z-0.0684
G1X4.9858Y3.3674Z-0.0670
G1X4.9867Y3.3586Z-0.0675
G1X4.9871Y3.3496Z-0.0676
G1X4.9870Y3.3284Z-0.0665
G1X4.9859Y3.2835Z-0.0631
G1X4.9857Y3.2712Z-0.0648
G1X4.9860Y3.2608Z-0.0648
G1X4.9869Y3.2501Z-0.0670
G1X4.9885Y3.2391Z-0.0721
G1X4.9898Y3.2325Z-0.0777
G1X4.9914Y3.2264Z-0.0847
G1X4.9944Y3.2167Z-0.1000
G1X4.9919Y3.2055
G1X4.9877Y3.1944
G1X4.9813Y3.1835
G1X4.9725Y3.1736
G1X4.9614Y3.1654
G1X4.9485Y3.1593
G1X4.9342Y3.1551
G1X4.9182Y3.1528
G1X4.9084Y3.1525
G1X4.8986Y3.1537
G1X4.8888Y3.1571
G1X4.8799Y3.1631
G1X4.8730Y3.1710
G1X4.8683Y3.1806
G1X4.8657Y3.1946
G1X4.8664Y3.2073
G1X4.8702Y3.2301
G1X4.8715Y3.2716
G1X4.8729Y3.2943
G1X4.8764Y3.3183
G1X4.8794Y3.3303
G1X4.8836Y3.3423
G1X4.8890Y3.3542
G1X4.8959Y3.3657
G1X4.9044Y3.3767
G1X4.9146Y3.3869
G1X4.9264Y3.3961
G1X4.9404Y3.4046
G1X4.9506Y3.4088
G1X4.9602Y3.4102
G0Z0.2000
G0X5.0975Y3.3897
G1Z-0.1000F30.0
G1X5.1253Y3.4186F100.0
G1X5.1291Y3.4207Z-0.0954
G1X5.1349Y3.4248Z-0.0908
G1X5.1785Y3.4597Z-0.0725
G1X5.2256Y3.4969Z-0.0546
G1X5.2495Y3.5159Z-0.0460
G1X5.2822Y3.5430Z-0.0370
G1X5.2865Y3.5455Z-0.0393
G1X5.2914Y3.5472Z-0.0470
G1X5.2990Y3.5485Z-0.0646
G1X5.2995Y3.5486Z-0.0662
G1X5.3009Y3.5434Z-0.0572
G1X5.3015Y3.5378Z-0.0510
G1X5.3009Y3.5324Z-0.0489
G1X5.2959Y3.5109Z-0.0551
G1X5.2922Y3.4918Z-0.0599
G1X5.2862Y3.4546Z-0.0651
G1X5.2832Y3.4369Z-0.0652
G1X5.2795Y3.4177Z-0.0636
G1X5.2749Y3.3983Z-0.0602
G1X5.2712Y3.3861Z-0.0569
G1X5.2682Y3.3769Z-0.0554
G1X5.2672Y3.3711Z-0.0576
G1X5.2671Y3.3641Z-0.0662
G1X5.2677Y3.3598Z-0.0737
G1X5.2705Y3.3496Z-0.0975
G1X5.2708Y3.3487Z-0.1000
G1X5.2639Y3.3347
G1X5.2561Y3.3231
G1X5.2520Y3.3186Z-0.0975
G1X5.2450Y3.3120Z-0.0948
G1X5.2363Y3.3053Z-0.0892
G1X5.2320Y3.3021Z-0.0877
G1X5.2290Y3.2995Z-0.0884
G1X5.2253Y3.2961Z-0.0905
G1X5.2188Y3.2887Z-0.1000
G1X5.2080Y3.2827
G1X5.1891Y3.2746
G1X5.1544Y3.2617
G1X5.1202Y3.2498
G2X5.0981Y3.2518I-0.0088J0.0253
G1X5.0958Y3.2584Z-0.0852
G1X5.0947Y3.2625Z-0.0780
G1X5.0938Y3.2661Z-0.0735
G1X5.0932Y3.2724Z-0.0688
G1X5.0918Y3.2864Z-0.0646
G1X5.0887Y3.3086Z-0.0624
G1X5.0881Y3.3133Z-0.0622
G1X5.0867Y3.3283Z-0.0637
G1X5.0868Y3.3431Z-0.0663
G1X5.0878Y3.3511Z-0.0675
G1X5.0888Y3.3554Z-0.0681
G1X5.0916Y3.3632Z-0.0673
G1X5.0928Y3.3668Z-0.0682
G1X5.0943Y3.3733Z-0.0743
G1X5.0964Y3.3863Z-0.0949
G1X5.0975Y3.3897Z-0.1000
G0Z0.2000
G0X5.0781Y3.5047
G1Z-0.1000F30.0
G1X5.0906Y3.4973F100.0
G1X5.0965Y3.4902
G1X5.0985Y3.4811Z-0.0882
G1X5.0995Y3.4753Z-0.0834
G1X5.1000Y3.4701Z-0.0802
G1X5.1004Y3.4626Z-0.0775
G1X5.1004Y3.4507Z-0.0780
G1X5.1000Y3.4448Z-0.0797
G1X5.1001Y3.4382Z-0.0834
G1X5.1009Y3.4331Z-0.0888
G1X5.1025Y3.4261Z-0.1000
G1X5.0979Y3.3995
G1X5.0975Y3.3897
G1X5.0956Y3.3830Z-0.0899
G1X5.0943Y3.3733Z-0.0743
G1X5.0928Y3.3668Z-0.0682
G1X5.0915Y3.3629Z-0.0673
G1X5.0888Y3.3554Z-0.0681
G1X5.0873Y3.3485Z-0.0675
G1X5.0866Y3.3401Z-0.0661
G1X5.0868Y3.3263Z-0.0633
G1X5.0883Y3.3121Z-0.0622
G1X5.0901Y3.2983Z-0.0631
G1X5.0920Y3.2849Z-0.0649
G1X5.0932Y3.2718Z-0.0691
G1X5.0938Y3.2661Z-0.0735
G1X5.0947Y3.2625Z-0.0780
G1X5.0958Y3.2584Z-0.0852
G1X5.0981Y3.2518Z-0.1000
G1X5.0966Y3.2463
G1X5.0928Y3.2386
G1X5.0883Y3.2318
G1X5.0827Y3.2255
G1X5.0761Y3.2201
G1X5.0687Y3.2156
G1X5.0608Y3.2121
G1X5.0523Y3.2094
G1X5.0429Y3.2075
G1X5.0229Y3.2059
G1X5.0139Y3.2071
G1X5.0042Y3.2104
G1X4.9944Y3.2167
G1X4.9909Y3.2281Z-0.0823
G1X4.9888Y3.2378Z-0.0731
G1X4.9879Y3.2425Z-0.0701
G1X4.9867Y3.2522Z-0.0664
G1X4.9859Y3.2626Z-0.0647
G1X4.9857Y3.2712Z-0.0648
G1X4.9860Y3.2866Z-0.0630
G1X4.9870Y3.3284Z-0.0665
G1X4.9871Y3.3496Z-0.0676
G1X4.9863Y3.3630Z-0.0670
G1X4.9856Y3.3695Z-0.0672
G1X4.9852Y3.3763Z-0.0689
G1X4.9841Y3.3857Z-0.0752
G1X4.9827Y3.3926Z-0.0821
G1X4.9804Y3.3999Z-0.0927
G1X4.9787Y3.4038Z-0.1000
G1X4.9819Y3.4351
G1X4.9868Y3.4564
G1X4.9906Y3.4669
G1X4.9931Y3.4719
G1X4.9980Y3.4781Z-0.0949
G1X5.0032Y3.4837Z-0.0913
G1X5.0064Y3.4869Z-0.0900
G1X5.0131Y3.4929Z-0.0889
G1X5.0217Y3.4994Z-0.0912
G1X5.0264Y3.5023Z-0.0936
G1X5.0351Y3.5071Z-0.1000
G1X5.0497Y3.5092
G1X5.0646Y3.5083
G1X5.0781Y3.5047
G0Z0.2000
G0X5.3181Y3.6214
G1Z-0.1000F30.0
G1X5.3213Y3.6145F100.0
G1X5.3207Y3.6116Z-0.0947
G1X5.3181Y3.6032Z-0.0834
G1X5.3140Y3.5894Z-0.0693
G1X5.3113Y3.5807Z-0.0637
G1X5.3086Y3.5719Z-0.0606
G1X5.3061Y3.5649Z-0.0596
G1X5.3021Y3.5541Z-0.0627
G1X5.2995Y3.5486Z-0.0662
G1X5.2944Y3.5478Z-0.0530
G1X5.2879Y3.5460Z-0.0410
G1X5.2865Y3.5455Z-0.0393
G1X5.2822Y3.5430Z-0.0370
G1X5.2491Y3.5156Z-0.0461
G1X5.2117Y3.4858Z-0.0595
G1X5.1737Y3.4559Z-0.0745
G1X5.1349Y3.4248Z-0.0908
G1X5.1291Y3.4207Z-0.0954
G1X5.1253Y3.4186Z-0.1000
G2X5.1025Y3.4261I-0.0039J0.0265
G1X5.1006Y3.4345Z-0.0870
G1X5.1001Y3.4382Z-0.0834
G1X5.1000Y3.4448Z-0.0797
G1X5.1005Y3.4534Z-0.0776
G1X5.1003Y3.4637Z-0.0777
G1X5.1000Y3.4701Z-0.0802
G1X5.0995Y3.4753Z-0.0834
G1X5.0982Y3.4830Z-0.0900
G1X5.0965Y3.4902Z-0.1000
G1X5.0978Y3.5003
G1X5.1016Y3.5176
G1X5.1068Y3.5340
G1X5.1134Y3.5495
G1X5.1215Y3.5640
G1X5.1290Y3.5749
G1X5.1325Y3.5781Z-0.0967
G1X5.1449Y3.5886Z-0.0874
G1X5.1577Y3.5982Z-0.0809
G1X5.1711Y3.6070Z-0.0765
G1X5.1851Y3.6152Z-0.0744
G1X5.1998Y3.6227Z-0.0739
G1X5.2153Y3.6298Z-0.0755
G1X5.2316Y3.6363Z-0.0783
G1X5.2477Y3.6419Z-0.0824
G1X5.2526Y3.6432Z-0.0845
G1X5.2622Y3.6451Z-0.0910
G1X5.2717Y3.6462Z-0.1000
G1X5.2883Y3.6418
G1X5.2973Y3.6381
G1X5.3055Y3.6338
G1X5.3107Y3.6299
G1X5.3181Y3.6214
G0Z0.2000
G0X5.5102Y3.6368
G1Z-0.1000F30.0
G1X5.4877Y3.5658F100.0
G1X5.4811Y3.5472
G1X5.4735Y3.5286
G1X5.4701Y3.5219
G1X5.4636Y3.5111Z-0.0964
G1X5.4594Y3.5036Z-0.0980
G1X5.4572Y3.4990Z-0.1000
G1X5.4533Y3.4928
G1X5.4388Y3.4747
G1X5.4252Y3.4602
G1X5.4200Y3.4577Z-0.0929
G1X5.4113Y3.4531Z-0.0833
G1X5.4018Y3.4471Z-0.0753
G1X5.3965Y3.4435Z-0.0724
G1X5.3893Y3.4380Z-0.0701
G1X5.3796Y3.4299Z-0.0700
G1X5.3668Y3.4174Z-0.0753
G1X5.3571Y3.4066Z-0.0833
G1X5.3475Y3.3948Z-0.0947
G1X5.3445Y3.3904Z-0.1000
G1X5.3117Y3.3627Z-0.0997
G1X5.3023Y3.3571Z-0.0929
G1X5.2949Y3.3522Z-0.0899
G1X5.2871Y3.3482Z-0.0936
G1X5.2815Y3.3461Z-0.1000
G1X5.2708Y3.3487
G1X5.2694Y3.3530Z-0.0888
G1X5.2677Y3.3598Z-0.0737
G1X5.2671Y3.3641Z-0.0662
G1X5.2672Y3.3711Z-0.0576
G1X5.2682Y3.3769Z-0.0554
G1X5.2715Y3.3869Z-0.0571
G1X5.2749Y3.3983Z-0.0602
G1X5.2799Y3.4197Z-0.0637
G1X5.2832Y3.4369Z-0.0652
G1X5.2864Y3.4560Z-0.0650
G1X5.2926Y3.4938Z-0.0594
G1X5.2962Y3.5124Z-0.0546
G1X5.3009Y3.5324Z-0.0489
G1X5.3015Y3.5378Z-0.0510
G1X5.3009Y3.5434Z-0.0572
G1X5.2995Y3.5486Z-0.0662
G1X5.3031Y3.5566Z-0.0616
G1X5.3063Y3.5655Z-0.0596
G1X5.3091Y3.5734Z-0.0610
G1X5.3123Y3.5841Z-0.0655
G1X5.3151Y3.5934Z-0.0728
G1X5.3190Y3.6058Z-0.0865
G1X5.3212Y3.6139Z-0.0988
G1X5.3213Y3.6145Z-0.1000
G1X5.3272Y3.6212
G1X5.3351Y3.6286
G1X5.3438Y3.6356
G1X5.3533Y3.6420
G1X5.3636Y3.6479
G1X5.3747Y3.6532
G1X5.3868Y3.6581
G1X5.3991Y3.6620
G1X5.4121Y3.6649
G1X5.4363Y3.6681
G1X5.4825Y3.6718
G2X5.5102Y3.6368I0.0022J-0.0267
G0Z0.2000
G0X5.6543Y3.4222
G1Z-0.1000F30.0
G1X5.6457Y3.4177F100.0
G1X5.6378Y3.4146
G1X5.6278Y3.4160Z-0.0848
G1X5.6215Y3.4167Z-0.0782
G1X5.6172Y3.4170Z-0.0746
G1X5.6091Y3.4172Z-0.0699
G1X5.5949Y3.4167Z-0.0697
G1X5.5784Y3.4167Z-0.0730
G1X5.5638Y3.4177Z-0.0745
G1X5.5459Y3.4198Z-0.0729
G1X5.5280Y3.4232Z-0.0702
G1X5.5108Y3.4277Z-0.0678
G1X5.5021Y3.4306Z-0.0673
G1X5.4936Y3.4338Z-0.0680
G1X5.4852Y3.4377Z-0.0701
G1X5.4767Y3.4424Z-0.0747
G1X5.4715Y3.4457Z-0.0792
G1X5.4630Y3.4522Z-0.0902
G1X5.4578Y3.4566Z-0.1000
G1X5.4548Y3.4648
G1X5.4533Y3.4771
G1X5.4547Y3.4901
G1X5.4573Y3.4994Z-0.0998
G1X5.4594Y3.5036Z-0.0980
G1X5.4641Y3.5120Z-0.0964
G1X5.4701Y3.5219Z-0.1000
G1X5.4784Y3.5300
G1X5.4878Y3.5366
G1X5.4980Y3.5418
G1X5.5087Y3.5457
G1X5.5200Y3.5485
G1X5.5318Y3.5503
G1X5.5440Y3.5511
G1X5.5566Y3.5509
G1X5.5696Y3.5500
G1X5.5967Y3.5455
G1X5.6043Y3.5436
G1X5.6046Y3.5317Z-0.0570
G1X5.6036Y3.5162Z0.0000
G1X5.6046Y3.5317Z-0.0570
G1X5.6043Y3.5436Z-0.1000
G1X5.6193Y3.5477
G1X5.6336Y3.5494
G1X5.6433Y3.5490
G1X5.6532Y3.5468
G1X5.6634Y3.5421
G1X5.6727Y3.5345
G1X5.6800Y3.5245
G1X5.6848Y3.5130
G1X5.6860Y3.5075
G1X5.6861Y3.4986Z-0.0944
G1X5.6853Y3.4852Z-0.0893
G1X5.6841Y3.4742Z-0.0882
G1X5.6821Y3.4630Z-0.0898
G1X5.6794Y3.4522Z-0.0946
G1X5.6769Y3.4445Z-0.1000
G1X5.6700Y3.4351
G1X5.6625Y3.4280
G1X5.6543Y3.4222
G0Z0.2000
G0X5.5468Y3.2961
G1Z-0.1000F30.0
G1X5.5255Y3.2947F100.0
G1X5.5158Y3.2972
G1X5.5117Y3.2996Z-0.0951
G1X5.5088Y3.3010Z-0.0926
G1X5.5038Y3.3030Z-0.0902
G1X5.4694Y3.3143Z-0.0811
G1X5.4412Y3.3241Z-0.0753
G1X5.4145Y3.3342Z-0.0729
G1X5.3877Y3.3431Z-0.0672
G1X5.3764Y3.3473Z-0.0670
G1X5.3686Y3.3507Z-0.0689
G1X5.3615Y3.3545Z-0.0728
G1X5.3558Y3.3579Z-0.0795
G1X5.3510Y3.3613Z-0.0871
G1X5.3450Y3.3657Z-0.1000
G1X5.3425Y3.3771
G1X5.3445Y3.3904
G1X5.3498Y3.3978Z-0.0915
G1X5.3585Y3.4083Z-0.0818
G1X5.3685Y3.4192Z-0.0743
G1X5.3796Y3.4299Z-0.0700
G1X5.3914Y3.4397Z-0.0706
G1X5.3982Y3.4447Z-0.0732
G1X5.4057Y3.4496Z-0.0782
G1X5.4139Y3.4545Z-0.0860
G1X5.4232Y3.4593Z-0.0970
G1X5.4252Y3.4602Z-0.1000
G1X5.4317Y3.4607
G1X5.4425Y3.4601
G1X5.4534Y3.4581
G1X5.4578Y3.4566
G1X5.4635Y3.4518Z-0.0895
G1X5.4715Y3.4457Z-0.0792
G1X5.4795Y3.4407Z-0.0728
G1X5.4874Y3.4367Z-0.0693
G1X5.4961Y3.4328Z-0.0678
G1X5.5034Y3.4301Z-0.0673
G1X5.5131Y3.4270Z-0.0682
G1X5.5301Y3.4227Z-0.0706
G1X5.5471Y3.4196Z-0.0731
G1X5.5638Y3.4177Z-0.0745
G1X5.5807Y3.4166Z-0.0729
G1X5.5949Y3.4167Z-0.0697
G1X5.6091Y3.4172Z-0.0699
G1X5.6172Y3.4170Z-0.0746
G1X5.6254Y3.4162Z-0.0821
G1X5.6336Y3.4153Z-0.0931
G1X5.6378Y3.4146Z-0.1000
G1X5.6422Y3.4115
G1X5.6504Y3.4016
G1X5.6556Y3.3890
G1X5.6566Y3.3749
G1X5.6534Y3.3628
G1X5.6486Y3.3520
G1X5.6433Y3.3429
G1X5.6372Y3.3346
G1X5.6304Y3.3272
G1X5.6230Y3.3207
G1X5.6151Y3.3152
G1X5.6069Y3.3106
G1X5.5981Y3.3067
G1X5.5815Y3.3014
G1X5.5641Y3.2980
G1X5.5468Y3.2961
G0Z0.2000
G0X5.5001Y3.2544
G1Z-0.1000F30.0
G1X5.3775Y3.2287F100.0
G1X5.3379Y3.2193
G1X5.3247Y3.2197Z-0.0908
G1X5.3099Y3.2210Z-0.0826
G1X5.2942Y3.2234Z-0.0773
G1X5.2822Y3.2259Z-0.0749
G1X5.2691Y3.2293Z-0.0747
G1X5.2561Y3.2334Z-0.0765
G1X5.2433Y3.2381Z-0.0802
G1X5.2318Y3.2427Z-0.0851
G1X5.2268Y3.2451Z-0.0884
G1X5.2238Y3.2469Z-0.0918
G1X5.2186Y3.2507Z-0.1000
G1X5.2185Y3.2510
G1X5.2152Y3.2612
G1X5.2147Y3.2661
G1X5.2157Y3.2777
G1X5.2188Y3.2887
G1X5.2253Y3.2961Z-0.0905
G1X5.2312Y3.3014Z-0.0878
G1X5.2325Y3.3025Z-0.0878
G1X5.2388Y3.3070Z-0.0906
G1X5.2450Y3.3120Z-0.0948
G1X5.2547Y3.3214Z-0.0991
G1X5.2561Y3.3231Z-0.1000
G1X5.2815Y3.3461
G1X5.2871Y3.3482Z-0.0936
G1X5.2949Y3.3522Z-0.0899
G1X5.3023Y3.3571Z-0.0929
G1X5.3120Y3.3629Z-0.1000
G1X5.3251Y3.3660
G1X5.3375Y3.3665
G1X5.3450Y3.3657
G1X5.3513Y3.3611Z-0.0865
G1X5.3589Y3.3560Z-0.0755
G1X5.3622Y3.3541Z-0.0724
G1X5.3686Y3.3507Z-0.0689
G1X5.3788Y3.3463Z-0.0668
G1X5.3924Y3.3416Z-0.0680
G1X5.4145Y3.3342Z-0.0729
G1X5.4423Y3.3237Z-0.0755
G1X5.4700Y3.3141Z-0.0812
G1X5.5038Y3.3030Z-0.0902
G1X5.5088Y3.3010Z-0.0926
G1X5.5117Y3.2996Z-0.0951
G1X5.5158Y3.2972Z-0.1000
G2X5.5001Y3.2544I-0.0210J-0.0166
G0Z0.2000
G0X5.3281Y3.0828
G1Z-0.1000F30.0
G1X5.3172Y3.0853F100.0
G1X5.2974Y3.0932Z-0.0881
G1X5.2801Y3.1003Z-0.0790
G1X5.2628Y3.1071Z-0.0721
G1X5.2395Y3.1160Z-0.0661
G1X5.2107Y3.1277Z-0.0617
G1X5.1802Y3.1411Z-0.0613
G1X5.1559Y3.1529Z-0.0627
G1X5.1398Y3.1594Z-0.0592
G1X5.1343Y3.1617Z-0.0573
G1X5.1245Y3.1662Z-0.0557
G1X5.1181Y3.1698Z-0.0565
G1X5.1125Y3.1738Z-0.0592
G1X5.1073Y3.1784Z-0.0647
G1X5.1016Y3.1848Z-0.0755
G1X5.0955Y3.1936Z-0.0947
G1X5.0941Y3.1957Z-0.1000
G1X5.0960Y3.2065
G1X5.1003Y3.2164
G1X5.1087Y3.2276
G1X5.1194Y3.2367
G1X5.1311Y3.2440
G1X5.1435Y3.2499
G1X5.1566Y3.2545
G1X5.1700Y3.2575
G1X5.1842Y3.2586
G1X5.1969Y3.2569
G1X5.2186Y3.2507
G1X5.2238Y3.2469Z-0.0918
G1X5.2268Y3.2451Z-0.0884
G1X5.2318Y3.2427Z-0.0851
G1X5.2447Y3.2375Z-0.0797
G1X5.2577Y3.2328Z-0.0762
G1X5.2708Y3.2288Z-0.0746
G1X5.2842Y3.2254Z-0.0751
G1X5.2980Y3.2227Z-0.0782
G1X5.3123Y3.2208Z-0.0837
G1X5.3274Y3.2195Z-0.0926
G1X5.3379Y3.2193Z-0.1000
G1X5.3601Y3.2147
G1X5.3924Y3.2090
G1X5.4248Y3.2046
G1X5.4681Y3.2004
G1X5.4783Y3.1973
G1X5.4881Y3.1920
G1X5.4969Y3.1845
G1X5.5039Y3.1746
G1X5.5081Y3.1630
G1X5.5089Y3.1551
G1X5.5059Y3.1479Z-0.0891
G1X5.5010Y3.1388Z-0.0766
G1X5.4949Y3.1295Z-0.0663
G1X5.4888Y3.1214Z-0.0587
G1X5.4826Y3.1145Z-0.0534
G1X5.4759Y3.1081Z-0.0507
G1X5.4700Y3.1035Z-0.0493
G1X5.4635Y3.0991Z-0.0496
G1X5.4568Y3.0952Z-0.0513
G1X5.4496Y3.0919Z-0.0535
G1X5.4443Y3.0899Z-0.0556
G1X5.4359Y3.0875Z-0.0569
G1X5.4199Y3.0842Z-0.0600
G1X5.4057Y3.0804Z-0.0678
G1X5.3972Y3.0774Z-0.0750
G1X5.3908Y3.0755Z-0.0826
G1X5.3803Y3.0727Z-0.1000
G1X5.3281Y3.0828
G0Z0.2000
G0X5.2240Y2.9960
G1Z-0.1000F30.0
G1X5.1975Y2.9987F100.0
G1X5.1719Y3.0037
G1X5.1468Y3.0107
G1X5.1245Y3.0185
G1X5.1218Y3.0203Z-0.0970
G1X5.1176Y3.0228Z-0.0944
G1X5.0988Y3.0328Z-0.0868
G1X5.0760Y3.0456Z-0.0796
G1X5.0534Y3.0586Z-0.0744
G1X5.0289Y3.0731Z-0.0703
G1X5.0011Y3.0902Z-0.0648
G1X4.9899Y3.0981Z-0.0642
G1X4.9797Y3.1068Z-0.0667
G1X4.9743Y3.1127Z-0.0707
G1X4.9716Y3.1160Z-0.0740
G1X4.9665Y3.1236Z-0.0840
G1X4.9617Y3.1319Z-0.1000
G1X4.9619Y3.1374
G1X4.9652Y3.1482
G1X4.9705Y3.1572
G1X4.9804Y3.1691
G1X4.9925Y3.1801
G1X5.0064Y3.1895
G1X5.0149Y3.1939
G1X5.0235Y3.1975
G1X5.0328Y3.2004
G1X5.0425Y3.2024
G1X5.0527Y3.2033
G1X5.0633Y3.2032
G1X5.0742Y3.2018
G1X5.0852Y3.1991
G1X5.0941Y3.1957
G1X5.0977Y3.1902Z-0.0868
G1X5.1038Y3.1821Z-0.0706
G1X5.1097Y3.1762Z-0.0618
G1X5.1151Y3.1718Z-0.0575
G1X5.1202Y3.1686Z-0.0563
G1X5.1268Y3.1650Z-0.0557
G1X5.1353Y3.1612Z-0.0576
G1X5.1430Y3.1582Z-0.0601
G1X5.1559Y3.1529Z-0.0627
G1X5.1831Y3.1397Z-0.0610
G1X5.2116Y3.1273Z-0.0618
G1X5.2403Y3.1157Z-0.0663
G1X5.2686Y3.1047Z-0.0741
G1X5.2809Y3.0999Z-0.0794
G1X5.2986Y3.0927Z-0.0887
G1X5.3172Y3.0853Z-0.1000
G1X5.3294Y3.0782
G2X5.3367Y3.0383I-0.0135J-0.0231
G1X5.3271Y3.0263
G1X5.3140Y3.0153
G1X5.2998Y3.0074
G1X5.2850Y3.0023
G1X5.2702Y2.9991
G1X5.2552Y2.9974
G1X5.2240Y2.9960
G0Z0.2000
G0X4.4843Y3.5329
G1Z-0.1000F30.0
G1X4.4805Y3.5439F100.0
G1X4.4782Y3.5556
G1X4.4774Y3.5680
G1X4.4782Y3.5784
G1X4.4854Y3.5926Z-0.0827
G1X4.4911Y3.6055Z-0.0738
G1X4.4924Y3.6090Z-0.0722
G1X4.4963Y3.6213Z-0.0692
G1X4.4992Y3.6345Z-0.0704
G1X4.5011Y3.6467Z-0.0747
G1X4.5026Y3.6592Z-0.0823
G1X4.5044Y3.6807Z-0.0992
G1X4.5045Y3.6815Z-0.1000
G1X4.5114Y3.7010
G1X4.5145Y3.7117
G1X4.5222Y3.7557
G1X4.5248Y3.7646
G1X4.5284Y3.7735
G1X4.5336Y3.7825
G1X4.5409Y3.7910
G1X4.5507Y3.7982
G1X4.5624Y3.8029
G1X4.5749Y3.8047
G1X4.5875Y3.8039
G1X4.6001Y3.8010
G1X4.6110Y3.7961
G1X4.6196Y3.7849Z-0.0847
G1X4.6239Y3.7777Z-0.0781
G1X4.6285Y3.7681Z-0.0725
G1X4.6327Y3.7566Z-0.0696
G1X4.6350Y3.7478Z-0.0692
G1X4.6369Y3.7386Z-0.0701
G1X4.6396Y3.7213Z-0.0737
G1X4.6441Y3.6870Z-0.0838
G1X4.6464Y3.6723Z-0.0855
G1X4.6469Y3.6662Z-0.0877
G1X4.6473Y3.6457Z-0.1000
G1X4.6422Y3.6090
G1X4.6370Y3.5787
G1X4.6298Y3.5492
G1X4.6246Y3.5187
G1X4.6219Y3.5055
G1X4.6174Y3.4922
G1X4.6129Y3.4840
G1X4.6066Y3.4764
G1X4.5974Y3.4698
G1X4.5860Y3.4661
G1X4.5742Y3.4659
G1X4.5642Y3.4684
G1X4.5485Y3.4748
G1X4.5329Y3.4826
G1X4.5176Y3.4925
G1X4.5096Y3.4990
G1X4.5023Y3.5060
G1X4.4955Y3.5140
G1X4.4894Y3.5230
G1X4.4843Y3.5329
G0Z0.2000
G0X4.3893Y3.7483
G1Z-0.1000F30.0
G1X4.3855Y3.7280F100.0
G2X4.3569Y3.7061I-0.0264J0.0049
G1X4.3538Y3.7079Z-0.0953
G1X4.3503Y3.7101Z-0.0913
G1X4.3447Y3.7145Z-0.0873
G1X4.3422Y3.7168Z-0.0872
G1X4.3377Y3.7215Z-0.0905
G1X4.3329Y3.7279Z-0.0986
G1X4.3322Y3.7287Z-0.1000
G1X4.3231Y3.7544
G1X4.3241Y3.7641Z-0.0846
G1X4.3238Y3.7715Z-0.0763
G1X4.3234Y3.7745Z-0.0739
G1X4.3219Y3.7807Z-0.0714
G1X4.3138Y3.8052Z-0.0693
G1X4.3053Y3.8300Z-0.0682
G1X4.2962Y3.8540Z-0.0705
G1X4.2910Y3.8660Z-0.0738
G1X4.2852Y3.8780Z-0.0794
G1X4.2784Y3.8899Z-0.0876
G1X4.2704Y3.9023Z-0.1000
G1X4.2601Y3.9313
G1X4.2582Y3.9402
G1X4.2574Y3.9491
G1X4.2578Y3.9577
G1X4.2593Y3.9661
G1X4.2620Y3.9746
G1X4.2694Y3.9878
G1X4.2790Y3.9942Z-0.0872
G1X4.2897Y4.0011Z-0.0778
G1X4.2975Y4.0060Z-0.0734
G1X4.3081Y4.0134Z-0.0697
G1X4.3155Y4.0187Z-0.0694
G1X4.3244Y4.0252Z-0.0734
G1X4.3323Y4.0307Z-0.0810
G1X4.3387Y4.0352Z-0.0900
G1X4.3445Y4.0393Z-0.1000
G1X4.3590Y4.0406
G1X4.3721Y4.0392
G1X4.3850Y4.0354
G1X4.3972Y4.0293
G1X4.4009Y4.0268Z-0.0999
G1X4.4052Y4.0224Z-0.0962
G1X4.4106Y4.0162Z-0.0930
G1X4.4138Y4.0120Z-0.0922
G1X4.4180Y4.0064Z-0.0935
G1X4.4208Y4.0022Z-0.0956
G1X4.4245Y3.9959Z-0.1000
G1X4.4260Y3.9920
G1X4.4280Y3.9786
G1X4.4277Y3.9666
G1X4.4234Y3.9383
G1X4.4121Y3.8737
G1X4.4082Y3.8679Z-0.0895
G1X4.4060Y3.8637Z-0.0842
G1X4.4041Y3.8585Z-0.0803
G1X4.4028Y3.8531Z-0.0790
G1X4.3907Y3.7603Z-0.0971
G1X4.3893Y3.7483Z-0.1000
G0Z0.2000
G0X4.1606Y3.7505
G1Z-0.1000F30.0
G1X4.1701Y3.7606F100.0
G1X4.1800Y3.7658
G1X4.1863Y3.7656Z-0.0916
G1X4.1922Y3.7651Z-0.0857
G1X4.1992Y3.7641Z-0.0804
G1X4.2080Y3.7623Z-0.0767
G1X4.2160Y3.7602Z-0.0759
G1X4.2378Y3.7539Z-0.0760
G1X4.2604Y3.7476Z-0.0726
G1X4.2669Y3.7456Z-0.0711
G1X4.2772Y3.7420Z-0.0674
G1X4.2804Y3.7410Z-0.0668
G1X4.2837Y3.7404Z-0.0674
G1X4.2888Y3.7398Z-0.0708
G1X4.2969Y3.7398Z-0.0801
G1X4.3089Y3.7410Z-0.1000
G1X4.3226Y3.7346
G1X4.3322Y3.7287
G1X4.3355Y3.7244Z-0.0938
G1X4.3377Y3.7215Z-0.0905
G1X4.3422Y3.7168Z-0.0872
G1X4.3447Y3.7145Z-0.0873
G1X4.3503Y3.7101Z-0.0913
G1X4.3538Y3.7079Z-0.0953
G1X4.3569Y3.7061Z-0.1000
G1X4.3649Y3.6943
G1X4.3720Y3.6795
G1X4.3771Y3.6630
G1X4.3805Y3.6437
G1X4.3801Y3.6299
G1X4.3769Y3.6202
G1X4.3736Y3.6154
G1X4.3647Y3.6072
G1X4.3613Y3.6052
G1X4.3505Y3.6018
G1X4.3433Y3.6011
G1X4.3284Y3.6024
G1X4.3258Y3.6020
G1X4.3123Y3.6032
G1X4.2933Y3.6100
G1X4.2516Y3.6213
G1X4.2293Y3.6288
G1X4.2174Y3.6340
G1X4.2059Y3.6402
G1X4.1948Y3.6479
G1X4.1844Y3.6573
G1X4.1801Y3.6623
G1X4.1748Y3.6707Z-0.0960
G1X4.1677Y3.6839Z-0.0929
G1X4.1614Y3.6981Z-0.0934
G1X4.1566Y3.7109Z-0.0965
G1X4.1543Y3.7187Z-0.1000
G1X4.1535Y3.7249
G1X4.1551Y3.7379
G1X4.1606Y3.7505
G0Z0.2000
G0X4.1870Y3.9209
G1Z-0.1000F30.0
G1X4.2001Y3.9228F100.0
G1X4.2168Y3.9231
G1X4.2326Y3.9209
G1X4.2472Y3.9164
G1X4.2605Y3.9096
G1X4.2704Y3.9023
G1X4.2784Y3.8899Z-0.0876
G1X4.2862Y3.8760Z-0.0783
G1X4.2916Y3.8645Z-0.0733
G1X4.2968Y3.8525Z-0.0702
G1X4.3057Y3.8289Z-0.0682
G1X4.3140Y3.8048Z-0.0693
G1X4.3219Y3.7807Z-0.0714
G1X4.3234Y3.7745Z-0.0739
G1X4.3239Y3.7694Z-0.0783
G1X4.3241Y3.7641Z-0.0846
G1X4.3231Y3.7544Z-0.1000
G1X4.3133Y3.7442
G1X4.3089Y3.7410
G1X4.2969Y3.7398Z-0.0801
G1X4.2888Y3.7398Z-0.0708
G1X4.2827Y3.7405Z-0.0671
G1X4.2804Y3.7410Z-0.0668
G1X4.2772Y3.7420Z-0.0674
G1X4.2669Y3.7456Z-0.0711
G1X4.2569Y3.7487Z-0.0735
G1X4.2346Y3.7548Z-0.0761
G1X4.2109Y3.7615Z-0.0763
G1X4.2040Y3.7632Z-0.0780
G1X4.1976Y3.7644Z-0.0813
G1X4.1922Y3.7651Z-0.0857
G1X4.1844Y3.7657Z-0.0938
G1X4.1800Y3.7658Z-0.1000
G1X4.1720Y3.7694
G1X4.1596Y3.7763
G1X4.1477Y3.7847
G1X4.1365Y3.7950
G1X4.1266Y3.8073
G1X4.1246Y3.8107
G1X4.1197Y3.8243Z-0.0912
G1X4.1154Y3.8406Z-0.0841
G1X4.1124Y3.8586Z-0.0794
G1X4.1116Y3.8700Z-0.0789
G1X4.1118Y3.8762Z-0.0802
G1X4.1125Y3.8835Z-0.0836
G1X4.1141Y3.8912Z-0.0892
G1X4.1172Y3.9011Z-0.1000
G1X4.1233Y3.9073
G1X4.1306Y3.9125
G1X4.1439Y3.9181
G1X4.1587Y3.9211
G1X4.1743Y3.9217
G1X4.1870Y3.9209
G0Z0.2000
G0X4.3512Y4.0524
G1Z-0.1000F30.0
G1X4.3445Y4.0393F100.0
G1X4.3367Y4.0339Z-0.0869
G1X4.3303Y4.0293Z-0.0788
G1X4.3238Y4.0247Z-0.0730
G1X4.3154Y4.0187Z-0.0694
G1X4.3053Y4.0114Z-0.0703
G1X4.2961Y4.0051Z-0.0741
G1X4.2860Y3.9987Z-0.0806
G1X4.2790Y3.9942Z-0.0872
G1X4.2694Y3.9878Z-0.1000
G1X4.2654Y3.9868
G1X4.2574Y3.9868
G1X4.2476Y3.9887
G1X4.2442Y3.9901
G1X4.2346Y3.9966
G1X4.2322Y3.9991
G1X4.2271Y4.0068
G1X4.2244Y4.0131
G1X4.2226Y4.0225
G1X4.2222Y4.0363
G1X4.2227Y4.0592
G1X4.2221Y4.0632
G1X4.2239Y4.0641Z-0.0926
G1X4.2221Y4.0632Z-0.1000
G1X4.2211Y4.0645
G2X4.2161Y4.0852I0.0214J0.0162
G1X4.2285Y4.1602
G1X4.2342Y4.1855
G1X4.2422Y4.2090
G1X4.2510Y4.2240Z-0.0935
G1X4.2596Y4.2369Z-0.0907
G1X4.2675Y4.2472Z-0.0895
G1X4.2707Y4.2511Z-0.0899
G1X4.2774Y4.2582Z-0.0891
G1X4.2824Y4.2631Z-0.0897
G1X4.2937Y4.2722Z-0.0893
G1X4.3027Y4.2781Z-0.0877
G1X4.3051Y4.2793Z-0.0880
G1X4.3111Y4.2812Z-0.0899
G1X4.3171Y4.2821Z-0.0935
G1X4.3247Y4.2817Z-0.1000
G1X4.3338Y4.2762
G1X4.3430Y4.2673
G1X4.3510Y4.2578
G1X4.3558Y4.2494
G1X4.3554Y4.2424Z-0.0915
G1X4.3546Y4.2361Z-0.0867
G1X4.3528Y4.2293Z-0.0852
G1X4.3500Y4.2183Z-0.0883
G1X4.3493Y4.2072Z-0.0918
G1X4.3499Y4.1936Z-0.0963
G1X4.3513Y4.1798Z-0.0985
G1X4.3539Y4.1610Z-0.1000
G1X4.3590Y4.1153
G1X4.3595Y4.0977
G1X4.3583Y4.0802
G1X4.3544Y4.0615
G1X4.3512Y4.0524
G0Z0.2000
G0X4.4745Y3.8575
G1Z-0.1000F30.0
G1X4.4975Y3.7263F100.0
G1X4.5045Y3.6815
G1X4.5038Y3.6742Z-0.0937
G1X4.5024Y3.6572Z-0.0809
G1X4.5009Y3.6446Z-0.0738
G1X4.4987Y3.6319Z-0.0699
G1X4.4963Y3.6213Z-0.0692
G1X4.4924Y3.6090Z-0.0722
G1X4.4911Y3.6055Z-0.0738
G1X4.4854Y3.5926Z-0.0827
G1X4.4782Y3.5784Z-0.1000
G2X4.4394Y3.5816I-0.0179J0.0200
G1X4.4107Y3.6163
G1X4.4029Y3.6267
G1X4.3960Y3.6384
G1X4.3904Y3.6518
G1X4.3880Y3.6656
G1X4.3872Y3.6907
G1X4.3875Y3.7144
G1X4.3893Y3.7483
G1X4.3908Y3.7611Z-0.0969
G1X4.4025Y3.8510Z-0.0792
G1X4.4028Y3.8531Z-0.0790
G1X4.4041Y3.8585Z-0.0803
G1X4.4060Y3.8637Z-0.0842
G1X4.4082Y3.8679Z-0.0895
G1X4.4121Y3.8737Z-0.1000
G1X4.4200Y3.8761
G1X4.4444Y3.8794
G2X4.4745Y3.8575I0.0036J-0.0265
G0Z0.2000
G0X4.5422Y3.9052
G1Z-0.1000F30.0
G1X4.5308Y3.9159F100.0
G1X4.5188Y3.9257
G1X4.5062Y3.9347
G1X4.4731Y3.9546
G1X4.4551Y3.9675
G1X4.4389Y3.9814
G1X4.4245Y3.9959
G1X4.4208Y4.0022Z-0.0956
G1X4.4180Y4.0064Z-0.0935
G1X4.4134Y4.0126Z-0.0922
G1X4.4084Y4.0187Z-0.0941
G1X4.4029Y4.0248Z-0.0980
G1X4.4008Y4.0269Z-0.1000
G1X4.3904Y4.0444
G1X4.3820Y4.0615
G1X4.3747Y4.0791
G1X4.3686Y4.0969
G1X4.3634Y4.1150
G1X4.3590Y4.1334
G1X4.3539Y4.1610
G1X4.3513Y4.1798Z-0.0985
G1X4.3499Y4.1936Z-0.0963
G1X4.3493Y4.2072Z-0.0918
G1X4.3500Y4.2183Z-0.0883
G1X4.3528Y4.2293Z-0.0852
G1X4.3546Y4.2361Z-0.0867
G1X4.3554Y4.2430Z-0.0921
G1X4.3558Y4.2494Z-0.1000
G1X4.3645Y4.2718
G1X4.3646Y4.2729
G1X4.3682Y4.2743Z-0.0867
G1X4.3646Y4.2729Z-0.1000
G1X4.3614Y4.2750
G1X4.3553Y4.2777
G1X4.3414Y4.2814
G1X4.3290Y4.2821
G1X4.3247Y4.2817
G1X4.3171Y4.2821Z-0.0935
G1X4.3111Y4.2812Z-0.0899
G1X4.3051Y4.2793Z-0.0880
G1X4.3027Y4.2781Z-0.0877
G1X4.2937Y4.2722Z-0.0893
G1X4.2824Y4.2631Z-0.0897
G1X4.2756Y4.2564Z-0.0891
G1X4.2707Y4.2511Z-0.0899
G1X4.2660Y4.2453Z-0.0895
G1X4.2575Y4.2339Z-0.0911
G1X4.2499Y4.2222Z-0.0941
G1X4.2422Y4.2090Z-0.1000
G1X4.2201Y4.1771
G1X4.2013Y4.1476
G1X4.1839Y4.1179
G1X4.1682Y4.0879
G1X4.1544Y4.0577
G1X4.1424Y4.0273
G1X4.1326Y3.9963
G1X4.1250Y3.9655
G1X4.1199Y3.9342
G1X4.1172Y3.9011
G1X4.1141Y3.8912Z-0.0892
G1X4.1125Y3.8835Z-0.0836
G1X4.1118Y3.8762Z-0.0802
G1X4.1117Y3.8679Z-0.0789
G1X4.1128Y3.8554Z-0.0800
G1X4.1161Y3.8375Z-0.0853
G1X4.1208Y3.8208Z-0.0933
G1X4.1246Y3.8107Z-0.1000
G1X4.1300Y3.7871
G1X4.1407Y3.7526
G1X4.1543Y3.7187
G1X4.1566Y3.7109Z-0.0965
G1X4.1626Y3.6951Z-0.0930
G1X4.1693Y3.6807Z-0.0933
G1X4.1767Y3.6675Z-0.0972
G1X4.1801Y3.6623Z-0.1000
G1X4.1887Y3.6449
G1X4.2044Y3.6158
G1X4.2214Y3.5873
G1X4.2398Y3.5595
G1X4.2598Y3.5324
G1X4.2816Y3.5060
G1X4.2957Y3.4907
G1X4.3105Y3.4764
G1X4.3260Y3.4629
G1X4.3421Y3.4502
G1X4.3758Y3.4264
G1X4.4115Y3.4038
G1X4.4847Y3.3590
G1X4.5213Y3.3342
G1X4.5392Y3.3208
G1X4.5570Y3.3062
G1X4.5638Y3.2996
G1X4.5705Y3.2920
G1X4.5814Y3.2765
G1X4.5909Y3.2588
G1X4.5991Y3.2398
G1X4.6055Y3.2205Z-0.0998
G1X4.6069Y3.2118Z-0.0964
G1X4.6095Y3.1975Z-0.0927
G1X4.6130Y3.1765Z-0.0904
G1X4.6161Y3.1546Z-0.0910
G1X4.6185Y3.1330Z-0.0939
G1X4.6201Y3.1134Z-0.0988
G1X4.6204Y3.1113Z-0.1000
G1X4.6193Y3.0918
G1X4.6167Y3.0719
G1X4.6123Y3.0530
G1X4.6062Y3.0359
G1X4.6019Y3.0272
G1X4.5971Y3.0193
G1X4.5915Y3.0119
G1X4.5852Y3.0054
G1X4.5735Y2.9957
G1X4.5611Y2.9869
G1X4.5477Y2.9787
G1X4.5335Y2.9710
G1X4.5027Y2.9570
G1X4.4690Y2.9448
G1X4.4334Y2.9345
G1X4.3957Y2.9259
G1X4.3569Y2.9192
G1X4.3173Y2.9142
G1X4.2775Y2.9112
G1X4.2381Y2.9102
G1X4.1995Y2.9112
G1X4.1626Y2.9144
G1X4.1271Y2.9199
G1X4.0942Y2.9278
G1X4.0788Y2.9328
G1X4.0641Y2.9385
G1X4.0502Y2.9450
G1X4.0377Y2.9520
G1X3.9110Y3.0325
G1X3.7231Y3.1543
G1X3.6601Y3.1938
G1X3.5967Y3.2324
G1X3.5328Y3.2694
G1X3.5128Y3.2801
G1X3.4931Y3.2896
G1X3.4735Y3.2979
G1X3.4541Y3.3050
G1X3.4349Y3.3111
G1X3.4160Y3.3160
G1X3.3972Y3.3199
G1X3.3787Y3.3227
G1X3.3604Y3.3244
G1X3.3424Y3.3251
G1X3.3247Y3.3248
G1X3.3073Y3.3235
G1X3.2901Y3.3211
G1X3.2732Y3.3178
G1X3.2567Y3.3135
G1X3.2404Y3.3083
G1X3.2245Y3.3021
G1X3.2088Y3.2949
G1X3.1935Y3.2867
G1X3.1786Y3.2776
G1X3.1640Y3.2676
G1X3.1497Y3.2566
G1X3.1359Y3.2446
G1X3.1224Y3.2317
G1X3.1094Y3.2178
G1X3.0968Y3.2029
G1X3.0846Y3.1872
G1X3.0729Y3.1704
G1X3.0618Y3.1528
G1X3.0511Y3.1342
G1X3.0410Y3.1147
G1X3.0314Y3.0941
G1X3.0175Y3.0616
G1X3.0091Y3.0441
G1X2.9990Y3.0270
G1X2.9925Y3.0181
G1X2.9854Y3.0098
G1X2.9774Y3.0020
G1X2.9683Y2.9948
G1X2.9582Y2.9884
G1X2.9471Y2.9829
G1X2.9350Y2.9786
G1X2.8956Y2.9698
G1X2.8704Y2.9630
G1X2.8483Y2.9548
G1X2.8383Y2.9500
G1X2.8291Y2.9446
G1X2.8208Y2.9387
G1X2.8133Y2.9321
G1X2.8066Y2.9249
G1X2.8006Y2.9167
G1X2.7954Y2.9075
G1X2.7909Y2.8969
G1X2.7873Y2.8849
G1X2.7846Y2.8709
G1X2.7825Y2.8538
G1X2.7817Y2.8372
G1X2.7821Y2.8213
G1X2.7836Y2.8061
G1X2.7862Y2.7916
G1X2.7898Y2.7776
G1X2.7945Y2.7642
G1X2.8003Y2.7513
G1X2.8071Y2.7388
G1X2.8150Y2.7267
G1X2.8239Y2.7150
G1X2.8339Y2.7037
G1X2.8450Y2.6927
G1X2.8572Y2.6821
G1X2.8705Y2.6718
G1X2.8951Y2.6548
G1X2.9031Y2.6483Z-0.0961
G1X2.9085Y2.6446Z-0.0911
G1X2.9091Y2.6414Z-0.0800
G1X2.9085Y2.6446Z-0.0911
G1X2.9168Y2.6445Z-0.0666
G1X2.9191Y2.6448Z-0.0587
G1X2.9100Y2.6446Z-0.0872
G1X2.9085Y2.6446Z-0.0911
G1X2.9031Y2.6483Z-0.0961
G1X2.8951Y2.6548Z-0.1000
G1X2.8867Y2.6644
G1X2.8682Y2.6919
G1X2.8520Y2.7200
G1X2.8452Y2.7345
G1X2.8396Y2.7493
G1X2.8355Y2.7646
G1X2.8333Y2.7804
G1X2.8336Y2.7966
G1X2.8367Y2.8122
G1X2.8399Y2.8208
G1X2.8437Y2.8286
G1X2.8483Y2.8360
G1X2.8538Y2.8431
G1X2.8600Y2.8497
G1X2.8670Y2.8558
G1X2.8834Y2.8670
G1X2.9017Y2.8761
G1X2.9485Y2.8932
G1X2.9706Y2.9040
G1X2.9902Y2.9164
G1X3.0077Y2.9305
G1X3.0234Y2.9460
G1X3.0382Y2.9639
G1X3.0518Y2.9834
G1X3.0908Y3.0496
G1X3.1169Y3.0898
G1X3.1433Y3.1252
G1X3.1566Y3.1412
G1X3.1702Y3.1560
G1X3.1840Y3.1696
G1X3.1980Y3.1821
G1X3.2124Y3.1934
G1X3.2272Y3.2035
G1X3.2423Y3.2123
G1X3.2579Y3.2199
G1X3.2738Y3.2263
G1X3.2901Y3.2313
G1X3.3068Y3.2350
G1X3.3238Y3.2373
G1X3.3412Y3.2384
G1X3.3588Y3.2382
G1X3.3768Y3.2367
G1X3.3950Y3.2341
G1X3.4137Y3.2303
G1X3.4327Y3.2253
G1X3.4521Y3.2192
G1X3.4719Y3.2121
G1X3.5131Y3.1945
G1X3.5567Y3.1728
G1X3.6026Y3.1471
G1X3.6816Y3.0995
G1X3.7592Y3.0503
G1X3.8357Y2.9997
G1X3.9113Y2.9478
G1X3.9862Y2.8951
G1X4.0605Y2.8417
G1X4.3557Y2.6266
G1X4.4299Y2.5737
G1X4.5045Y2.5217
G1X4.5798Y2.4708
G1X4.6559Y2.4212
G1X4.7331Y2.3733
G1X4.8295Y2.3163
G1X4.8470Y2.3047
G1X4.8639Y2.2923
G1X4.8801Y2.2791
G1X4.8954Y2.2649
G1X4.9098Y2.2497
G1X4.9230Y2.2335
G1X4.9348Y2.2163
G1X4.9450Y2.1978
G1X4.9536Y2.1783
G1X4.9601Y2.1576
G1X4.9646Y2.1359
G1X4.9668Y2.1132
G1X4.9665Y2.0895
G1X4.9638Y2.0649
G1X4.9586Y2.0402
G1X4.9493Y2.0039
G1X4.9443Y1.9904
G1X4.9373Y1.9772
G1X4.9322Y1.9700
G1X4.9265Y1.9636
G1X4.9198Y1.9577
G1X4.9122Y1.9524
G1X4.9037Y1.9481
G1X4.8943Y1.9448
G1X4.8838Y1.9425
G1X4.8733Y1.9418
G1X4.8630Y1.9429
G1X4.8533Y1.9458
G1X4.8447Y1.9501
G1X4.8367Y1.9559
G1X4.8264Y1.9670
G1X4.8187Y1.9789
G1X4.8082Y1.9984
G1X4.8039Y2.0052
G1X4.7913Y2.0207
G1X4.7757Y2.0361
G1X4.7585Y2.0503
G1X4.7396Y2.0634
G1X4.7193Y2.0751
G1X4.6981Y2.0855
G1X4.6762Y2.0943
G1X4.6539Y2.1015
G1X4.6317Y2.1070
G1X4.6099Y2.1107
G1X4.5888Y2.1126
G1X4.5689Y2.1126
G1X4.5501Y2.1107
G1X4.5339Y2.1072
G1X4.5196Y2.1019
G1X4.5070Y2.0947
G1X4.4769Y2.0749
G1X4.4454Y2.0556
G1X4.3196Y1.9843
G1X4.2892Y1.9661
G1X4.2594Y1.9471
G1X4.1771Y1.8914
G1X4.1504Y1.8721
G1X4.1245Y1.8521
G1X4.0998Y1.8314
G1X4.0764Y1.8098
G1X4.0439Y1.7756
G1X4.0329Y1.7648
G1X4.0216Y1.7549
G1X4.0100Y1.7459
G1X3.9982Y1.7379
G1X3.9860Y1.7309
G1X3.9734Y1.7250
G1X3.9606Y1.7201
G1X3.9473Y1.7164
G1X3.9338Y1.7140
G1X3.9201Y1.7127
G1X3.9062Y1.7126
G1X3.8921Y1.7138
G1X3.8779Y1.7161
G1X3.8636Y1.7196
G1X3.8346Y1.7284
G1X3.8254Y1.7294
G1X3.8232Y1.7293
G1X3.8205Y1.7324Z-0.0861
G1X3.8231Y1.7292Z-0.1000
G1X3.8223Y1.7200
G1X3.8235Y1.7077
G1X3.8281Y1.6852
G1X3.8345Y1.6652
G1X3.8425Y1.6476
G1X3.8518Y1.6322
G1X3.8623Y1.6188
G1X3.8747Y1.6064
G1X3.8881Y1.5954
G1X3.9028Y1.5856
G1X3.9189Y1.5767
G1X3.9361Y1.5687
G1X3.9544Y1.5613
G1X3.9735Y1.5545
G1X4.0144Y1.5419
G1X4.0726Y1.5253
G1X4.0885Y1.5217
G1X4.1214Y1.5159
G1X4.1547Y1.5116
G1X4.2231Y1.5047
G1X4.2578Y1.5005
G1X4.2925Y1.4947
G1X4.3268Y1.4866
G1X4.3451Y1.4822
G1X4.3632Y1.4790
G1X4.3820Y1.4769
G1X4.4014Y1.4758
G1X4.4212Y1.4758
G1X4.4413Y1.4768
G1X4.4618Y1.4788
G1X4.4825Y1.4818
G1X4.5033Y1.4858
G1X4.5242Y1.4906
G1X4.5451Y1.4965
G1X4.5659Y1.5031
G1X4.5865Y1.5107
G1X4.6068Y1.5190
G1X4.6269Y1.5282
G1X4.6465Y1.5381
G1X4.6657Y1.5487
G1X4.6843Y1.5600
G1X4.7022Y1.5719
G1X4.7195Y1.5845
G1X4.7360Y1.5977
G1X4.7516Y1.6113
G1X4.7664Y1.6255
G1X4.7801Y1.6402
G1X4.7928Y1.6552
G1X4.8044Y1.6706
G1X4.8147Y1.6864
G1X4.8239Y1.7024
G1X4.8318Y1.7187
G1X4.8383Y1.7352
G1X4.8435Y1.7518
G1X4.8523Y1.7911
G1X4.8590Y1.8124
G1X4.8669Y1.8326
G1X4.8759Y1.8522
G1X4.8953Y1.8883
G1X4.9344Y1.9561
G1X4.9427Y1.9724
G1X4.9501Y1.9889
G1X4.9564Y2.0055
G1X4.9613Y2.0224
G1X4.9649Y2.0397
G1X4.9670Y2.0591
G2X5.0172Y2.0689I0.0266J-0.0029
G1X5.0257Y2.0531
G1X5.0329Y2.0356
G1X5.0357Y2.0253
G1X5.0371Y2.0145
G1X5.0363Y2.0025
G1X5.0327Y1.9920
G1X5.0202Y1.9690
G1X5.0103Y1.9480
G1X5.0013Y1.9263
G1X4.9931Y1.9042
G1X4.9781Y1.8581
G1X4.9491Y1.7630
G1X4.9408Y1.7388
G1X4.9317Y1.7147
G1X4.9215Y1.6908
G1X4.9100Y1.6671
G1X4.8970Y1.6438
G1X4.8665Y1.5977
G1X4.8364Y1.5501
G1X4.8084Y1.5010
G1X4.7955Y1.4760
G1X4.7833Y1.4508
G1X4.7720Y1.4254
G1X4.7616Y1.3999
G1X4.7522Y1.3743
G1X4.7439Y1.3487
G1X4.7367Y1.3232
G1X4.7307Y1.2978
G1X4.7259Y1.2725
G1X4.7225Y1.2473
G1X4.7204Y1.2223
G1X4.7199Y1.1925
G1X4.7218Y1.1630
G1X4.7261Y1.1340
G1X4.7326Y1.1048
G1X4.7411Y1.0761
G1X4.7515Y1.0478
G1X4.7600Y1.0286
G1X4.7620Y1.0124Z-0.0816
G1X4.7632Y1.0049Z-0.0730
G1X4.7645Y0.9995Z-0.0683
G1X4.7666Y0.9929Z-0.0642
G1X4.7689Y0.9873Z-0.0625
G1X4.7721Y0.9811Z-0.0614
G1X4.7770Y0.9735Z-0.0633
G1X4.7835Y0.9652Z-0.0689
G1X4.7930Y0.9553Z-0.0802
G1X4.8015Y0.9480Z-0.0925
G1X4.8061Y0.9445Z-0.1000
G1X4.8286Y0.9112
G1X4.8480Y0.8851
G1X4.8684Y0.8595
G1X4.8896Y0.8344
G1X4.9185Y0.8023Z-0.0998
G1X4.9507Y0.7684Z-0.1000
G1X4.9676Y0.7524
G1X4.9852Y0.7374
G1X5.0033Y0.7238
G1X5.0106Y0.7193
G1X5.0139Y0.7130Z-0.0819
G1X5.0153Y0.7104Z-0.0717
G1X5.0126Y0.7159Z-0.0905
G1X5.0106Y0.7193Z-0.1000
G1X5.0124Y0.7427
G1X5.0156Y0.7580
G1X5.0205Y0.7720
G1X5.0266Y0.7851
G1X5.0398Y0.8069
G1X5.0717Y0.8565
G1X5.0893Y0.8859
G1X5.1060Y0.9154
G1X5.1216Y0.9450
G1X5.1402Y0.9848
G1X5.1471Y0.9940Z-0.0901
G1X5.1534Y1.0035Z-0.0824
G1X5.1588Y1.0131Z-0.0762
G1X5.1636Y1.0230Z-0.0724
G1X5.1678Y1.0331Z-0.0710
G1X5.1711Y1.0437Z-0.0710
G1X5.1739Y1.0547Z-0.0736
G1X5.1760Y1.0663Z-0.0788
G1X5.1772Y1.0786Z-0.0858
G1X5.1777Y1.0917Z-0.0962
G1X5.1776Y1.0957Z-0.1000
G1X5.1837Y1.1275
G1X5.1874Y1.1587
G1X5.1889Y1.1906
G1X5.1880Y1.2230
G1X5.1845Y1.2559
G1X5.1783Y1.2895
G1X5.1691Y1.3238
G1X5.1621Y1.3450
G1X5.1543Y1.3658
G1X5.1363Y1.4063
G1X5.1155Y1.4463
G1X5.0929Y1.4856
G1X5.0207Y1.6046
G1X4.9977Y1.6458
G1X4.9816Y1.6790
G1X4.9752Y1.6946
G1X4.9699Y1.7096
G1X4.9657Y1.7242
G1X4.9627Y1.7385
G1X4.9610Y1.7525
G1X4.9607Y1.7664
G1X4.9618Y1.7800
G1X4.9644Y1.7934
G1X4.9685Y1.8063
G1X4.9739Y1.8188
G1X4.9807Y1.8308
G1X4.9886Y1.8424
G1X4.9975Y1.8536
G1X5.0071Y1.8642
G2X5.0487Y1.8619I0.0198J-0.0180
G1X5.0507Y1.8562Z-0.0961
G1X5.0520Y1.8504Z-0.0948
G1X5.0526Y1.8450Z-0.0959
G1X5.0532Y1.8346Z-0.1000
G1X5.0529Y1.8147
G1X5.0548Y1.7865
G1X5.0590Y1.7595
G1X5.0653Y1.7338
G1X5.0738Y1.7084
G1X5.0809Y1.6913
G1X5.0905Y1.6677Z-0.0951
G1X5.0943Y1.6594Z-0.0941
G1X5.0982Y1.6514Z-0.0923
G1X5.1068Y1.6353Z-0.0904
G1X5.1164Y1.6194Z-0.0892
G1X5.1270Y1.6036Z-0.0896
G1X5.1317Y1.5973Z-0.0910
G1X5.1375Y1.5907Z-0.0949
G1X5.1438Y1.5845Z-0.1000
G1X5.1718Y1.5467
G1X5.1943Y1.5176
G1X5.1998Y1.5059Z-0.0896
G1X5.2032Y1.4999Z-0.0859
G1X5.2061Y1.4951Z-0.0838
G1X5.2091Y1.4908Z-0.0829
G1X5.2139Y1.4845Z-0.0834
G1X5.2177Y1.4802Z-0.0850
G1X5.2238Y1.4741Z-0.0896
G1X5.2283Y1.4701Z-0.0941
G1X5.2331Y1.4663Z-0.1000
G1X5.2517Y1.4415
G1X5.2642Y1.4261
G1X5.2775Y1.4111
G1X5.3028Y1.3859
G1X5.3100Y1.3792Z-0.0995
G1X5.3214Y1.3696Z-0.1000
G1X5.3374Y1.3570
G1X5.3541Y1.3453
G1X5.3714Y1.3343
G1X5.3894Y1.3242
G1X5.4134Y1.3127
G1X5.4242Y1.3059Z-0.0924
G1X5.4348Y1.3004Z-0.0869
G1X5.4458Y1.2955Z-0.0837
G1X5.4558Y1.2921Z-0.0821
G1X5.4665Y1.2892Z-0.0829
G1X5.4772Y1.2872Z-0.0850
G1X5.4883Y1.2860Z-0.0899
G1X5.4998Y1.2859Z-0.0966
G1X5.5040Y1.2861Z-0.1000
G1X5.5567Y1.2803
G1X5.6289Y1.2744
G1X5.6535Y1.2715
G1X5.6781Y1.2676
G1X5.7026Y1.2623
G1X5.7268Y1.2552
G1X5.7503Y1.2461
G1X5.7738Y1.2341
G1X5.7960Y1.2194
G1X5.8067Y1.2108
G1X5.8170Y1.2014
G1X5.8270Y1.1912
G1X5.8365Y1.1801
G1X5.8456Y1.1682
G1X5.8542Y1.1553
G1X5.8623Y1.1415
G1X5.8691Y1.1285
G1X5.8742Y1.1205
G1X5.8810Y1.1125
G1X5.8896Y1.1044
G1X5.8993Y1.0970
G1X5.9092Y1.0909
G1X5.9183Y1.0866
G1X5.9279Y1.0841
G1X5.9324Y1.0849
G1X5.9369Y1.0890
G1X5.9427Y1.1006
G1X5.9461Y1.1117
G1X5.9488Y1.1243
G1X5.9526Y1.1506
G1X5.9553Y1.1766
G1X5.9564Y1.2023
G1X5.9560Y1.2279
G1X5.9544Y1.2536
G1X5.9517Y1.2793
G1X5.9480Y1.3050
G1X5.9385Y1.3572
G1X5.9204Y1.4405
G1X5.9208Y1.4499Z-0.0910
G1X5.9205Y1.4554Z-0.0877
G1X5.9189Y1.4691Z-0.0829
G1X5.9172Y1.4823Z-0.0798
G1X5.9152Y1.4951Z-0.0780
G1X5.9128Y1.5076Z-0.0776
G1X5.9103Y1.5198Z-0.0785
G1X5.9076Y1.5319Z-0.0814
G1X5.9041Y1.5453Z-0.0863
G1X5.9013Y1.5555Z-0.0917
G1X5.8975Y1.5681Z-0.1000
G1X5.8929Y1.5973
G1X5.8868Y1.6217
G1X5.8788Y1.6452
G1X5.8691Y1.6680
G1X5.8577Y1.6901
G1X5.8447Y1.7114
G1X5.8304Y1.7321
G1X5.8147Y1.7522
G1X5.7979Y1.7717
G1X5.7800Y1.7907
G1X5.7612Y1.8090
G1X5.7215Y1.8442
G1X5.7009Y1.8611
G1X5.5992Y1.9398
G1X5.5690Y1.9621
G1X5.5386Y1.9815
G1X5.5231Y1.9899
G1X5.5073Y1.9971
G1X5.4913Y2.0031
G1X5.4749Y2.0077
G1X5.4581Y2.0108
G1X5.4407Y2.0123
G1X5.4226Y2.0120
G1X5.3846Y2.0068
G1X5.3472Y2.0029
G1X5.3107Y2.0017
G1X5.2751Y2.0033
G1X5.2406Y2.0076
G1X5.2070Y2.0146
G1X5.1746Y2.0245
G1X5.1434Y2.0372
G1X5.1134Y2.0527
G1X5.0848Y2.0710
G1X5.0575Y2.0920
G1X5.0316Y2.1157
G1X5.0072Y2.1421
G1X4.9842Y2.1712
G1X4.9626Y2.2028
G1X4.9425Y2.2371
G1X4.9332Y2.2548
G2X4.9645Y2.2930I0.0237J0.0125
G1X5.0100Y2.2797
G1X5.0551Y2.2678
G1X5.1002Y2.2572
G1X5.1453Y2.2479
G1X5.1902Y2.2401
G1X5.2351Y2.2337
G1X5.2800Y2.2290
G1X5.3247Y2.2259
G1X5.3694Y2.2244
G1X5.4140Y2.2248
G1X5.4585Y2.2269
G1X5.5030Y2.2310
G1X5.5474Y2.2370
G1X5.5918Y2.2450
G1X5.6361Y2.2551
G1X5.7067Y2.2744
G1X5.7314Y2.2801
G1X5.7548Y2.2843
G1X5.7771Y2.2869
G1X5.7984Y2.2876
G1X5.8182Y2.2860
G1X5.8285Y2.2841
G1X5.8380Y2.2815
G1X5.8473Y2.2780
G1X5.8562Y2.2735
G1X5.8646Y2.2682
G1X5.8724Y2.2618
G1X5.8794Y2.2545
G1X5.8856Y2.2464
G1X5.8910Y2.2375
G1X5.8955Y2.2279
G1X5.8991Y2.2178
G1X5.9019Y2.2071
G1X5.9053Y2.1840
G1X5.9061Y2.1581
G1X5.9043Y2.1300
G1X5.8998Y2.0931
G1X5.9011Y2.0782
G1X5.9078Y2.0510
G1X5.9219Y2.0079
G1X5.9403Y1.9601
G1X5.9504Y1.9366
G1X5.9721Y1.8900
G1X5.9955Y1.8442
G1X6.0204Y1.7990
G1X6.0463Y1.7541
G1X6.1550Y1.5748
G1X6.1817Y1.5291
G1X6.2076Y1.4828
G1X6.2323Y1.4356
G1X6.2553Y1.3875
G1X6.2766Y1.3380
G1X6.2953Y1.2880
G1X6.2984Y1.2805
G1X6.3038Y1.2727
G1X6.3094Y1.2688
G1X6.3170Y1.2668
G1X6.3279Y1.2668
G1X6.3415Y1.2697
G1X6.3487Y1.2721
G1X6.3649Y1.2791
G1X6.3811Y1.2881
G1X6.4135Y1.3092
G1X6.4441Y1.3320
G1X6.4725Y1.3565
G1X6.4986Y1.3828
G1X6.5224Y1.4110
G1X6.5334Y1.4258
G1X6.5437Y1.4413
G1X6.5535Y1.4572
G1X6.5626Y1.4738
G1X6.5711Y1.4909
G1X6.5860Y1.5249
G1X6.5910Y1.5342
G1X6.5983Y1.5440
G1X6.6091Y1.5530
G1X6.6223Y1.5585
G1X6.6311Y1.5600
G1X6.6397Y1.5602
G1X6.6535Y1.5580
G1X6.7166Y1.5417
G1X6.7788Y1.5238
G1X6.8095Y1.5139
G1X6.8400Y1.5030
G1X6.8700Y1.4911
G1X6.8996Y1.4781
G1X6.9285Y1.4637
G1X6.9568Y1.4479
G1X6.9842Y1.4304
G1X7.0106Y1.4112
G1X7.0360Y1.3900
G1X7.0600Y1.3670
G1X7.0830Y1.3416
G1X7.1179Y1.2964
G1X7.1308Y1.2822
G1X7.1428Y1.2712
G1X7.1539Y1.2631
G1X7.1640Y1.2578
G1X7.1731Y1.2546
