(Header)
(Generated by gSender from Sienci Labs)
G54
G20 ;inches
G90
G0 X0 Y0 Z0.12
G1 F400
M3 S17000
(Header End)


(*** Layer 1 ***)
(Covering Surfacing Perimeter)
(Ramping into Material)
G91
G1 X0.96 Z-0.13
G1 X0.197
G1 X-1.157
G90
(End of Ramping into Material)

G1 Y32
G1 X48
G1 Y0
G1 X0
(End of Covering Surfacing Perimeter)

G1 X0.7
G1 Y32
G1 X1.4
G1 Y0

G1 X2.1
G1 Y32
G1 X2.8
G1 Y0

G1 X3.5
G1 Y32
G1 X4.2
G1 Y0

G1 X4.9
G1 Y32
G1 X5.6
G1 Y0

G1 X6.3
G1 Y32
G1 X7
G1 Y0

G1 X7.7
G1 Y32
G1 X8.4
G1 Y0

G1 X9.1
G1 Y32
G1 X9.8
G1 Y0

G1 X10.5
G1 Y32
G1 X11.2
G1 Y0

G1 X11.9
G1 Y32
G1 X12.6
G1 Y0

G1 X13.3
G1 Y32
G1 X14
G1 Y0

G1 X14.7
G1 Y32
G1 X15.4
G1 Y0

G1 X16.1
G1 Y32
G1 X16.8
G1 Y0

G1 X17.5
G1 Y32
G1 X18.2
G1 Y0

G1 X18.9
G1 Y32
G1 X19.6
G1 Y0

G1 X20.3
G1 Y32
G1 X21
G1 Y0

G1 X21.7
G1 Y32
G1 X22.4
G1 Y0

G1 X23.1
G1 Y32
G1 X23.8
G1 Y0

G1 X24.5
G1 Y32
G1 X25.2
G1 Y0

G1 X25.9
G1 Y32
G1 X26.6
G1 Y0

G1 X27.3
G1 Y32
G1 X28
G1 Y0

G1 X28.7
G1 Y32
G1 X29.4
G1 Y0

G1 X30.1
G1 Y32
G1 X30.8
G1 Y0

G1 X31.5
G1 Y32
G1 X32.2
G1 Y0

G1 X32.9
G1 Y32
G1 X33.6
G1 Y0

G1 X34.3
G1 Y32
G1 X35
G1 Y0

G1 X35.7
G1 Y32
G1 X36.4
G1 Y0

G1 X37.1
G1 Y32
G1 X37.8
G1 Y0

G1 X38.5
G1 Y32
G1 X39.2
G1 Y0

G1 X39.9
G1 Y32
G1 X40.6
G1 Y0

G1 X41.3
G1 Y32
G1 X42
G1 Y0

G1 X42.7
G1 Y32
G1 X43.4
G1 Y0

G1 X44.1
G1 Y32
G1 X44.8
G1 Y0

G1 X45.5
G1 Y32
G1 X46.2
G1 Y0

G1 X46.9
G1 Y32
G1 X47.6
G1 Y0


(Returning to Zero)
G92 Z0
G0 Z0.12
G0 X0 Y0
(End of Returning to Zero)

(*** End of Layer 1 ***)


(Footer)
M5 ;Turn off spindle
(End of Footer)